;FLAVOR:Marlin
;TIME:2309
;Filament used: 1.76715m
;Layer height: 0.2
;MINX:91.89
;MINY:83.449
;MINZ:0.2
;MAXX:128.11
;MAXY:136.551
;MAXZ:25
;Generated with Cura_SteamEngine 5.0.0
M140 S60
M105
M190 S60
M104 S200
M105
M109 S200
M82 ;absolute extrusion mode
; Ender 3 Custom Start G-code
G92 E0 ; Reset Extruder
G28 ; Home all axes
G1 Z2.0 F3000 ; Move Z Axis up little to prevent scratching of Heat Bed
G1 X0.1 Y20 Z0.3 F5000.0 ; Move to start position
G1 X0.1 Y200.0 Z0.3 F1500.0 E15 ; Draw the first line
G1 X0.4 Y200.0 Z0.3 F5000.0 ; Move to side a little
G1 X0.4 Y20 Z0.3 F1500.0 E30 ; Draw the second line
G92 E0 ; Reset Extruder
G1 Z2.0 F3000 ; Move Z Axis up little to prevent scratching of Heat Bed
G1 X5 Y20 Z0.3 F5000.0 ; Move over to prevent blob squish
G92 E0
G92 E0
G1 F1500 E-6.5
;LAYER_COUNT:125
;LAYER:0
M107
G0 F6000 X98.506 Y88.611 Z0.2
G0 X94.946 Y95.603
;TYPE:SKIRT
G1 F1500 E0
G1 F1200 X95.163 Y94.779 E0.02834
G1 X95.425 Y93.925 E0.05805
G1 X95.561 Y93.539 E0.07166
G1 X95.87 Y92.758 E0.0996
G1 X96.026 Y92.404 E0.11247
G1 X96.552 Y91.363 E0.15126
G1 X96.738 Y91.039 E0.16368
G1 X97.306 Y90.151 E0.19874
G1 X97.599 Y89.738 E0.21559
G1 X98.242 Y88.917 E0.25027
G1 X98.506 Y88.611 E0.26371
G1 X99.261 Y87.82 E0.30008
G1 X99.578 Y87.519 E0.31462
G1 X100.242 Y86.938 E0.34397
G1 X100.935 Y86.404 E0.37307
G1 X101.254 Y86.177 E0.38609
G1 X102.258 Y85.541 E0.42562
G1 X102.717 Y85.284 E0.44311
G1 X103.527 Y84.873 E0.47332
G1 X104.265 Y84.555 E0.50005
G1 X104.479 Y84.471 E0.5077
G1 X105.124 Y84.24 E0.53049
G1 X105.425 Y84.143 E0.541
G1 X106.094 Y83.951 E0.56415
G1 X106.366 Y83.882 E0.57349
G1 X107.009 Y83.739 E0.59539
G1 X107.25 Y83.693 E0.60356
G1 X107.924 Y83.586 E0.62625
G1 X108.207 Y83.55 E0.63574
G1 X108.983 Y83.478 E0.66166
G1 X109.704 Y83.451 E0.68566
G1 X110.159 Y83.449 E0.70079
G1 X111.239 Y83.498 E0.73675
G1 X111.674 Y83.539 E0.75128
G1 X112.521 Y83.652 E0.7797
G1 X112.746 Y83.691 E0.7873
G1 X113.543 Y83.859 E0.81439
G1 X113.866 Y83.94 E0.82547
G1 X114.591 Y84.149 E0.85056
G1 X114.957 Y84.268 E0.86336
G1 X116.082 Y84.703 E0.90348
G1 X116.587 Y84.931 E0.92191
G1 X117.78 Y85.56 E0.96677
G1 X118.199 Y85.815 E0.98308
G1 X119.161 Y86.473 E1.02184
G1 X119.488 Y86.723 E1.03553
G1 X120.14 Y87.263 E1.06369
G1 X120.386 Y87.483 E1.07467
G1 X120.883 Y87.956 E1.09749
G1 X121.033 Y88.108 E1.10459
G1 X121.514 Y88.628 E1.12815
G1 X121.664 Y88.801 E1.13577
G1 X122.08 Y89.311 E1.15766
G1 X122.324 Y89.629 E1.17099
G1 X122.894 Y90.446 E1.20412
G1 X123.109 Y90.786 E1.2175
G1 X123.629 Y91.703 E1.25256
G1 X123.814 Y92.069 E1.2662
G1 X124.263 Y93.079 E1.30297
G1 X124.427 Y93.505 E1.31815
G1 X124.717 Y94.364 E1.3483
G1 X124.88 Y94.936 E1.36809
G1 X125.143 Y95.952 E1.40299
G1 X127.561 Y105.863 E1.7423
G1 X127.775 Y106.818 E1.77485
G1 X127.862 Y107.259 E1.7898
G1 X128.022 Y108.357 E1.82671
G1 X128.062 Y108.782 E1.84091
G1 X128.11 Y109.901 E1.87816
G1 X128.107 Y110.278 E1.8907
G1 X128.07 Y111.091 E1.91777
G1 X128.041 Y111.444 E1.92955
G1 X127.873 Y112.655 E1.97021
G1 X127.728 Y113.396 E1.99532
G1 X127.62 Y113.888 E2.01208
G1 X125.056 Y124.403 E2.37205
G1 X124.815 Y125.307 E2.40317
G1 X124.579 Y126.075 E2.42989
G1 X124.257 Y126.931 E2.46031
G1 X124.044 Y127.435 E2.47851
G1 X123.452 Y128.629 E2.52284
G1 X123.262 Y128.96 E2.53553
G1 X122.694 Y129.849 E2.57062
G1 X122.401 Y130.262 E2.58746
G1 X121.758 Y131.083 E2.62215
G1 X121.494 Y131.389 E2.63559
G1 X120.726 Y132.192 E2.67255
G1 X120.409 Y132.492 E2.68706
G1 X119.791 Y133.035 E2.71442
G1 X119.63 Y133.166 E2.72133
G1 X119.065 Y133.596 E2.74494
G1 X118.746 Y133.823 E2.75796
G1 X117.742 Y134.459 E2.79749
G1 X117.283 Y134.716 E2.81499
G1 X116.473 Y135.127 E2.8452
G1 X115.735 Y135.445 E2.87193
G1 X115.521 Y135.529 E2.87957
G1 X114.876 Y135.76 E2.90236
G1 X114.575 Y135.857 E2.91288
G1 X113.906 Y136.049 E2.93603
G1 X113.634 Y136.118 E2.94536
G1 X112.991 Y136.261 E2.96727
G1 X112.75 Y136.307 E2.97543
G1 X112.076 Y136.414 E2.99813
G1 X111.793 Y136.45 E3.00762
G1 X111.017 Y136.522 E3.03354
G1 X110.296 Y136.549 E3.05754
G1 X109.841 Y136.551 E3.07267
G1 X108.761 Y136.502 E3.10863
G1 X108.326 Y136.461 E3.12316
G1 X107.479 Y136.348 E3.15158
G1 X107.254 Y136.309 E3.15918
G1 X106.457 Y136.141 E3.18627
G1 X106.134 Y136.06 E3.19734
G1 X105.409 Y135.851 E3.22244
G1 X105.043 Y135.732 E3.23524
G1 X103.918 Y135.297 E3.27536
G1 X103.413 Y135.069 E3.29379
G1 X102.22 Y134.44 E3.33864
G1 X101.801 Y134.185 E3.35496
G1 X100.835 Y133.524 E3.39389
G1 X100.507 Y133.273 E3.40762
G1 X99.859 Y132.736 E3.43562
G1 X99.613 Y132.516 E3.44659
G1 X99.117 Y132.044 E3.46936
G1 X98.966 Y131.891 E3.47651
G1 X98.481 Y131.366 E3.50029
G1 X97.918 Y130.687 E3.52962
G1 X97.671 Y130.365 E3.54312
G1 X97.096 Y129.54 E3.57657
G1 X96.884 Y129.204 E3.58978
G1 X96.365 Y128.286 E3.62486
G1 X96.181 Y127.921 E3.63845
G1 X95.734 Y126.913 E3.67513
G1 X95.57 Y126.486 E3.69034
G1 X95.286 Y125.646 E3.71983
G1 X95.12 Y125.061 E3.74006
G1 X94.856 Y124.046 E3.77494
G1 X92.426 Y114.081 E4.11609
G1 X92.225 Y113.182 E4.14673
G1 X92.138 Y112.741 E4.16168
G1 X91.977 Y111.626 E4.19915
G1 X91.937 Y111.194 E4.21358
G1 X91.89 Y110.091 E4.2503
G1 X91.893 Y109.721 E4.2626
G1 X91.93 Y108.909 E4.28964
G1 X91.959 Y108.556 E4.30142
G1 X92.126 Y107.348 E4.34198
G1 X92.27 Y106.611 E4.36696
G1 X92.379 Y106.113 E4.38391
G1 X94.946 Y95.603 E4.74375
G0 F6000 X95.332 Y95.705
G1 F1200 X95.549 Y94.881 E4.77209
G1 X95.802 Y94.058 E4.80073
G1 X95.938 Y93.672 E4.81434
G1 X96.236 Y92.919 E4.84128
G1 X96.392 Y92.565 E4.85414
G1 X96.899 Y91.563 E4.89149
G1 X97.085 Y91.239 E4.90392
G1 X97.633 Y90.383 E4.93772
G1 X97.926 Y89.97 E4.95457
G1 X98.545 Y89.179 E4.98797
G1 X98.809 Y88.873 E5.00142
G1 X99.536 Y88.11 E5.03647
G1 X99.853 Y87.809 E5.05101
G1 X100.493 Y87.249 E5.07929
G1 X101.167 Y86.729 E5.10761
G1 X101.486 Y86.502 E5.12063
G1 X102.453 Y85.89 E5.15869
G1 X102.912 Y85.633 E5.17619
G1 X103.693 Y85.237 E5.20531
G1 X104.411 Y84.927 E5.23132
G1 X104.625 Y84.843 E5.23897
G1 X105.247 Y84.621 E5.26094
G1 X105.548 Y84.524 E5.27145
G1 X106.193 Y84.338 E5.29378
G1 X106.465 Y84.269 E5.30311
G1 X107.084 Y84.132 E5.3242
G1 X107.325 Y84.086 E5.33236
G1 X107.974 Y83.983 E5.35422
G1 X108.257 Y83.947 E5.36371
G1 X109.011 Y83.877 E5.38889
G1 X109.705 Y83.851 E5.41199
G1 X110.16 Y83.849 E5.42712
G1 X111.202 Y83.896 E5.46182
G1 X111.637 Y83.937 E5.47635
G1 X112.452 Y84.046 E5.5037
G1 X112.677 Y84.085 E5.51129
G1 X113.445 Y84.247 E5.5374
G1 X113.768 Y84.328 E5.54847
G1 X114.468 Y84.529 E5.5727
G1 X114.834 Y84.648 E5.5855
G1 X115.918 Y85.068 E5.62416
G1 X116.423 Y85.296 E5.64259
G1 X117.572 Y85.902 E5.6858
G1 X117.991 Y86.157 E5.70211
G1 X118.918 Y86.791 E5.73946
G1 X119.245 Y87.041 E5.75315
G1 X119.873 Y87.561 E5.78027
G1 X120.119 Y87.781 E5.79125
G1 X120.598 Y88.236 E5.81322
G1 X120.748 Y88.388 E5.82033
G1 X121.212 Y88.89 E5.84306
G1 X121.763 Y89.554 E5.87176
G1 X122.007 Y89.872 E5.88509
G1 X122.556 Y90.66 E5.91703
G1 X122.771 Y91 E5.93041
G1 X123.272 Y91.883 E5.96418
G1 X123.457 Y92.249 E5.97782
G1 X123.889 Y93.223 E6.01326
G1 X124.053 Y93.649 E6.02844
G1 X124.333 Y94.477 E6.05751
G1 X124.493 Y95.037 E6.07688
G1 X124.755 Y96.047 E6.11159
G1 X127.171 Y105.953 E6.45072
G1 X127.383 Y106.895 E6.48284
G1 X127.47 Y107.336 E6.49779
G1 X127.623 Y108.395 E6.53337
G1 X127.663 Y108.82 E6.54757
G1 X127.71 Y109.897 E6.58343
G1 X127.707 Y110.274 E6.59597
G1 X127.671 Y111.058 E6.62207
G1 X127.642 Y111.411 E6.63385
G1 X127.481 Y112.579 E6.67307
G1 X127.336 Y113.32 E6.69818
G1 X127.232 Y113.793 E6.71429
G1 X124.669 Y124.3 E7.074
G1 X124.428 Y125.204 E7.10512
G1 X124.201 Y125.944 E7.13086
G1 X123.889 Y126.775 E7.16038
G1 X123.676 Y127.279 E7.17858
G1 X123.105 Y128.43 E7.22132
G1 X122.915 Y128.761 E7.23401
G1 X122.367 Y129.617 E7.26782
G1 X122.074 Y130.03 E7.28466
G1 X121.455 Y130.821 E7.31806
G1 X121.191 Y131.127 E7.33151
G1 X120.451 Y131.902 E7.36715
G1 X120.134 Y132.202 E7.38166
G1 X119.538 Y132.725 E7.40804
G1 X118.833 Y133.271 E7.43769
G1 X118.514 Y133.498 E7.45072
G1 X117.547 Y134.11 E7.48878
G1 X117.088 Y134.367 E7.50628
G1 X116.307 Y134.763 E7.5354
G1 X115.589 Y135.073 E7.56141
G1 X115.375 Y135.157 E7.56906
G1 X114.753 Y135.379 E7.59102
G1 X114.452 Y135.476 E7.60154
G1 X113.807 Y135.662 E7.62387
G1 X113.535 Y135.731 E7.6332
G1 X112.916 Y135.868 E7.65429
G1 X112.675 Y135.914 E7.66245
G1 X112.026 Y136.017 E7.68431
G1 X111.743 Y136.053 E7.69379
G1 X110.989 Y136.123 E7.71898
G1 X110.295 Y136.149 E7.74208
G1 X109.84 Y136.151 E7.75721
G1 X108.798 Y136.104 E7.7919
G1 X108.363 Y136.063 E7.80644
G1 X107.548 Y135.954 E7.83378
G1 X107.323 Y135.915 E7.84138
G1 X106.555 Y135.753 E7.86749
G1 X106.232 Y135.672 E7.87856
G1 X105.532 Y135.471 E7.90278
G1 X105.166 Y135.352 E7.91558
G1 X104.082 Y134.932 E7.95425
G1 X103.577 Y134.704 E7.97268
G1 X102.428 Y134.098 E8.01588
G1 X102.009 Y133.843 E8.0322
G1 X101.078 Y133.206 E8.06972
G1 X100.75 Y132.955 E8.08346
G1 X100.126 Y132.438 E8.11041
G1 X99.88 Y132.218 E8.12138
G1 X99.251 Y131.61 E8.15048
G1 X98.783 Y131.104 E8.17341
G1 X98.235 Y130.444 E8.20194
G1 X97.988 Y130.122 E8.21544
G1 X97.434 Y129.326 E8.24769
G1 X97.222 Y128.99 E8.26091
G1 X96.722 Y128.106 E8.29468
G1 X96.538 Y127.741 E8.30828
G1 X96.108 Y126.77 E8.3436
G1 X95.944 Y126.343 E8.35881
G1 X95.67 Y125.533 E8.38725
G1 X95.507 Y124.96 E8.40707
G1 X95.245 Y123.952 E8.44171
G1 X92.816 Y113.992 E8.78269
G1 X92.617 Y113.105 E8.81292
G1 X92.53 Y112.664 E8.82787
G1 X92.375 Y111.589 E8.864
G1 X92.335 Y111.157 E8.87843
G1 X92.29 Y110.094 E8.91382
G1 X92.293 Y109.724 E8.92612
G1 X92.329 Y108.942 E8.95216
G1 X92.358 Y108.589 E8.96394
G1 X92.519 Y107.424 E9.00306
G1 X92.663 Y106.687 E9.02803
G1 X92.768 Y106.207 E9.04437
G1 X95.332 Y95.705 E9.40393
G0 F6000 X95.719 Y95.806
G1 F1200 X95.936 Y94.982 E9.43227
G1 X96.18 Y94.19 E9.45984
G1 X96.316 Y93.804 E9.47345
G1 X96.602 Y93.081 E9.49931
G1 X96.758 Y92.727 E9.51217
G1 X97.246 Y91.762 E9.54814
G1 X97.432 Y91.438 E9.56057
G1 X97.959 Y90.614 E9.5931
G1 X98.252 Y90.201 E9.60994
G1 X98.848 Y89.44 E9.64209
G1 X99.112 Y89.134 E9.65553
G1 X99.812 Y88.4 E9.68927
G1 X100.129 Y88.099 E9.70381
G1 X100.744 Y87.56 E9.73101
G1 X101.399 Y87.055 E9.75852
G1 X101.718 Y86.828 E9.77154
G1 X102.649 Y86.239 E9.80818
G1 X103.108 Y85.982 E9.82568
G1 X103.859 Y85.601 E9.85368
G1 X104.557 Y85.299 E9.87898
G1 X104.771 Y85.215 E9.88663
G1 X105.369 Y85.002 E9.90774
G1 X105.67 Y84.905 E9.91826
G1 X106.291 Y84.726 E9.93975
G1 X106.563 Y84.657 E9.94909
G1 X107.159 Y84.525 E9.96939
G1 X107.4 Y84.479 E9.97755
G1 X108.025 Y84.38 E9.9986
G1 X108.308 Y84.344 E10.00809
G1 X109.039 Y84.276 E10.0325
G1 X109.707 Y84.251 E10.05474
G1 X110.162 Y84.249 E10.06987
G1 X111.164 Y84.294 E10.10323
G1 X111.599 Y84.335 E10.11776
G1 X112.384 Y84.44 E10.14411
G1 X112.609 Y84.479 E10.1517
G1 X113.348 Y84.635 E10.17682
G1 X113.671 Y84.716 E10.1879
G1 X114.344 Y84.91 E10.21119
G1 X114.71 Y85.029 E10.22399
G1 X115.753 Y85.433 E10.26119
G1 X116.258 Y85.661 E10.27962
G1 X117.364 Y86.244 E10.32121
G1 X117.783 Y86.499 E10.33752
G1 X118.675 Y87.109 E10.37346
G1 X119.002 Y87.359 E10.38715
G1 X119.607 Y87.859 E10.41326
G1 X119.853 Y88.079 E10.42423
G1 X120.463 Y88.669 E10.45246
G1 X120.91 Y89.152 E10.47435
G1 X121.06 Y89.325 E10.48197
G1 X121.445 Y89.798 E10.50225
G1 X121.689 Y90.116 E10.51558
G1 X122.218 Y90.874 E10.54633
G1 X122.433 Y91.214 E10.5597
G1 X122.915 Y92.064 E10.59221
G1 X123.1 Y92.43 E10.60585
G1 X123.516 Y93.366 E10.63991
G1 X123.68 Y93.792 E10.6551
G1 X123.95 Y94.589 E10.68308
G1 X124.106 Y95.138 E10.70207
G1 X124.366 Y96.142 E10.73656
G1 X126.781 Y106.042 E11.07549
G1 X126.99 Y106.973 E11.10723
G1 X127.077 Y107.414 E11.12218
G1 X127.225 Y108.432 E11.15639
G1 X127.265 Y108.857 E11.17059
G1 X127.31 Y109.894 E11.20511
G1 X127.307 Y110.271 E11.21765
G1 X127.273 Y111.025 E11.24276
G1 X127.244 Y111.378 E11.25454
G1 X127.088 Y112.502 E11.29228
G1 X126.943 Y113.243 E11.31739
G1 X126.843 Y113.699 E11.33292
G1 X124.283 Y124.196 E11.69228
G1 X124.042 Y125.1 E11.7234
G1 X123.824 Y125.813 E11.7482
G1 X123.52 Y126.62 E11.77688
G1 X123.307 Y127.124 E11.79508
G1 X122.758 Y128.231 E11.83618
G1 X122.568 Y128.562 E11.84887
G1 X122.041 Y129.386 E11.88141
G1 X121.748 Y129.799 E11.89825
G1 X121.152 Y130.56 E11.9304
G1 X120.888 Y130.866 E11.94384
G1 X120.176 Y131.611 E11.97811
G1 X119.859 Y131.911 E11.99263
G1 X119.286 Y132.415 E12.01801
G1 X118.601 Y132.945 E12.04682
G1 X118.282 Y133.172 E12.05984
G1 X117.351 Y133.761 E12.09648
G1 X116.892 Y134.018 E12.11398
G1 X116.141 Y134.399 E12.14199
G1 X115.443 Y134.701 E12.16728
G1 X115.229 Y134.785 E12.17493
G1 X114.631 Y134.998 E12.19604
G1 X114.33 Y135.095 E12.20656
G1 X113.709 Y135.274 E12.22806
G1 X113.437 Y135.343 E12.23739
G1 X112.841 Y135.475 E12.25769
G1 X112.6 Y135.521 E12.26585
G1 X111.975 Y135.62 E12.2869
G1 X111.692 Y135.656 E12.29639
G1 X110.961 Y135.724 E12.32081
G1 X110.293 Y135.749 E12.34304
G1 X109.838 Y135.751 E12.35817
G1 X108.836 Y135.706 E12.39153
G1 X108.401 Y135.665 E12.40607
G1 X107.616 Y135.56 E12.43241
G1 X107.391 Y135.521 E12.44
G1 X106.652 Y135.365 E12.46512
G1 X106.329 Y135.284 E12.4762
G1 X105.656 Y135.09 E12.4995
G1 X105.29 Y134.971 E12.5123
G1 X104.247 Y134.567 E12.5495
G1 X103.742 Y134.339 E12.56793
G1 X102.636 Y133.756 E12.60951
G1 X102.217 Y133.501 E12.62582
G1 X101.321 Y132.888 E12.66193
G1 X100.993 Y132.637 E12.67567
G1 X100.392 Y132.14 E12.70161
G1 X100.146 Y131.92 E12.71258
G1 X99.535 Y131.329 E12.74086
G1 X99.085 Y130.843 E12.76289
G1 X98.936 Y130.671 E12.77046
G1 X98.553 Y130.2 E12.79065
G1 X98.306 Y129.878 E12.80415
G1 X97.773 Y129.113 E12.83516
G1 X97.561 Y128.777 E12.84837
G1 X97.079 Y127.925 E12.88093
G1 X96.895 Y127.56 E12.89452
G1 X96.481 Y126.626 E12.9285
G1 X96.317 Y126.199 E12.94372
G1 X96.053 Y125.42 E12.97107
G1 X95.894 Y124.859 E12.99047
G1 X95.634 Y123.857 E13.0249
G1 X93.206 Y113.902 E13.36571
G1 X93.01 Y113.027 E13.39553
G1 X92.923 Y112.586 E13.41048
G1 X92.773 Y111.552 E13.44523
G1 X92.733 Y111.12 E13.45966
G1 X92.69 Y110.097 E13.49372
G1 X92.693 Y109.727 E13.50603
G1 X92.727 Y108.975 E13.53106
G1 X92.756 Y108.622 E13.54284
G1 X92.911 Y107.501 E13.58048
G1 X93.055 Y106.764 E13.60546
G1 X93.157 Y106.302 E13.62119
G1 X95.719 Y95.806 E13.98054
G1 F1500 E7.48054
;MESH:KATANA-TEST_PRINT.stl
G0 F6000 X109.904 Y122.576
;TYPE:WALL-OUTER
G1 F1500 E13.98054
G1 F834.8 X110.366 Y122.532 E14.00273
G1 F821.9 X110.623 Y122.433 E14.01611
G1 F816.3 X110.842 Y122.302 E14.02858
G1 F833.3 X111.067 Y122.087 E14.04349
G1 F826.2 X111.252 Y121.805 E14.05978
G1 F820.5 X111.363 Y121.525 E14.07443
G1 F831.9 X111.372 Y121.495 E14.07593
G1 F830.4 X112.284 Y117.76 E14.26072
G1 F829 X113.196 Y114.025 E14.44582
G1 X114.109 Y110.289 E14.63098
G1 F836.2 X114.124 Y109.858 E14.65156
G1 F837.7 X114.102 Y109.679 E14.66015
G1 F830.4 X111.368 Y98.489 E15.21377
G1 F821.9 X111.28 Y98.249 E15.22619
G1 F812.2 X111.119 Y97.978 E15.24168
G1 F823.3 X110.929 Y97.768 E15.2554
G1 F821.9 X110.673 Y97.596 E15.27038
G1 F810.8 X110.396 Y97.478 E15.2852
G1 F836.2 X110.065 Y97.428 E15.30118
G1 F846.6 X109.634 Y97.468 E15.32159
G1 F823.3 X109.377 Y97.567 E15.33494
G1 F816.3 X109.158 Y97.698 E15.34741
G1 F829 X108.933 Y97.913 E15.3624
G1 F824.7 X108.748 Y98.195 E15.37872
G1 F821.9 X108.637 Y98.475 E15.39334
G1 F831.9 X108.628 Y98.505 E15.39485
G1 F830.4 X107.715 Y102.247 E15.57997
G1 F829 X106.801 Y105.989 E15.76542
G1 X105.887 Y109.732 E15.95092
G1 F819.1 X105.87 Y109.904 E15.95934
G1 F827.6 X105.877 Y110.172 E15.97227
G1 F837.7 X105.898 Y110.321 E15.97944
G1 F830.4 X108.631 Y121.511 E16.53305
G1 F820.5 X108.72 Y121.752 E16.54554
G1 F809.4 X108.879 Y122.019 E16.56087
G1 F819.1 X109.072 Y122.231 E16.57484
G1 X109.327 Y122.404 E16.58985
G1 F809.4 X109.618 Y122.527 E16.60543
G1 F823.3 X109.904 Y122.576 E16.61949
G0 F6000 X109.282 Y123.832
G1 F820.5 X109.667 Y123.908 E16.63858
G1 F819.1 X110.057 Y123.928 E16.65761
G1 X110.448 Y123.891 E16.67675
G1 F817.7 X110.827 Y123.8 E16.69577
G1 F824.7 X111.069 Y123.713 E16.70822
G1 F836.2 X111.442 Y123.52 E16.72826
G1 F837.7 X111.8 Y123.26 E16.74934
G1 F833.3 X112.111 Y122.944 E16.77058
G1 F826.2 X112.341 Y122.624 E16.78962
