;FLAVOR:Marlin
;TIME:13819
;Filament used: 8.94724m
;Layer height: 0.2
;MINX:92.297
;MINY:54.333
;MINZ:0.2
;MAXX:137.25
;MAXY:146.333
;MAXZ:30.6
;Generated with Cura_SteamEngine 5.0.0
M140 S60
M105
M190 S60
M104 S200
M105
M109 S200
M82 ;absolute extrusion mode
; Ender 3 Custom Start G-code
G92 E0 ; Reset Extruder
G28 ; Home all axes
G1 Z2.0 F3000 ; Move Z Axis up little to prevent scratching of Heat Bed
G1 X0.1 Y20 Z0.3 F5000.0 ; Move to start position
G1 X0.1 Y200.0 Z0.3 F1500.0 E15 ; Draw the first line
G1 X0.4 Y200.0 Z0.3 F5000.0 ; Move to side a little
G1 X0.4 Y20 Z0.3 F1500.0 E30 ; Draw the second line
G92 E0 ; Reset Extruder
G1 Z2.0 F3000 ; Move Z Axis up little to prevent scratching of Heat Bed
G1 X5 Y20 Z0.3 F5000.0 ; Move over to prevent blob squish
G92 E0
G92 E0
G1 F1500 E-6.5
;LAYER_COUNT:153
;LAYER:0
M107
G0 F6000 X93.793 Y59.821 Z0.2
G0 X92.297 Y65.891
;TYPE:SKIRT
G1 F1500 E0
G1 F1200 X92.307 Y65.187 E0.02342
G1 X92.36 Y64.25 E0.05463
G1 X92.493 Y63.322 E0.08581
G1 X92.705 Y62.408 E0.11702
G1 X92.993 Y61.516 E0.1482
G1 X93.357 Y60.651 E0.17941
G1 X93.793 Y59.821 E0.21059
G1 X94.298 Y59.031 E0.24178
G1 X94.868 Y58.286 E0.27298
G1 X95.5 Y57.593 E0.30417
G1 X96.188 Y56.956 E0.33536
G1 X96.929 Y56.38 E0.36657
G1 X97.715 Y55.87 E0.39774
G1 X98.543 Y55.428 E0.42895
G1 X99.404 Y55.058 E0.46012
G1 X100.295 Y54.763 E0.49134
G1 X101.207 Y54.545 E0.52253
G1 X102.134 Y54.406 E0.5537
G1 X103.025 Y54.347 E0.5834
G1 X103.697 Y54.333 E0.60576
G1 X125.543 Y54.333 E1.33236
G1 X126.399 Y54.344 E1.36083
G1 X127.335 Y54.398 E1.39202
G1 X128.263 Y54.53 E1.42319
G1 X129.177 Y54.742 E1.4544
G1 X130.069 Y55.031 E1.48559
G1 X130.934 Y55.394 E1.51679
G1 X131.764 Y55.83 E1.54797
G1 X132.555 Y56.335 E1.57918
G1 X133.299 Y56.906 E1.61038
G1 X133.992 Y57.538 E1.64157
G1 X134.629 Y58.226 E1.67276
G1 X135.204 Y58.967 E1.70395
G1 X135.715 Y59.753 E1.73513
G1 X136.157 Y60.581 E1.76635
G1 X136.526 Y61.443 E1.79754
G1 X136.821 Y62.333 E1.82872
G1 X137.039 Y63.245 E1.85991
G1 X137.179 Y64.173 E1.89113
G1 X137.237 Y65.032 E1.91976
G1 X137.25 Y65.661 E1.94069
G1 X137.249 Y134.733 E4.23803
G1 X137.24 Y135.46 E4.26221
G1 X137.189 Y136.397 E4.29342
G1 X137.057 Y137.325 E4.3246
G1 X136.848 Y138.239 E4.35578
G1 X136.561 Y139.132 E4.38698
G1 X136.199 Y139.998 E4.4182
G1 X135.765 Y140.829 E4.44938
G1 X135.261 Y141.62 E4.48058
G1 X134.692 Y142.365 E4.51176
G1 X134.061 Y143.06 E4.54298
G1 X133.374 Y143.698 E4.57416
G1 X132.635 Y144.275 E4.60534
G1 X131.849 Y144.787 E4.63654
G1 X131.023 Y145.23 E4.66772
G1 X130.161 Y145.602 E4.69895
G1 X129.272 Y145.898 E4.73011
G1 X128.36 Y146.118 E4.76131
G1 X127.433 Y146.259 E4.7925
G1 X126.549 Y146.32 E4.82197
G1 X125.92 Y146.333 E4.8429
G1 X103.862 Y146.332 E5.57655
G1 X103.164 Y146.323 E5.59977
G1 X102.228 Y146.271 E5.63095
G1 X101.299 Y146.139 E5.66215
G1 X100.385 Y145.929 E5.69335
G1 X99.492 Y145.642 E5.72454
G1 X98.627 Y145.279 E5.75574
G1 X97.796 Y144.845 E5.78693
G1 X97.005 Y144.341 E5.81812
G1 X96.26 Y143.771 E5.84932
G1 X95.566 Y143.14 E5.88052
G1 X94.929 Y142.453 E5.91168
G1 X94.352 Y141.713 E5.94289
G1 X93.84 Y140.927 E5.97409
G1 X93.397 Y140.1 E6.00529
G1 X93.026 Y139.239 E6.03648
G1 X92.73 Y138.349 E6.06767
G1 X92.511 Y137.437 E6.09887
G1 X92.37 Y136.51 E6.13005
G1 X92.309 Y135.601 E6.16035
G1 X92.297 Y134.969 E6.18138
G1 X92.297 Y129.896 E6.35011
G1 X92.307 Y129.175 E6.37409
G1 X92.399 Y127.901 E6.41657
G1 X92.614 Y126.256 E6.47175
G1 X92.894 Y123.742 E6.55589
G1 X93.104 Y121.222 E6.63999
G1 X93.24 Y118.733 E6.7229
G1 X93.316 Y114.977 E6.84785
G1 X93.317 Y85.595 E7.8251
G1 X93.28 Y82.986 E7.91188
G1 X93.173 Y80.464 E7.99584
G1 X92.996 Y77.97 E8.079
G1 X92.749 Y75.476 E8.16236
G1 X92.395 Y72.712 E8.25504
G1 X92.311 Y71.631 E8.2911
G1 X92.297 Y71.004 E8.31196
G1 X92.297 Y65.891 E8.48202
G0 F6000 X92.697 Y65.896
G1 F1200 X92.707 Y65.192 E8.50544
G1 X92.76 Y64.273 E8.53605
G1 X92.893 Y63.362 E8.56668
G1 X93.104 Y62.466 E8.59729
G1 X93.392 Y61.592 E8.6279
G1 X93.755 Y60.746 E8.65852
G1 X94.19 Y59.934 E8.68916
G1 X94.694 Y59.164 E8.71976
G1 X95.262 Y58.44 E8.75037
G1 X95.892 Y57.768 E8.78101
G1 X96.577 Y57.153 E8.81163
G1 X97.313 Y56.6 E8.84225
G1 X98.094 Y56.113 E8.87286
G1 X98.915 Y55.695 E8.9035
G1 X99.768 Y55.351 E8.93409
G1 X100.649 Y55.081 E8.96474
G1 X101.549 Y54.89 E8.99534
G1 X102.463 Y54.777 E9.02597
G1 X103.035 Y54.746 E9.04502
G1 X103.697 Y54.733 E9.06705
G1 X125.543 Y54.733 E9.79365
G1 X126.393 Y54.744 E9.82192
G1 X127.312 Y54.797 E9.85254
G1 X128.223 Y54.93 E9.88316
G1 X129.119 Y55.141 E9.91377
G1 X129.993 Y55.429 E9.94438
G1 X130.84 Y55.792 E9.97503
G1 X131.651 Y56.227 E10.00564
G1 X132.421 Y56.731 E10.03625
G1 X133.145 Y57.3 E10.06688
G1 X133.817 Y57.93 E10.09751
G1 X134.432 Y58.615 E10.12813
G1 X134.985 Y59.351 E10.15875
G1 X135.472 Y60.132 E10.18936
G1 X135.889 Y60.953 E10.21999
G1 X136.234 Y61.807 E10.25062
G1 X136.503 Y62.687 E10.28123
G1 X136.695 Y63.588 E10.31187
G1 X136.808 Y64.501 E10.34247
G1 X136.846 Y65.361 E10.3711
G1 X136.849 Y134.728 E12.67826
G1 X136.84 Y135.455 E12.70244
G1 X136.789 Y136.374 E12.73305
G1 X136.658 Y137.286 E12.7637
G1 X136.448 Y138.182 E12.7943
G1 X136.162 Y139.057 E12.82492
G1 X135.801 Y139.904 E12.85555
G1 X135.367 Y140.716 E12.88617
G1 X134.865 Y141.488 E12.9168
G1 X134.297 Y142.213 E12.94743
G1 X133.669 Y142.886 E12.97805
G1 X132.985 Y143.502 E13.00866
G1 X132.25 Y144.056 E13.03927
G1 X131.47 Y144.545 E13.06989
G1 X130.65 Y144.964 E13.10052
G1 X129.797 Y145.31 E13.13114
G1 X128.917 Y145.581 E13.16176
G1 X128.017 Y145.774 E13.19238
G1 X127.103 Y145.889 E13.22302
G1 X126.538 Y145.92 E13.24184
G1 X125.92 Y145.933 E13.2624
G1 X103.867 Y145.932 E13.99588
G1 X103.169 Y145.923 E14.0191
G1 X102.25 Y145.871 E14.04971
G1 X101.339 Y145.74 E14.08033
G1 X100.443 Y145.53 E14.11093
G1 X99.568 Y145.243 E14.14156
G1 X98.721 Y144.881 E14.1722
G1 X97.909 Y144.447 E14.20282
G1 X97.138 Y143.945 E14.23342
G1 X96.413 Y143.377 E14.26405
G1 X95.74 Y142.748 E14.29469
G1 X95.125 Y142.064 E14.32529
G1 X94.571 Y141.329 E14.3559
G1 X94.083 Y140.548 E14.38653
G1 X93.664 Y139.728 E14.41716
G1 X93.318 Y138.875 E14.44777
G1 X93.048 Y137.995 E14.47839
G1 X92.855 Y137.094 E14.50904
G1 X92.741 Y136.181 E14.53964
G1 X92.709 Y135.591 E14.55929
G1 X92.697 Y134.969 E14.57998
G1 X92.697 Y129.902 E14.74851
G1 X92.707 Y129.181 E14.77249
G1 X92.796 Y127.953 E14.81344
G1 X93.005 Y126.354 E14.86708
G1 X93.296 Y123.744 E14.95443
G1 X93.504 Y121.244 E15.03786
G1 X93.639 Y118.763 E15.1205
G1 X93.716 Y114.985 E15.24619
G1 X93.717 Y85.589 E16.2239
G1 X93.68 Y82.964 E16.31122
G1 X93.573 Y80.455 E16.39474
G1 X93.395 Y77.935 E16.47877
G1 X93.146 Y75.422 E16.56276
G1 X92.792 Y72.661 E16.65534
G1 X92.71 Y71.62 E16.69008
G1 X92.697 Y71.004 E16.71057
G1 X92.697 Y65.896 E16.88046
G0 F6000 X93.097 Y65.902
G1 F1200 X93.107 Y65.198 E16.90388
G1 X93.16 Y64.297 E16.9339
G1 X93.292 Y63.403 E16.96395
G1 X93.503 Y62.525 E16.99399
G1 X93.791 Y61.669 E17.02403
G1 X94.153 Y60.842 E17.05405
G1 X94.587 Y60.05 E17.08409
G1 X95.089 Y59.299 E17.11414
G1 X95.656 Y58.596 E17.14417
G1 X96.283 Y57.946 E17.17421
G1 X96.965 Y57.354 E17.20425
G1 X97.696 Y56.824 E17.23428
G1 X98.472 Y56.361 E17.26434
G1 X99.285 Y55.969 E17.29436
G1 X100.13 Y55.65 E17.3244
G1 X101 Y55.407 E17.35444
G1 X101.888 Y55.242 E17.38448
G1 X103.045 Y55.146 E17.4231
G1 X103.697 Y55.133 E17.44479
G1 X125.543 Y55.133 E18.17139
G1 X126.387 Y55.144 E18.19946
G1 X127.289 Y55.197 E18.22951
G1 X128.182 Y55.329 E18.25954
G1 X129.06 Y55.54 E18.28957
G1 X129.916 Y55.828 E18.31961
G1 X130.743 Y56.19 E18.34963
G1 X131.535 Y56.625 E18.37969
G1 X132.286 Y57.127 E18.40973
G1 X132.989 Y57.694 E18.43977
G1 X133.639 Y58.321 E18.46981
G1 X134.231 Y59.003 E18.49985
G1 X134.761 Y59.734 E18.52988
G1 X135.223 Y60.51 E18.55992
G1 X135.616 Y61.323 E18.58995
G1 X135.934 Y62.168 E18.61998
G1 X136.177 Y63.038 E18.65002
G1 X136.342 Y63.926 E18.68006
G1 X136.437 Y65.054 E18.71771
G1 X136.45 Y65.661 E18.73791
G1 X136.449 Y134.723 E21.03492
G1 X136.44 Y135.45 E21.0591
G1 X136.389 Y136.352 E21.08915
G1 X136.258 Y137.246 E21.1192
G1 X136.049 Y138.124 E21.14922
G1 X135.763 Y138.981 E21.17927
G1 X135.402 Y139.809 E21.20931
G1 X134.97 Y140.601 E21.23932
G1 X134.469 Y141.353 E21.26937
G1 X133.903 Y142.057 E21.29942
G1 X133.278 Y142.708 E21.32943
G1 X132.597 Y143.302 E21.35949
G1 X131.866 Y143.833 E21.38954
G1 X131.092 Y144.297 E21.41955
G1 X130.279 Y144.691 E21.4496
G1 X129.435 Y145.011 E21.47962
G1 X128.565 Y145.256 E21.50969
G1 X127.678 Y145.422 E21.5397
G1 X126.527 Y145.52 E21.57812
G1 X125.92 Y145.533 E21.59831
G1 X103.872 Y145.532 E22.33163
G1 X103.174 Y145.523 E22.35485
G1 X102.273 Y145.472 E22.38487
G1 X101.379 Y145.34 E22.41492
G1 X100.501 Y145.131 E22.44494
G1 X99.644 Y144.844 E22.475
G1 X98.817 Y144.483 E22.50501
G1 X98.024 Y144.05 E22.53507
G1 X97.273 Y143.549 E22.56509
G1 X96.569 Y142.983 E22.59514
G1 X95.918 Y142.357 E22.62518
G1 X95.325 Y141.676 E22.65521
G1 X94.795 Y140.945 E22.68524
G1 X94.331 Y140.17 E22.71528
G1 X93.937 Y139.357 E22.74533
G1 X93.617 Y138.513 E22.77535
G1 X93.373 Y137.643 E22.80541
G1 X93.207 Y136.755 E22.83545
G1 X93.109 Y135.581 E22.87464
G1 X93.097 Y134.969 E22.895
G1 X93.097 Y129.908 E23.06332
G1 X93.107 Y129.187 E23.08731
G1 X93.192 Y128.005 E23.12672
G1 X93.409 Y126.349 E23.18227
G1 X93.69 Y123.821 E23.26687
G1 X93.903 Y121.265 E23.35218
G1 X94.04 Y118.763 E23.43552
G1 X94.116 Y114.993 E23.56094
G1 X94.117 Y85.583 E24.53912
G1 X94.08 Y82.977 E24.6258
G1 X93.971 Y80.411 E24.71122
G1 X93.793 Y77.904 E24.79482
G1 X93.542 Y75.369 E24.87954
G1 X93.189 Y72.611 E24.97202
G1 X93.11 Y71.608 E25.00549
G1 X93.097 Y71.004 E25.02558
G1 X93.097 Y65.902 E25.19527
G1 F1500 E18.69527
;MESH:trashcan-hinge2.stl
G0 F6000 X103.663 Y128.68
G0 X103.72 Y129.757
G0 X103.877 Y134.753
G1 F1500 E25.19527
G0 F6000 X103.497 Y135.132
;TYPE:WALL-OUTER
G1 F1200 X126.05 Y135.133 E25.94539
G1 X126.05 Y65.533 E28.2603
G1 X103.497 Y65.533 E29.01041
G1 X103.497 Y71.133 E29.19667
G1 X104.317 Y71.133 E29.22394
G1 X104.46 Y71.192 E29.22909
G1 X104.517 Y71.333 E29.23415
G1 X104.517 Y129.333 E31.16323
G1 X104.459 Y129.474 E31.1683
G1 X104.316 Y129.533 E31.17345
G1 X103.496 Y129.533 E31.20072
G1 X103.497 Y135.132 E31.38695
G0 F6000 X103.897 Y134.732
;TYPE:WALL-INNER
G1 F1200 X125.65 Y134.733 E32.11045
G1 X125.65 Y65.933 E34.39875
G1 X103.897 Y65.933 E35.12226
G1 X103.897 Y70.733 E35.28191
G1 X104.317 Y70.733 E35.29588
G1 X104.613 Y70.81 E35.30605
G1 X104.83 Y71.021 E35.31612
G1 X104.91 Y71.239 E35.32384
G1 X104.917 Y71.333 E35.32697
G1 X104.917 Y129.333 E37.25606
G1 X104.883 Y129.533 E37.26281
G1 X104.743 Y129.756 E37.27157
G1 X104.612 Y129.856 E37.27705
G1 X104.316 Y129.933 E37.28722
G1 X103.896 Y129.933 E37.30119
G1 X103.897 Y134.732 E37.46081
G0 F6000 X104.257 Y134.371
;TYPE:SKIN
G1 F1200 X125.29 Y134.372 E38.16037
G1 X125.29 Y66.294 E40.42465
G1 X104.258 Y66.294 E41.12418
G1 X104.257 Y70.373 E41.25985
G1 X104.744 Y70.479 E41.27642
G1 X104.98 Y70.638 E41.28589
G1 X105.202 Y70.969 E41.29914
G1 X105.275 Y71.298 E41.31035
G1 X105.277 Y71.333 E41.31152
G1 X105.278 Y124.366 E43.0754
G1 X105.277 Y129.33 E43.24051
G1 X105.23 Y129.622 E43.25034
G1 X105.027 Y129.977 E43.26394
G1 X104.816 Y130.153 E43.27308
G1 X104.361 Y130.288 E43.28887
G1 X104.256 Y130.293 E43.29236
G1 X104.257 Y134.371 E43.428
G0 F6000 X104.754 Y134.169
G1 F1200 X104.456 Y133.872 E43.44199
G0 F6000 X104.456 Y133.306
G1 F1200 X105.32 Y134.169 E43.48261
G0 F6000 X105.885 Y134.169
G1 F1200 X104.456 Y132.74 E43.54983
G0 F6000 X104.456 Y132.175
G1 F1200 X106.451 Y134.169 E43.64364
G0 F6000 X107.017 Y134.169
G1 F1200 X104.456 Y131.609 E43.76408
G0 F6000 X104.456 Y131.043
G1 F1200 X107.582 Y134.169 E43.91112
G0 F6000 X108.148 Y134.169
G1 F1200 X104.456 Y130.478 E44.08475
G0 F6000 X104.875 Y130.331
G1 F1200 X108.714 Y134.169 E44.2653
G0 F6000 X109.279 Y134.169
G1 F1200 X105.18 Y130.07 E44.45811
G0 F6000 X105.392 Y129.717
G1 F1200 X109.845 Y134.169 E44.66754
G0 F6000 X110.411 Y134.169
G1 F1200 X105.472 Y129.23 E44.89986
G0 F6000 X105.472 Y128.665
G1 F1200 X110.976 Y134.169 E45.15875
G0 F6000 X111.542 Y134.169
G1 F1200 X105.473 Y128.1 E45.44421
G0 F6000 X105.474 Y127.535
G1 F1200 X112.108 Y134.169 E45.75626
G0 F6000 X112.673 Y134.169
G1 F1200 X105.474 Y126.97 E46.09488
G0 F6000 X105.475 Y126.405
G1 F1200 X113.239 Y134.169 E46.46007
G0 F6000 X113.805 Y134.169
G1 F1200 X105.476 Y125.84 E46.85184
G0 F6000 X105.476 Y125.275
G1 F1200 X114.37 Y134.169 E47.27019
G0 F6000 X114.936 Y134.169
G1 F1200 X105.477 Y124.711 E47.71509
G0 F6000 X105.477 Y124.145
G1 F1200 X115.502 Y134.169 E48.18661
G0 F6000 X116.068 Y134.169
G1 F1200 X105.477 Y123.579 E48.68475
G0 F6000 X105.477 Y123.013
G1 F1200 X116.633 Y134.169 E49.2095
G0 F6000 X117.199 Y134.169
G1 F1200 X105.477 Y122.448 E49.76084
G0 F6000 X105.477 Y121.882
G1 F1200 X117.765 Y134.169 E50.33881
G0 F6000 X118.33 Y134.169
G1 F1200 X105.477 Y121.316 E50.94337
G0 F6000 X105.477 Y120.751
G1 F1200 X118.896 Y134.169 E51.57454
G0 F6000 X119.462 Y134.169
G1 F1200 X105.477 Y120.185 E52.23233
G0 F6000 X105.477 Y119.619
G1 F1200 X120.027 Y134.169 E52.91671
G0 F6000 X120.593 Y134.169
G1 F1200 X105.477 Y119.054 E53.6277
G0 F6000 X105.477 Y118.488
G1 F1200 X121.159 Y134.169 E54.36531
G0 F6000 X121.724 Y134.169
G1 F1200 X105.477 Y117.922 E55.12952
G0 F6000 X105.477 Y117.357
G1 F1200 X122.29 Y134.169 E55.92033
G0 F6000 X122.856 Y134.169
G1 F1200 X105.477 Y116.791 E56.73776
G0 F6000 X105.477 Y116.225
G1 F1200 X123.421 Y134.169 E57.58179
G0 F6000 X123.987 Y134.169
G1 F1200 X105.477 Y115.66 E58.45242
G0 F6000 X105.477 Y115.094
G1 F1200 X124.553 Y134.169 E59.34967
G0 F6000 X125.09 Y134.14
G1 F1200 X105.477 Y114.528 E60.27218
G0 F6000 X105.477 Y113.962
G1 F1200 X125.09 Y133.575 E61.19472
G0 F6000 X125.09 Y133.009
G1 F1200 X105.477 Y113.397 E62.11723
G0 F6000 X105.477 Y112.831
G1 F1200 X125.09 Y132.443 E63.03974
G0 F6000 X125.09 Y131.878
G1 F1200 X105.477 Y112.265 E63.96228
G0 F6000 X105.477 Y111.7
G1 F1200 X125.09 Y131.312 E64.88479
G0 F6000 X125.09 Y130.746
G1 F1200 X105.477 Y111.134 E65.8073
G0 F6000 X105.477 Y110.568
G1 F1200 X125.09 Y130.181 E66.72984
G0 F6000 X125.09 Y129.615
G1 F1200 X105.477 Y110.003 E67.65235
G0 F6000 X105.477 Y109.437
G1 F1200 X125.09 Y129.049 E68.57486
G0 F6000 X125.09 Y128.484
G1 F1200 X105.477 Y108.871 E69.4974
G0 F6000 X105.477 Y108.306
G1 F1200 X125.09 Y127.918 E70.41991
G0 F6000 X125.09 Y127.352
G1 F1200 X105.477 Y107.74 E71.34242
G0 F6000 X105.477 Y107.174
G1 F1200 X125.09 Y126.787 E72.26496
G0 F6000 X125.09 Y126.221
G1 F1200 X105.476 Y106.608 E73.18752
G0 F6000 X105.476 Y106.042
G1 F1200 X125.09 Y125.655 E74.11007
G0 F6000 X125.09 Y125.09
G1 F1200 X105.476 Y105.476 E75.03266
G0 F6000 X105.476 Y104.911
G1 F1200 X125.09 Y124.524 E75.95522
G0 F6000 X125.09 Y123.958
G1 F1200 X105.476 Y104.345 E76.87777
G0 F6000 X105.476 Y103.779
G1 F1200 X125.09 Y123.392 E77.80033
G0 F6000 X125.09 Y122.827
G1 F1200 X105.476 Y103.214 E78.72289
G0 F6000 X105.476 Y102.648
G1 F1200 X125.09 Y122.261 E79.64545
G0 F6000 X125.09 Y121.695
G1 F1200 X105.476 Y102.082 E80.56801
G0 F6000 X105.476 Y101.517
G1 F1200 X125.09 Y121.13 E81.49057
G0 F6000 X125.09 Y120.564
G1 F1200 X105.476 Y100.951 E82.41313
G0 F6000 X105.476 Y100.385
G1 F1200 X125.09 Y119.998 E83.33569
G0 F6000 X125.09 Y119.433
G1 F1200 X105.476 Y99.82 E84.25825
G0 F6000 X105.476 Y99.254
G1 F1200 X125.09 Y118.867 E85.1808
G0 F6000 X125.09 Y118.301
G1 F1200 X105.476 Y98.688 E86.10336
G0 F6000 X105.476 Y98.123
G1 F1200 X125.09 Y117.736 E87.02592
G0 F6000 X125.09 Y117.17
G1 F1200 X105.476 Y97.557 E87.94848
G0 F6000 X105.476 Y96.991
G1 F1200 X125.09 Y116.604 E88.87104
G0 F6000 X125.09 Y116.039
G1 F1200 X105.476 Y96.426 E89.7936
G0 F6000 X105.476 Y95.86
G1 F1200 X125.09 Y115.473 E90.71616
G0 F6000 X125.09 Y114.907
G1 F1200 X105.476 Y95.294 E91.63872
G0 F6000 X105.476 Y94.728
G1 F1200 X125.09 Y114.341 E92.56128
G0 F6000 X125.09 Y113.776
G1 F1200 X105.476 Y94.163 E93.48383
G0 F6000 X105.476 Y93.597
G1 F1200 X125.09 Y113.21 E94.40639
G0 F6000 X125.09 Y112.644
G1 F1200 X105.476 Y93.031 E95.32895
G0 F6000 X105.476 Y92.466
G1 F1200 X125.09 Y112.079 E96.25151
