;FLAVOR:Marlin
;TIME:7830
;Filament used: 4.94557m
;Layer height: 0.2
;MINX:83.8
;MINY:64
;MINZ:0.2
;MAXX:134.551
;MAXY:156
;MAXZ:32.4
;Generated with Cura_SteamEngine 5.0.0
M140 S60
M105
M190 S60
M104 S200
M105
M109 S200
M82 ;absolute extrusion mode
; Ender 3 Custom Start G-code
G92 E0 ; Reset Extruder
G28 ; Home all axes
G1 Z2.0 F3000 ; Move Z Axis up little to prevent scratching of Heat Bed
G1 X0.1 Y20 Z0.3 F5000.0 ; Move to start position
G1 X0.1 Y200.0 Z0.3 F1500.0 E15 ; Draw the first line
G1 X0.4 Y200.0 Z0.3 F5000.0 ; Move to side a little
G1 X0.4 Y20 Z0.3 F1500.0 E30 ; Draw the second line
G92 E0 ; Reset Extruder
G1 Z2.0 F3000 ; Move Z Axis up little to prevent scratching of Heat Bed
G1 X5 Y20 Z0.3 F5000.0 ; Move over to prevent blob squish
G92 E0
G92 E0
G1 F1500 E-6.5
;LAYER_COUNT:162
;LAYER:0
M107
G0 F6000 X86.378 Y67.945 Z0.2
G0 X83.801 Y75.511
;TYPE:SKIRT
G1 F1500 E0
G1 F1200 X83.811 Y74.844 E0.02219
G1 X83.865 Y73.908 E0.05337
G1 X83.999 Y72.979 E0.08459
G1 X84.211 Y72.066 E0.11576
G1 X84.5 Y71.174 E0.14695
G1 X84.864 Y70.309 E0.17816
G1 X85.301 Y69.479 E0.20936
G1 X85.806 Y68.689 E0.24055
G1 X86.378 Y67.945 E0.27176
G1 X87.01 Y67.253 E0.30293
G1 X87.699 Y66.617 E0.33412
G1 X88.44 Y66.041 E0.36533
G1 X89.227 Y65.531 E0.39652
G1 X90.054 Y65.09 E0.4277
G1 X90.917 Y64.721 E0.45891
G1 X91.807 Y64.427 E0.49009
G1 X92.719 Y64.209 E0.52128
G1 X93.647 Y64.071 E0.55248
G1 X94.501 Y64.013 E0.58095
G1 X95.131 Y64 E0.60191
G1 X123.002 Y64.003 E1.5289
G1 X123.7 Y64.013 E1.55212
G1 X124.636 Y64.067 E1.5833
G1 X125.564 Y64.199 E1.61448
G1 X126.478 Y64.411 E1.64569
G1 X127.37 Y64.7 E1.67687
G1 X128.235 Y65.063 E1.70807
G1 X129.065 Y65.499 E1.73926
G1 X129.856 Y66.004 E1.77047
G1 X130.6 Y66.575 E1.80166
G1 X131.293 Y67.207 E1.83286
G1 X131.93 Y67.895 E1.86404
G1 X132.505 Y68.636 E1.89524
G1 X133.016 Y69.422 E1.92642
G1 X133.458 Y70.25 E1.95764
G1 X133.827 Y71.112 E1.98883
G1 X134.122 Y72.002 E2.02001
G1 X134.34 Y72.914 E2.0512
G1 X134.48 Y73.842 E2.08241
G1 X134.538 Y74.701 E2.11105
G1 X134.551 Y75.332 E2.13204
G1 X134.549 Y80.46 E2.3026
G1 X134.539 Y81.156 E2.32575
G1 X134.485 Y82.092 E2.35693
G1 X134.354 Y83.01 E2.38777
G1 X134.207 Y83.798 E2.41444
G1 X133.764 Y86.381 E2.5016
G1 X133.41 Y88.866 E2.58509
G1 X133.121 Y91.392 E2.66965
G1 X132.91 Y93.874 E2.7525
G1 X132.765 Y96.407 E2.83689
G1 X132.693 Y98.913 E2.92027
G1 X132.683 Y100.286 E2.96594
G1 X132.683 Y119.726 E3.61251
G1 X132.72 Y122.335 E3.6993
G1 X132.827 Y124.857 E3.78326
G1 X133.004 Y127.351 E3.86642
G1 X133.252 Y129.849 E3.94991
G1 X133.57 Y132.338 E4.03337
G1 X133.967 Y134.861 E4.11831
G1 X134.273 Y136.512 E4.17416
G1 X134.379 Y137.125 E4.19485
G1 X134.499 Y138.055 E4.22604
G1 X134.535 Y138.669 E4.2465
G1 X134.55 Y139.33 E4.26849
G1 X134.55 Y144.383 E4.43655
G1 X134.541 Y145.124 E4.4612
G1 X134.49 Y146.06 E4.49238
G1 X134.359 Y146.989 E4.52358
G1 X134.149 Y147.903 E4.55477
G1 X133.863 Y148.796 E4.58596
G1 X133.501 Y149.661 E4.61715
G1 X133.067 Y150.493 E4.64836
G1 X132.563 Y151.284 E4.67955
G1 X131.995 Y152.03 E4.71074
G1 X131.364 Y152.724 E4.74194
G1 X130.677 Y153.362 E4.77312
G1 X129.938 Y153.939 E4.8043
G1 X129.152 Y154.452 E4.83552
G1 X128.326 Y154.895 E4.8667
G1 X127.465 Y155.267 E4.89789
G1 X126.575 Y155.564 E4.9291
G1 X125.663 Y155.784 E4.9603
G1 X124.736 Y155.925 E4.99149
G1 X123.823 Y155.986 E5.02192
G1 X123.15 Y156 E5.04431
G1 X95.349 Y155.999 E5.96898
G1 X94.651 Y155.989 E5.99219
G1 X93.715 Y155.935 E6.02338
G1 X92.787 Y155.803 E6.05455
G1 X91.873 Y155.591 E6.08576
G1 X90.981 Y155.302 E6.11695
G1 X90.116 Y154.939 E6.14815
G1 X89.286 Y154.503 E6.17933
G1 X88.495 Y153.998 E6.21054
G1 X87.751 Y153.427 E6.24174
G1 X87.058 Y152.795 E6.27293
G1 X86.421 Y152.107 E6.30412
G1 X85.846 Y151.366 E6.33531
G1 X85.335 Y150.58 E6.36649
G1 X84.893 Y149.752 E6.39771
G1 X84.524 Y148.89 E6.4289
G1 X84.229 Y148 E6.46008
G1 X84.011 Y147.088 E6.49127
G1 X83.871 Y146.16 E6.52249
G1 X83.813 Y145.288 E6.55155
G1 X83.8 Y144.658 E6.57251
G1 X83.801 Y75.511 E8.87235
G0 F6000 X84.201 Y75.517
G1 F1200 X84.211 Y74.85 E8.89454
G1 X84.265 Y73.931 E8.92516
G1 X84.398 Y73.02 E8.95578
G1 X84.61 Y72.124 E8.9864
G1 X84.899 Y71.25 E9.01702
G1 X85.262 Y70.404 E9.04764
G1 X85.698 Y69.593 E9.07826
G1 X86.202 Y68.823 E9.10887
G1 X86.772 Y68.099 E9.13952
G1 X87.402 Y67.428 E9.17013
G1 X88.087 Y66.814 E9.20073
G1 X88.824 Y66.261 E9.23137
G1 X89.605 Y65.775 E9.26197
G1 X90.426 Y65.358 E9.2926
G1 X91.28 Y65.014 E9.32322
G1 X92.161 Y64.745 E9.35385
G1 X93.062 Y64.554 E9.38449
G1 X93.975 Y64.442 E9.41508
G1 X94.512 Y64.413 E9.43297
G1 X95.131 Y64.4 E9.45356
G1 X122.996 Y64.403 E10.38036
G1 X123.694 Y64.413 E10.40357
G1 X124.613 Y64.466 E10.43419
G1 X125.524 Y64.599 E10.46481
G1 X126.42 Y64.81 E10.49543
G1 X127.294 Y65.098 E10.52603
G1 X128.141 Y65.461 E10.55668
G1 X128.952 Y65.896 E10.58729
G1 X129.722 Y66.4 E10.6179
G1 X130.446 Y66.969 E10.64853
G1 X131.118 Y67.599 E10.67917
G1 X131.733 Y68.284 E10.70978
G1 X132.286 Y69.02 E10.7404
G1 X132.773 Y69.801 E10.77102
G1 X133.19 Y70.622 E10.80164
G1 X133.535 Y71.476 E10.83228
G1 X133.804 Y72.356 E10.86288
G1 X133.996 Y73.257 E10.89352
G1 X134.109 Y74.17 E10.92412
G1 X134.147 Y75.03 E10.95275
G1 X134.149 Y80.454 E11.13316
G1 X134.139 Y81.15 E11.15631
G1 X134.086 Y82.069 E11.18692
G1 X133.961 Y82.937 E11.21609
G1 X133.812 Y83.735 E11.24309
G1 X133.368 Y86.323 E11.33043
G1 X133.009 Y88.84 E11.41499
G1 X132.727 Y91.308 E11.49761
G1 X132.51 Y93.857 E11.5827
G1 X132.367 Y96.372 E11.66648
G1 X132.293 Y98.947 E11.75216
G1 X132.283 Y100.283 E11.7966
G1 X132.283 Y119.732 E12.44347
G1 X132.32 Y122.357 E12.53079
G1 X132.427 Y124.866 E12.61432
G1 X132.605 Y127.382 E12.69821
G1 X132.855 Y129.906 E12.78257
G1 X133.176 Y132.414 E12.86666
G1 X133.565 Y134.89 E12.95003
G1 X133.879 Y136.58 E13.0072
G1 X133.985 Y137.193 E13.02789
G1 X134.102 Y138.106 E13.0585
G1 X134.135 Y138.681 E13.07766
G1 X134.15 Y139.33 E13.09925
G1 X134.15 Y144.378 E13.26715
G1 X134.141 Y145.119 E13.2918
G1 X134.09 Y146.038 E13.32241
G1 X133.959 Y146.949 E13.35302
G1 X133.75 Y147.846 E13.38365
G1 X133.464 Y148.721 E13.41427
G1 X133.103 Y149.568 E13.4449
G1 X132.669 Y150.38 E13.47552
G1 X132.167 Y151.152 E13.50615
G1 X131.6 Y151.877 E13.53676
G1 X130.972 Y152.55 E13.56737
G1 X130.288 Y153.166 E13.59799
G1 X129.553 Y153.721 E13.62862
G1 X128.773 Y154.209 E13.65923
G1 X127.953 Y154.629 E13.68987
G1 X127.1 Y154.975 E13.72048
G1 X126.22 Y155.246 E13.75111
G1 X125.32 Y155.44 E13.78173
G1 X124.407 Y155.555 E13.81234
G1 X123.812 Y155.587 E13.83216
G1 X123.15 Y155.6 E13.85418
G1 X95.355 Y155.599 E14.77864
G1 X94.657 Y155.589 E14.80186
G1 X93.738 Y155.536 E14.83248
G1 X92.827 Y155.403 E14.8631
G1 X91.931 Y155.192 E14.89372
G1 X91.057 Y154.904 E14.92432
G1 X90.21 Y154.541 E14.95497
G1 X89.399 Y154.106 E14.98558
G1 X88.629 Y153.602 E15.01619
G1 X87.905 Y153.033 E15.04682
G1 X87.233 Y152.403 E15.07745
G1 X86.618 Y151.718 E15.10807
G1 X86.065 Y150.982 E15.13869
G1 X85.578 Y150.201 E15.1693
G1 X85.161 Y149.38 E15.19993
G1 X84.816 Y148.526 E15.23057
G1 X84.547 Y147.646 E15.26117
G1 X84.355 Y146.745 E15.29181
G1 X84.242 Y145.832 E15.32241
G1 X84.213 Y145.277 E15.34089
G1 X84.2 Y144.658 E15.36149
G1 X84.201 Y75.517 E17.66113
G0 F6000 X84.601 Y75.523
G1 F1200 X84.611 Y74.856 E17.68331
G1 X84.665 Y73.955 E17.71333
G1 X84.798 Y73.061 E17.7434
G1 X85.009 Y72.183 E17.77343
G1 X85.298 Y71.328 E17.80345
G1 X85.66 Y70.501 E17.83347
G1 X86.095 Y69.709 E17.86353
G1 X86.598 Y68.959 E17.89356
G1 X87.165 Y68.256 E17.9236
G1 X87.793 Y67.606 E17.95366
G1 X88.475 Y67.015 E17.98368
G1 X89.207 Y66.486 E18.01372
G1 X89.983 Y66.024 E18.04376
G1 X90.797 Y65.632 E18.07381
G1 X91.642 Y65.314 E18.10383
G1 X92.512 Y65.071 E18.13388
G1 X93.4 Y64.907 E18.16391
G1 X94.523 Y64.813 E18.20139
G1 X95.131 Y64.8 E18.22162
G1 X122.99 Y64.803 E19.14822
G1 X123.688 Y64.813 E19.17143
G1 X124.59 Y64.866 E19.20149
G1 X125.483 Y64.998 E19.23151
G1 X126.361 Y65.209 E19.26154
G1 X127.217 Y65.497 E19.29158
G1 X128.044 Y65.859 E19.32161
G1 X128.836 Y66.294 E19.35166
G1 X129.587 Y66.796 E19.38171
G1 X130.29 Y67.363 E19.41175
G1 X130.94 Y67.99 E19.44178
G1 X131.532 Y68.672 E19.47182
G1 X132.062 Y69.403 E19.50185
G1 X132.524 Y70.179 E19.53189
G1 X132.917 Y70.992 E19.56192
G1 X133.235 Y71.837 E19.59195
G1 X133.478 Y72.707 E19.622
G1 X133.643 Y73.595 E19.65204
G1 X133.738 Y74.723 E19.68969
G1 X133.751 Y75.332 E19.70995
G1 X133.749 Y80.449 E19.88014
G1 X133.739 Y81.145 E19.90329
G1 X133.686 Y82.046 E19.93331
G1 X133.568 Y82.863 E19.96077
G1 X133.42 Y83.659 E19.9877
G1 X132.971 Y86.269 E20.07578
G1 X132.615 Y88.77 E20.1598
G1 X132.326 Y91.299 E20.24446
G1 X132.11 Y93.834 E20.32908
G1 X131.967 Y96.34 E20.41257
G1 X131.893 Y98.932 E20.49881
G1 X131.883 Y100.28 E20.54365
G1 X131.883 Y119.738 E21.19083
G1 X131.92 Y122.344 E21.27751
G1 X132.029 Y124.91 E21.36293
G1 X132.207 Y127.417 E21.44653
G1 X132.455 Y129.926 E21.53038
G1 X132.783 Y132.489 E21.61632
G1 X133.172 Y134.96 E21.69952
G1 X133.485 Y136.648 E21.75662
G1 X133.591 Y137.261 E21.77731
G1 X133.705 Y138.157 E21.80735
G1 X133.735 Y138.693 E21.82521
G1 X133.75 Y139.33 E21.8464
G1 X133.75 Y144.373 E22.01413
G1 X133.741 Y145.114 E22.03878
G1 X133.69 Y146.016 E22.06883
G1 X133.56 Y146.909 E22.09884
G1 X133.351 Y147.788 E22.12889
G1 X133.065 Y148.644 E22.15891
G1 X132.704 Y149.472 E22.18895
G1 X132.272 Y150.265 E22.21899
G1 X131.771 Y151.017 E22.24904
G1 X131.206 Y151.721 E22.27907
G1 X130.58 Y152.373 E22.30913
G1 X129.9 Y152.966 E22.33914
G1 X129.169 Y153.497 E22.36919
G1 X128.395 Y153.962 E22.39922
G1 X127.582 Y154.356 E22.42927
G1 X126.738 Y154.676 E22.45929
G1 X125.869 Y154.921 E22.48932
G1 X124.981 Y155.088 E22.51937
G1 X123.802 Y155.187 E22.55873
G1 X123.15 Y155.2 E22.58042
G1 X95.361 Y155.199 E23.50468
G1 X94.663 Y155.189 E23.5279
G1 X93.761 Y155.136 E23.55795
G1 X92.868 Y155.004 E23.58798
G1 X91.99 Y154.793 E23.61801
G1 X91.134 Y154.505 E23.64805
G1 X90.307 Y154.143 E23.67807
G1 X89.515 Y153.708 E23.70813
G1 X88.764 Y153.206 E23.73817
G1 X88.061 Y152.639 E23.76821
G1 X87.411 Y152.012 E23.79825
G1 X86.819 Y151.33 E23.82829
G1 X86.289 Y150.599 E23.85832
G1 X85.827 Y149.823 E23.88836
G1 X85.434 Y149.01 E23.91839
G1 X85.116 Y148.165 E23.94842
G1 X84.873 Y147.295 E23.97846
G1 X84.708 Y146.407 E24.0085
G1 X84.613 Y145.266 E24.04659
G1 X84.6 Y144.658 E24.06681
G1 X84.601 Y75.523 E26.36625
G1 F1500 E19.86625
G0 F6000 X94.147 Y74.347
G0 X117.136 Y74.349
G0 X119.483 Y78.002
G1 F1500 E26.36625
G1 F1200 X120.55 Y78.002 E26.40174
G1 X120.55 Y78.355 E26.41348
G1 X120.141 Y78.618 E26.42965
G1 X119.844 Y78.879 E26.4428
G1 X119.562 Y79.161 E26.45607
G1 X119.483 Y79.254 E26.46013
G1 X119.483 Y78.002 E26.50177
G0 F6000 X119.083 Y77.602
G1 F1200 X120.951 Y77.602 E26.5639
G1 X120.95 Y78.615 E26.59759
G1 X120.659 Y78.752 E26.60829
G1 X120.127 Y79.162 E26.63063
G1 X119.845 Y79.444 E26.64389
G1 X119.552 Y79.793 E26.65905
G1 X119.325 Y80.188 E26.6742
G1 X119.17 Y80.616 E26.68934
G1 X119.083 Y81.282 E26.71168
G1 X119.083 Y77.602 E26.83408
G0 F6000 X118.683 Y77.202
G1 F1200 X121.351 Y77.202 E26.92282
G1 X121.35 Y78.898 E26.97923
G1 X121.146 Y78.958 E26.9863
G1 X120.774 Y79.151 E27.00024
G1 X120.409 Y79.444 E27.01581
G1 X120.127 Y79.726 E27.02907
G1 X119.861 Y80.05 E27.04301
G1 X119.66 Y80.417 E27.05693
G1 X119.533 Y80.817 E27.07089
G1 X119.483 Y81.282 E27.08644
G1 X119.483 Y138.718 E28.99677
G1 X119.523 Y139.135 E29.01071
G1 X119.641 Y139.537 E29.02464
G1 X119.834 Y139.909 E29.03858
G1 X120.127 Y140.274 E29.05415
G1 X120.409 Y140.556 E29.06741
G1 X120.733 Y140.822 E29.08135
G1 X121.1 Y141.023 E29.09527
G1 X121.35 Y141.102 E29.10399
G1 X121.351 Y142.8 E29.16047
G1 X118.684 Y142.8 E29.24917
G1 X118.683 Y77.202 E31.43097
G0 F6000 X118.283 Y76.802
G1 F1200 X121.751 Y76.802 E31.54632
G1 X121.75 Y79.223 E31.62684
G1 X121.228 Y79.358 E31.64477
G1 X120.901 Y79.548 E31.65735
G1 X120.692 Y79.727 E31.6665
G1 X120.41 Y80.009 E31.67977
G1 X120.172 Y80.304 E31.69237
G1 X120.001 Y80.642 E31.70497
G1 X119.904 Y81.008 E31.71757
G1 X119.883 Y81.282 E31.72671
G1 X119.883 Y138.718 E33.63704
G1 X119.923 Y139.095 E33.64965
G1 X120.041 Y139.455 E33.66225
G1 X120.231 Y139.782 E33.67482
G1 X120.41 Y139.991 E33.68398
G1 X120.692 Y140.273 E33.69724
G1 X120.987 Y140.511 E33.70985
G1 X121.325 Y140.682 E33.72245
G1 X121.691 Y140.779 E33.73504
G1 X121.75 Y140.784 E33.73701
G1 X121.751 Y143.2 E33.81737
G1 X118.284 Y143.2 E33.93268
G1 X118.283 Y76.802 E36.14109
G0 F6000 X117.883 Y76.402
G1 F1200 X122.151 Y76.402 E36.28304
G1 X122.15 Y79.6 E36.38941
G1 X121.633 Y79.64 E36.40665
G1 X121.321 Y79.757 E36.41774
G1 X120.975 Y80.01 E36.43199
G1 X120.693 Y80.292 E36.44526
G1 X120.487 Y80.555 E36.45637
G1 X120.348 Y80.859 E36.46749
G1 X120.283 Y81.282 E36.48172
G1 X120.283 Y138.718 E38.39205
G1 X120.323 Y139.05 E38.40317
G1 X120.44 Y139.362 E38.41425
G1 X120.693 Y139.708 E38.42851
G1 X120.975 Y139.99 E38.44177
G1 X121.238 Y140.196 E38.45289
G1 X121.542 Y140.335 E38.464
G1 X121.965 Y140.4 E38.47824
G1 X122.15 Y140.4 E38.48439
G1 X122.151 Y143.6 E38.59082
G1 X117.884 Y143.6 E38.73274
G1 X117.883 Y76.402 E40.96776
G0 F6000 X117.483 Y76.002
G1 F1200 X122.551 Y76.002 E41.13632
G1 X122.55 Y80 E41.2693
G1 X121.965 Y80 E41.28875
G1 X121.686 Y80.04 E41.29813
G1 X121.429 Y80.156 E41.30751
G1 X120.976 Y80.575 E41.32803
G1 X120.807 Y80.801 E41.33741
G1 X120.707 Y81.065 E41.3468
G1 X120.683 Y81.282 E41.35407
G1 X120.683 Y138.718 E43.2644
G1 X120.723 Y138.997 E43.27377
G1 X120.839 Y139.254 E43.28315
G1 X121.258 Y139.707 E43.30367
G1 X121.484 Y139.876 E43.31306
G1 X121.748 Y139.976 E43.32245
G1 X121.965 Y140 E43.32971
G1 X122.55 Y140 E43.34917
G1 X122.551 Y144 E43.48221
G1 X117.484 Y144 E43.65074
G1 X117.483 Y76.002 E45.91236
G0 F6000 X117.083 Y75.602
G1 F1200 X122.951 Y75.602 E46.10753
G1 X122.95 Y80.4 E46.26711
G1 X121.965 Y80.4 E46.29987
G1 X121.75 Y80.44 E46.30715
G1 X121.541 Y80.576 E46.31544
G1 X121.259 Y80.858 E46.3287
G1 X121.135 Y81.037 E46.33595
G1 X121.083 Y81.282 E46.34428
G1 X121.083 Y138.718 E48.25461
G1 X121.123 Y138.933 E48.26188
G1 X121.259 Y139.142 E48.27017
G1 X121.541 Y139.424 E48.28344
G1 X121.72 Y139.548 E48.29068
G1 X121.965 Y139.6 E48.29901
G1 X122.95 Y139.6 E48.33177
G1 X122.951 Y144.4 E48.49142
G1 X117.084 Y144.4 E48.68656
G1 X117.083 Y75.602 E50.97479
G0 F6000 X116.683 Y75.202
G1 F1200 X123.351 Y75.202 E51.19657
G1 X123.35 Y80.8 E51.38276
G1 X121.965 Y80.8 E51.42882
G1 X121.824 Y80.859 E51.43391
G1 X121.542 Y81.141 E51.44717
G1 X121.483 Y81.282 E51.45225
G1 X121.483 Y138.718 E53.36258
G1 X121.542 Y138.859 E53.36767
G1 X121.824 Y139.141 E53.38093
G1 X121.965 Y139.2 E53.38601
G1 X123.35 Y139.2 E53.43208
G1 X123.351 Y144.8 E53.61834
G1 X116.684 Y144.8 E53.84008
G1 X116.683 Y75.202 E56.15492
G1 F1500 E49.65492
G0 F6000 X117.148 Y75.202
G0 X119.083 Y138.718
G1 F1500 E56.15492
G1 F1200 X119.123 Y139.172 E56.17008
G1 X119.241 Y139.612 E56.18523
G1 X119.435 Y140.024 E56.20038
G1 X119.845 Y140.556 E56.22272
G1 X120.127 Y140.838 E56.23598
G1 X120.476 Y141.131 E56.25114
G1 X120.871 Y141.358 E56.26629
G1 X120.95 Y141.387 E56.26909
G1 X120.951 Y142.4 E56.30278
G1 X119.084 Y142.4 E56.36488
G1 X119.083 Y138.718 E56.48734
G0 F6000 X119.483 Y140.749
G1 F1200 X119.844 Y141.121 E56.50458
G1 X120.217 Y141.438 E56.52086
G1 X120.55 Y141.638 E56.53378
G1 X120.55 Y142 E56.54582
G1 X119.483 Y142 E56.58131
G1 X119.483 Y140.749 E56.62292
G1 F1500 E50.12292
G0 F6000 X117.148 Y139
G0 X115.916 Y139
;TYPE:SUPPORT-INTERFACE
G1 F1500 E56.62292
G1 F1200 X115.916 Y75.202 E58.74485
G1 X116.283 Y75.202 E58.75706
G1 X116.283 Y139 E60.87899
G1 X116.284 Y144.8 E61.0719
G1 X115.917 Y144.8 E61.0841
G1 X115.916 Y139 E61.27701
G1 F1500 E54.77701
;MESH:trash-can-lid.stl
G0 F6000 X114.486 Y139
G0 X114.337 Y144.42
G1 F1500 E61.27701
G0 F6000 X114.717 Y144.8
;TYPE:WALL-OUTER
G1 F1200 X114.716 Y75.2 E63.59192
G1 X95 Y75.2 E64.24767
G1 X95 Y144.8 E66.56258
G1 X114.717 Y144.8 E67.21837
G0 F6000 X114.317 Y144.4
;TYPE:WALL-INNER
G1 F1200 X114.316 Y75.6 E69.50667
G1 X95.4 Y75.6 E70.13582
G1 X95.4 Y144.4 E72.42411
G1 X114.317 Y144.4 E73.05329
G0 F6000 X113.957 Y144.04
;TYPE:SKIN
