;FLAVOR:Marlin
;TIME:2120
;Filament used: 0.794887m
;Layer height: 0.2
;MINX:91.094
;MINY:90.132
;MINZ:0.2
;MAXX:128.894
;MAXY:129.72
;MAXZ:23.8
;Generated with Cura_SteamEngine 5.0.0
M140 S60
M105
M190 S60
M104 S200
M105
M109 S200
M82 ;absolute extrusion mode
; Ender 3 Custom Start G-code
G92 E0 ; Reset Extruder
G28 ; Home all axes
G1 Z2.0 F3000 ; Move Z Axis up little to prevent scratching of Heat Bed
G1 X0.1 Y20 Z0.3 F5000.0 ; Move to start position
G1 X0.1 Y200.0 Z0.3 F1500.0 E15 ; Draw the first line
G1 X0.4 Y200.0 Z0.3 F5000.0 ; Move to side a little
G1 X0.4 Y20 Z0.3 F1500.0 E30 ; Draw the second line
G92 E0 ; Reset Extruder
G1 Z2.0 F3000 ; Move Z Axis up little to prevent scratching of Heat Bed
G1 X5 Y20 Z0.3 F5000.0 ; Move over to prevent blob squish
G92 E0
G92 E0
G1 F1500 E-6.5
;LAYER_COUNT:119
;LAYER:0
M107
G0 F6000 X100.152 Y93.379 Z0.2
G0 X96.234 Y98.045
;TYPE:SKIRT
G1 F1500 E0
G1 F1200 X96.591 Y97.566 E0.01987
G1 X97.232 Y96.763 E0.05404
G1 X97.956 Y95.911 E0.09123
G1 X98.454 Y95.34 E0.11643
G1 X99.519 Y94.071 E0.17153
G1 X100.152 Y93.379 E0.20272
G1 X100.842 Y92.743 E0.23394
G1 X101.583 Y92.168 E0.26513
G1 X102.371 Y91.659 E0.29633
G1 X103.199 Y91.219 E0.32752
G1 X104.061 Y90.85 E0.35871
G1 X104.952 Y90.557 E0.3899
G1 X105.865 Y90.341 E0.42111
G1 X106.792 Y90.203 E0.45228
G1 X107.748 Y90.144 E0.48414
G1 X108.51 Y90.132 E0.50948
G1 X111.393 Y90.132 E0.60537
G1 X112.344 Y90.144 E0.637
G1 X113.28 Y90.2 E0.66819
G1 X114.208 Y90.336 E0.69939
G1 X115.121 Y90.55 E0.73058
G1 X116.012 Y90.842 E0.76176
G1 X116.876 Y91.208 E0.79297
G1 X117.705 Y91.646 E0.82416
G1 X118.493 Y92.154 E0.85534
G1 X119.236 Y92.727 E0.88655
G1 X119.927 Y93.361 E0.91774
G1 X120.431 Y93.899 E0.94226
G1 X121.453 Y95.068 E0.9939
G1 X122.47 Y96.258 E1.04597
G1 X122.897 Y96.74 E1.06738
G1 X123.374 Y97.315 E1.09223
G1 X123.662 Y97.688 E1.10791
G1 X124.094 Y98.29 E1.13255
G1 X124.982 Y99.616 E1.18563
G1 X125.927 Y100.986 E1.24098
G1 X126.028 Y101.146 E1.24728
G1 X126.721 Y102.147 E1.28777
G1 X127.412 Y103.286 E1.33208
G1 X127.521 Y103.493 E1.33986
G1 X127.922 Y104.341 E1.37106
G1 X128.25 Y105.219 E1.40223
G1 X128.476 Y106.015 E1.42976
G1 X128.551 Y106.323 E1.4403
G1 X128.767 Y107.472 E1.47918
G1 X128.801 Y107.727 E1.48774
G1 X128.885 Y108.661 E1.51893
G1 X128.894 Y109.458 E1.54544
G1 X128.875 Y110.013 E1.56391
G1 X128.803 Y111.353 E1.60854
G1 X128.7 Y113.904 E1.69346
G1 X128.672 Y117.15 E1.80143
G1 X128.675 Y117.653 E1.81816
G1 X128.64 Y118.59 E1.84934
G1 X128.525 Y119.521 E1.88054
G1 X128.331 Y120.438 E1.91172
G1 X128.084 Y121.27 E1.94058
G1 X127.76 Y122.15 E1.97177
G1 X127.361 Y122.999 E2.00297
G1 X126.892 Y123.811 E2.03416
G1 X126.355 Y124.58 E2.06536
G1 X125.452 Y125.619 E2.11114
G1 X125.267 Y125.807 E2.11992
G1 X124.582 Y126.447 E2.1511
G1 X123.844 Y127.026 E2.1823
G1 X123.06 Y127.54 E2.21348
G1 X122.234 Y127.986 E2.2447
G1 X121.52 Y128.302 E2.27067
G1 X121.288 Y128.395 E2.27898
G1 X120.403 Y128.707 E2.31019
G1 X119.495 Y128.942 E2.34139
G1 X118.116 Y129.146 E2.38775
G1 X116.234 Y129.304 E2.45057
G1 X113.621 Y129.566 E2.53791
G1 X112.557 Y129.626 E2.57336
G1 X110.018 Y129.645 E2.65781
G1 X107.637 Y129.72 E2.73704
G1 X106.7 Y129.709 E2.7682
G1 X105.672 Y129.605 E2.80257
G1 X105.43 Y129.569 E2.81071
G1 X104.51 Y129.392 E2.84187
G1 X103.607 Y129.137 E2.87308
G1 X103.02 Y128.925 E2.89384
G1 X101.625 Y128.375 E2.94371
G1 X99.672 Y127.587 E3.01375
G1 X98.603 Y127.176 E3.05185
G1 X97.743 Y126.802 E3.08304
G1 X96.918 Y126.357 E3.11422
G1 X96.133 Y125.842 E3.14544
G1 X95.396 Y125.263 E3.17661
G1 X94.711 Y124.622 E3.20782
G1 X94.082 Y123.926 E3.23902
G1 X93.515 Y123.179 E3.27021
G1 X93.014 Y122.386 E3.30141
G1 X92.6 Y121.605 E3.33081
G1 X92.206 Y120.754 E3.362
G1 X91.887 Y119.872 E3.39319
G1 X91.644 Y118.966 E3.42439
G1 X91.479 Y118.043 E3.45558
G1 X91.38 Y116.672 E3.5013
G1 X91.375 Y116.182 E3.5176
G1 X91.315 Y113.621 E3.6028
G1 X91.114 Y110.006 E3.72322
G1 X91.094 Y109.155 E3.75153
G1 X91.099 Y108.84 E3.76201
G1 X91.154 Y107.904 E3.7932
G1 X91.305 Y106.892 E3.82723
G1 X91.549 Y105.858 E3.86256
G1 X91.82 Y105.036 E3.89135
G1 X91.972 Y104.63 E3.90577
G1 X92.338 Y103.767 E3.93695
G1 X92.776 Y102.937 E3.96816
G1 X93.181 Y102.297 E3.99335
G1 X93.658 Y101.614 E4.02106
G1 X95.057 Y99.718 E4.09943
G1 X96.234 Y98.045 E4.16746
G1 F1500 E-2.33254
G0 F6000 X91.894 Y109.168
G1 F1500 E4.16746
G1 F1200 X91.899 Y108.853 E4.17794
G1 X91.954 Y107.952 E4.20797
G1 X92.114 Y106.924 E4.24257
G1 X92.327 Y106.047 E4.27259
G1 X92.57 Y105.317 E4.29818
G1 X92.722 Y104.911 E4.3126
G1 X93.075 Y104.08 E4.34262
G1 X93.501 Y103.283 E4.37268
G1 X93.842 Y102.747 E4.39381
G1 X94.3 Y102.091 E4.42042
G1 X94.534 Y101.777 E4.43345
G1 X94.598 Y101.679 E4.43734
G1 X95.681 Y100.22 E4.49777
G1 X96.888 Y98.505 E4.56753
G1 X97.219 Y98.061 E4.58595
G1 X97.842 Y97.281 E4.61915
G1 X98.559 Y96.437 E4.65598
G1 X99.055 Y95.868 E4.68109
G1 X100.132 Y94.585 E4.7368
G1 X100.743 Y93.919 E4.76686
G1 X101.41 Y93.311 E4.79688
G1 X102.128 Y92.763 E4.82692
G1 X102.892 Y92.282 E4.85695
G1 X103.695 Y91.869 E4.88698
G1 X104.532 Y91.53 E4.91702
G1 X105.396 Y91.266 E4.94707
G1 X106.279 Y91.079 E4.97709
G1 X107.176 Y90.971 E5.00714
G1 X107.762 Y90.944 E5.02665
G1 X108.509 Y90.932 E5.0515
G1 X111.402 Y90.932 E5.14772
G1 X112.33 Y90.944 E5.17859
G1 X113.231 Y90.999 E5.20861
G1 X114.124 Y91.134 E5.23865
G1 X115.002 Y91.348 E5.26871
G1 X115.857 Y91.639 E5.29874
G1 X116.683 Y92.004 E5.32878
G1 X117.473 Y92.44 E5.35879
G1 X118.222 Y92.945 E5.38884
G1 X118.923 Y93.514 E5.41887
G1 X119.829 Y94.426 E5.46162
G1 X120.844 Y95.588 E5.51294
G1 X121.805 Y96.713 E5.56215
G1 X122.299 Y97.27 E5.58691
G1 X122.74 Y97.804 E5.60995
G1 X123.028 Y98.177 E5.62562
G1 X123.43 Y98.735 E5.64849
G1 X124.325 Y100.071 E5.70198
G1 X125.269 Y101.44 E5.75729
G1 X125.363 Y101.59 E5.76318
G1 X126.064 Y102.602 E5.80412
G1 X126.704 Y103.659 E5.84522
G1 X126.813 Y103.866 E5.853
G1 X127.198 Y104.683 E5.88304
G1 X127.509 Y105.53 E5.91305
G1 X127.698 Y106.205 E5.93636
G1 X127.773 Y106.513 E5.94691
G1 X127.974 Y107.578 E5.98296
G1 X128.008 Y107.833 E5.99151
G1 X128.087 Y108.733 E6.02156
G1 X128.094 Y109.438 E6.04501
G1 X128.076 Y109.97 E6.06272
G1 X128.005 Y111.277 E6.10625
G1 X127.9 Y113.897 E6.19346
G1 X127.872 Y117.147 E6.30156
G1 X127.875 Y117.657 E6.31852
G1 X127.839 Y118.559 E6.34855
G1 X127.724 Y119.455 E6.37859
G1 X127.53 Y120.337 E6.40863
G1 X127.323 Y121.025 E6.43253
G1 X127.009 Y121.872 E6.46257
G1 X126.621 Y122.688 E6.49262
G1 X126.162 Y123.466 E6.52267
G1 X125.637 Y124.2 E6.55268
G1 X124.882 Y125.058 E6.5907
G1 X124.697 Y125.246 E6.59947
G1 X124.036 Y125.861 E6.6295
G1 X123.323 Y126.415 E6.65953
G1 X122.563 Y126.904 E6.68959
G1 X121.764 Y127.324 E6.71961
G1 X121.222 Y127.56 E6.73927
G1 X120.99 Y127.653 E6.74759
G1 X120.138 Y127.951 E6.77761
G1 X119.263 Y128.173 E6.80763
G1 X118.049 Y128.349 E6.84843
G1 X116.169 Y128.507 E6.91118
G1 X113.538 Y128.771 E6.99913
G1 X112.551 Y128.826 E7.03201
G1 X109.987 Y128.845 E7.11729
G1 X107.612 Y128.92 E7.19632
G1 X106.709 Y128.908 E7.22636
G1 X105.79 Y128.814 E7.25708
G1 X105.548 Y128.778 E7.26522
G1 X104.662 Y128.606 E7.29524
G1 X103.794 Y128.356 E7.32528
G1 X103.313 Y128.18 E7.34232
G1 X101.924 Y127.633 E7.39197
G1 X100.005 Y126.859 E7.46079
G1 X98.89 Y126.43 E7.50053
G1 X98.063 Y126.068 E7.53055
G1 X97.27 Y125.635 E7.5606
G1 X96.519 Y125.133 E7.59065
G1 X95.816 Y124.567 E7.62067
G1 X95.165 Y123.941 E7.6507
G1 X94.572 Y123.26 E7.68074
G1 X94.042 Y122.529 E7.71077
G1 X93.486 Y121.579 E7.74738
G1 X93.311 Y121.239 E7.7601
G1 X92.933 Y120.418 E7.79016
G1 X92.63 Y119.568 E7.82017
G1 X92.403 Y118.694 E7.85021
G1 X92.255 Y117.803 E7.88025
G1 X92.18 Y116.665 E7.91818
G1 X92.175 Y116.157 E7.93508
G1 X92.115 Y113.592 E8.02041
G1 X91.912 Y109.957 E8.1415
G1 X91.894 Y109.168 E8.16775
G0 F6000 X91.494 Y109.162
G1 F1200 X91.499 Y108.847 E8.17823
G1 X91.554 Y107.928 E8.20885
G1 X91.721 Y106.847 E8.24523
G1 X91.938 Y105.952 E8.27586
G1 X92.195 Y105.176 E8.30305
G1 X92.347 Y104.77 E8.31747
G1 X92.707 Y103.923 E8.34808
G1 X93.139 Y103.11 E8.3787
G1 X93.512 Y102.522 E8.40186
G1 X93.979 Y101.853 E8.429
G1 X94.276 Y101.44 E8.44592
G1 X95.385 Y99.946 E8.5078
G1 X96.561 Y98.275 E8.57576
G1 X96.905 Y97.813 E8.59492
G1 X97.537 Y97.022 E8.6286
G1 X98.257 Y96.174 E8.6656
G1 X98.781 Y95.574 E8.69209
G1 X99.826 Y94.328 E8.74618
G1 X100.447 Y93.649 E8.77678
G1 X101.126 Y93.027 E8.80741
G1 X101.856 Y92.465 E8.83805
G1 X102.632 Y91.97 E8.86866
G1 X103.448 Y91.543 E8.8993
G1 X104.298 Y91.189 E8.92992
G1 X105.175 Y90.91 E8.96053
G1 X106.073 Y90.709 E8.99114
G1 X106.986 Y90.586 E9.02178
G1 X107.755 Y90.544 E9.04739
G1 X108.51 Y90.532 E9.07251
G1 X111.706 Y90.533 E9.17881
G1 X112.337 Y90.544 E9.1998
G1 X113.256 Y90.6 E9.23042
G1 X114.166 Y90.735 E9.26102
G1 X115.062 Y90.949 E9.29166
G1 X115.935 Y91.24 E9.32226
G1 X116.78 Y91.606 E9.35289
G1 X117.59 Y92.043 E9.3835
G1 X118.359 Y92.55 E9.41414
G1 X119.081 Y93.121 E9.44476
G1 X119.751 Y93.752 E9.47537
G1 X120.13 Y94.162 E9.49394
G1 X121.149 Y95.328 E9.54544
G1 X122.151 Y96.501 E9.59675
G1 X122.598 Y97.005 E9.61916
G1 X123.057 Y97.56 E9.64311
G1 X123.345 Y97.933 E9.65879
G1 X123.762 Y98.512 E9.68252
G1 X124.665 Y99.86 E9.73648
G1 X125.598 Y101.213 E9.79115
G1 X125.703 Y101.38 E9.79771
G1 X126.392 Y102.375 E9.83796
G1 X127.058 Y103.472 E9.88064
G1 X127.167 Y103.679 E9.88843
G1 X127.56 Y104.512 E9.91906
G1 X127.88 Y105.375 E9.94967
G1 X128.087 Y106.11 E9.97507
G1 X128.162 Y106.418 E9.98561
G1 X128.37 Y107.525 E10.02308
G1 X128.404 Y107.78 E10.03163
G1 X128.486 Y108.697 E10.06225
G1 X128.494 Y109.448 E10.08723
G1 X128.476 Y109.991 E10.1053
G1 X128.4 Y111.397 E10.15214
G1 X128.3 Y113.885 E10.23495
G1 X128.272 Y117.149 E10.34352
G1 X128.275 Y117.655 E10.36035
G1 X128.24 Y118.575 E10.39097
G1 X128.124 Y119.488 E10.42158
G1 X127.931 Y120.388 E10.4522
G1 X127.704 Y121.148 E10.47858
G1 X127.384 Y122.011 E10.50919
G1 X126.991 Y122.844 E10.53983
G1 X126.527 Y123.639 E10.57044
G1 X125.996 Y124.391 E10.60106
G1 X125.167 Y125.339 E10.64295
G1 X124.982 Y125.527 E10.65172
G1 X124.309 Y126.154 E10.68231
G1 X123.583 Y126.721 E10.71295
G1 X122.811 Y127.223 E10.74358
G1 X121.999 Y127.655 E10.77417
G1 X121.371 Y127.931 E10.79699
G1 X121.139 Y128.024 E10.8053
G1 X120.27 Y128.329 E10.83593
G1 X119.379 Y128.558 E10.86653
G1 X118.082 Y128.748 E10.91013
G1 X116.165 Y128.909 E10.97411
G1 X113.579 Y129.168 E11.06055
G1 X112.554 Y129.226 E11.0947
G1 X110.003 Y129.245 E11.17955
G1 X107.625 Y129.32 E11.25868
G1 X106.704 Y129.309 E11.28931
G1 X105.731 Y129.21 E11.32184
G1 X105.489 Y129.174 E11.32998
G1 X104.585 Y128.999 E11.36061
G1 X103.7 Y128.746 E11.39122
G1 X103.167 Y128.552 E11.41009
G1 X101.774 Y128.004 E11.45987
G1 X99.838 Y127.223 E11.52931
G1 X98.746 Y126.803 E11.56822
G1 X97.902 Y126.435 E11.59884
G1 X97.094 Y125.996 E11.62943
G1 X96.326 Y125.488 E11.66006
G1 X95.605 Y124.915 E11.69069
G1 X94.937 Y124.281 E11.72132
G1 X94.326 Y123.593 E11.75192
G1 X93.777 Y122.853 E11.78257
G1 X93.13 Y121.762 E11.82476
G1 X92.955 Y121.422 E11.83747
G1 X92.57 Y120.586 E11.86809
G1 X92.258 Y119.72 E11.8987
G1 X92.023 Y118.829 E11.92935
G1 X91.866 Y117.922 E11.95997
G1 X91.78 Y116.669 E12.00174
G1 X91.775 Y116.169 E12.01837
G1 X91.715 Y113.623 E12.10307
G1 X91.513 Y109.982 E12.22436
G1 X91.494 Y109.162 E12.25164
G1 F1500 E5.75164
G0 F6000 X111.901 Y116.256
G1 F1500 E12.25164
G1 F1200 X112.503 Y116.103 E12.2723
G1 X113.02 Y115.932 E12.29041
G1 X113.513 Y115.735 E12.30807
G1 X113.876 Y115.564 E12.32142
G1 X113.936 Y115.804 E12.32964
G1 X113.363 Y115.87 E12.34883
G1 X113.009 Y116.005 E12.36143
G1 X112.646 Y116.247 E12.37594
G1 X112.307 Y116.539 E12.39082
G1 X112.05 Y116.354 E12.40135
G1 X111.901 Y116.256 E12.40728
G1 F1500 E5.90728
G0 F6000 X109.018 Y115.982
G1 F1500 E12.40728
G1 F1200 X109.539 Y116.034 E12.4247
G1 X110.084 Y116.052 E12.44284
G1 X110.723 Y116.026 E12.46411
G1 X111.335 Y115.955 E12.4846
G1 X111.926 Y115.841 E12.50462
G1 X112.497 Y115.687 E12.52429
G1 X112.966 Y115.525 E12.54079
G1 X113.449 Y115.326 E12.55817
G1 X113.988 Y115.06 E12.57816
G1 X114.296 Y114.88 E12.59002
G1 X114.263 Y115.178 E12.59999
G1 X114.266 Y115.512 E12.6111
G1 X114.361 Y115.868 E12.62336
G1 X114.49 Y116.178 E12.63453
G1 X113.756 Y116.212 E12.65897
G1 X113.427 Y116.268 E12.67007
G1 X113.12 Y116.399 E12.68117
G1 X112.907 Y116.55 E12.68985
G1 X112.329 Y117.048 E12.71523
G1 X111.816 Y116.678 E12.73626
G1 X111.524 Y116.517 E12.74736
G1 X111.276 Y116.442 E12.75597
G1 X109.018 Y115.982 E12.83262
G1 F1500 E6.33262
G0 F6000 X105.405 Y115.433
G1 F1500 E12.83262
G1 F1200 X105.522 Y115.183 E12.8418
G1 X105.627 Y114.866 E12.8529
G1 X105.635 Y114.737 E12.8572
G1 X105.9 Y114.904 E12.86762
G1 X106.345 Y115.15 E12.88453
G1 X106.811 Y115.371 E12.90169
G1 X107.355 Y115.585 E12.92113
G1 X107.928 Y115.764 E12.9411
G1 X108.549 Y115.907 E12.96229
G1 X108.7 Y115.931 E12.96738
G1 X108.452 Y115.911 E12.97565
G1 X108.122 Y115.964 E12.98677
G1 X107.71 Y116.159 E13.00193
G1 X107.382 Y116.386 E13.0152
G1 X107.187 Y116.526 E13.02318
G1 X106.986 Y116.281 E13.03372
G1 X106.657 Y116.046 E13.04717
G1 X106.302 Y115.864 E13.06044
G1 X105.988 Y115.748 E13.07157
G1 X105.837 Y115.734 E13.07661
G1 X105.405 Y115.433 E13.09413
G0 F6000 X104.74 Y115.692
G1 F1200 X104.869 Y115.57 E13.10003
G1 X105.16 Y115.013 E13.12093
G1 X105.243 Y114.743 E13.13033
G1 X105.252 Y114.509 E13.13812
G1 X105.207 Y113.939 E13.15713
G1 X105.68 Y114.29 E13.17672
G1 X106.095 Y114.555 E13.1931
G1 X106.519 Y114.79 E13.20922
G1 X106.959 Y115 E13.22544
G1 X107.477 Y115.204 E13.24396
G1 X108.02 Y115.375 E13.26289
G1 X108.612 Y115.512 E13.2831
G1 X109.146 Y115.596 E13.30108
G1 X109.642 Y115.64 E13.31764
G1 X110.161 Y115.651 E13.33491
G1 X110.68 Y115.628 E13.35219
G1 X111.262 Y115.562 E13.37167
G1 X111.824 Y115.454 E13.3907
G1 X112.368 Y115.309 E13.40943
G1 X112.816 Y115.155 E13.42519
G1 X113.274 Y114.966 E13.44166
G1 X113.786 Y114.714 E13.46064
G1 X114.296 Y114.413 E13.48034
G1 X114.719 Y114.12 E13.49746
G1 X114.788 Y114.066 E13.50037
G1 X114.66 Y115.222 E13.53905
G1 X114.669 Y115.504 E13.54844
G1 X114.883 Y116.084 E13.569
G1 X115.027 Y116.327 E13.57839
G1 X115.337 Y116.608 E13.59231
G1 X115.008 Y116.555 E13.60339
G1 X113.775 Y116.612 E13.64445
G1 X113.498 Y116.665 E13.65383
G1 X113.168 Y116.853 E13.66646
G1 X112.351 Y117.556 E13.70231
G1 X111.583 Y117.003 E13.73379
G1 X111.333 Y116.872 E13.74317
G1 X111.196 Y116.834 E13.7479
G1 X108.705 Y116.33 E13.83243
G1 X108.424 Y116.313 E13.84179
G1 X108.149 Y116.376 E13.85118
G1 X107.61 Y116.715 E13.87236
G1 X107.178 Y116.997 E13.88951
G1 X107.072 Y117.084 E13.89408
G1 X106.861 Y116.754 E13.9071
G1 X106.677 Y116.54 E13.91649
G1 X106.119 Y116.22 E13.93788
G1 X105.853 Y116.128 E13.94725
G1 X105.672 Y116.115 E13.95328
G1 X105.429 Y115.918 E13.96369
G1 X105.187 Y115.773 E13.97307
G1 X104.821 Y115.694 E13.98552
G1 X104.74 Y115.692 E13.98822
G0 F6000 X102.993 Y116.409
G1 F1200 X103.285 Y116.251 E13.99926
G1 X104.433 Y115.438 E14.04605
G1 X104.629 Y115.203 E14.05623
G1 X104.798 Y114.843 E14.06945
G1 X104.853 Y114.541 E14.07966
G1 X104.728 Y112.958 E14.13248
G1 X105.082 Y113.305 E14.14897
G1 X105.481 Y113.647 E14.16644
G1 X105.896 Y113.954 E14.18361
G1 X106.29 Y114.206 E14.19917
G1 X106.694 Y114.43 E14.21453
G1 X107.107 Y114.628 E14.22977
G1 X107.6 Y114.823 E14.2474
G1 X108.112 Y114.986 E14.26527
G1 X108.675 Y115.117 E14.2845
G1 X109.183 Y115.197 E14.3016
G1 X109.653 Y115.24 E14.3173
G1 X110.145 Y115.252 E14.33367
G1 X110.637 Y115.23 E14.35005
G1 X111.188 Y115.169 E14.36849
G1 X111.722 Y115.067 E14.38657
G1 X112.239 Y114.93 E14.40436
G1 X112.665 Y114.784 E14.41934
G1 X113.099 Y114.607 E14.43492
G1 X113.584 Y114.369 E14.45289
G1 X114.069 Y114.083 E14.47162
G1 X114.472 Y113.805 E14.4879
G1 X114.868 Y113.492 E14.50469
G1 X115.253 Y113.139 E14.52207
G1 X115.488 Y112.893 E14.53338
G1 X115.233 Y113.766 E14.56363
G1 X115.213 Y113.868 E14.56709
G1 X115.058 Y115.266 E14.61387
G1 X115.1 Y115.562 E14.62381
G1 X115.253 Y115.931 E14.6371
G1 X115.43 Y116.168 E14.64694
G1 X117.061 Y117.483 E14.71662
G1 X116.315 Y117.153 E14.74375
G1 X116.102 Y117.103 E14.75103
