;FLAVOR:Marlin
;TIME:2267
;Filament used: 1.50148m
;Layer height: 0.2
;MINX:88.656
;MINY:88.018
;MINZ:0.2
;MAXX:133.43
;MAXY:130.087
;MAXZ:26.2
;Generated with Cura_SteamEngine 5.0.0
M140 S60
M105
M190 S60
M104 S200
M105
M109 S200
M82 ;absolute extrusion mode
; Ender 3 Custom Start G-code
G92 E0 ; Reset Extruder
G28 ; Home all axes
G1 Z2.0 F3000 ; Move Z Axis up little to prevent scratching of Heat Bed
G1 X0.1 Y20 Z0.3 F5000.0 ; Move to start position
G1 X0.1 Y200.0 Z0.3 F1500.0 E15 ; Draw the first line
G1 X0.4 Y200.0 Z0.3 F5000.0 ; Move to side a little
G1 X0.4 Y20 Z0.3 F1500.0 E30 ; Draw the second line
G92 E0 ; Reset Extruder
G1 Z2.0 F3000 ; Move Z Axis up little to prevent scratching of Heat Bed
G1 X5 Y20 Z0.3 F5000.0 ; Move over to prevent blob squish
G92 E0
G92 E0
G1 F1500 E-6.5
;LAYER_COUNT:131
;LAYER:0
M107
G0 F6000 X93.058 Y91.117 Z0.2
G0 X89.435 Y98.199
;TYPE:SKIRT
G1 F1500 E0
G1 F1200 X89.584 Y97.273 E0.0312
G1 X89.811 Y96.363 E0.06239
G1 X90.103 Y95.504 E0.09257
G1 X90.182 Y95.3 E0.09984
G1 X90.558 Y94.44 E0.13106
G1 X91.005 Y93.616 E0.16224
G1 X91.522 Y92.833 E0.19345
G1 X92.102 Y92.097 E0.22461
G1 X93.058 Y91.117 E0.27015
G1 X93.29 Y90.907 E0.28056
G1 X94.012 Y90.308 E0.31176
G1 X94.782 Y89.772 E0.34296
G1 X95.594 Y89.304 E0.37413
G1 X96.444 Y88.907 E0.40534
G1 X97.324 Y88.584 E0.43652
G1 X98.046 Y88.38 E0.46147
G1 X98.286 Y88.321 E0.46969
G1 X99.205 Y88.136 E0.50087
G1 X100.137 Y88.03 E0.53207
G1 X101.497 Y88.019 E0.5773
G1 X102.229 Y88.064 E0.60169
G1 X104.879 Y88.296 E0.69017
G1 X107.412 Y88.447 E0.77457
G1 X109.933 Y88.525 E0.85846
G1 X112.452 Y88.533 E0.94224
G1 X114.947 Y88.468 E1.02525
G1 X117.435 Y88.334 E1.10812
G1 X119.951 Y88.117 E1.19212
G1 X120.926 Y88.046 E1.22463
G1 X121.864 Y88.018 E1.25584
G1 X122.8 Y88.07 E1.28702
G1 X123.573 Y88.173 E1.31296
G1 X123.931 Y88.234 E1.32504
G1 X124.848 Y88.431 E1.35623
G1 X125.745 Y88.705 E1.38743
G1 X126.615 Y89.055 E1.41862
G1 X127.452 Y89.477 E1.4498
G1 X128.25 Y89.97 E1.48099
G1 X128.85 Y90.402 E1.50559
G1 X129.578 Y90.994 E1.53679
G1 X130.252 Y91.646 E1.56798
G1 X130.869 Y92.353 E1.59919
G1 X131.423 Y93.109 E1.63037
G1 X131.911 Y93.91 E1.66156
G1 X132.299 Y94.685 E1.69039
G1 X132.434 Y94.983 E1.70127
G1 X132.784 Y95.853 E1.73246
G1 X133.059 Y96.75 E1.76367
G1 X133.256 Y97.666 E1.79483
G1 X133.38 Y98.653 E1.82792
G1 X133.396 Y98.855 E1.83465
G1 X133.43 Y99.793 E1.86587
G1 X133.416 Y100.273 E1.88184
G1 X133.338 Y101.832 E1.93376
G1 X133.253 Y104.454 E2.02102
G1 X133.238 Y105.488 E2.05541
G1 X133.206 Y106.183 E2.07855
G1 X133.158 Y106.8 E2.09913
G1 X133.065 Y107.61 E2.12625
G1 X133.002 Y108.022 E2.14011
G1 X132.839 Y108.864 E2.16864
G1 X132.654 Y109.655 E2.19566
G1 X132.464 Y110.359 E2.21991
G1 X132.202 Y111.218 E2.24978
G1 X132.022 Y111.758 E2.26871
G1 X131.606 Y112.891 E2.30886
G1 X131.319 Y113.608 E2.33454
G1 X131.003 Y114.346 E2.36125
G1 X130.608 Y115.22 E2.39315
G1 X130.282 Y115.902 E2.41829
G1 X129.745 Y116.973 E2.45814
G1 X129.238 Y117.928 E2.4941
G1 X128.696 Y118.885 E2.53068
G1 X128.167 Y119.747 E2.56432
G1 X127.765 Y120.364 E2.58881
G1 X127.504 Y120.747 E2.60422
G1 X127.061 Y121.368 E2.6296
G1 X126.721 Y121.82 E2.64841
G1 X126.321 Y122.323 E2.66978
G1 X126.134 Y122.575 E2.68022
G1 X124.647 Y124.409 E2.75875
G1 X124.026 Y125.111 E2.78992
G1 X123.347 Y125.759 E2.82114
G1 X122.616 Y126.346 E2.85232
G1 X121.983 Y126.782 E2.87789
G1 X121.579 Y127.04 E2.89383
G1 X121.084 Y127.341 E2.9131
G1 X120.415 Y127.716 E2.93861
G1 X119.985 Y127.938 E2.9547
G1 X119.428 Y128.207 E2.97528
G1 X118.721 Y128.523 E3.00103
G1 X118.012 Y128.81 E3.02647
G1 X117.654 Y128.941 E3.03915
G1 X116.809 Y129.212 E3.06867
G1 X115.805 Y129.49 E3.10332
G1 X114.841 Y129.711 E3.13621
G1 X114.539 Y129.766 E3.14642
G1 X113.977 Y129.853 E3.16534
G1 X113.071 Y129.97 E3.19572
G1 X112.176 Y130.049 E3.2256
G1 X111.556 Y130.078 E3.24625
G1 X110.779 Y130.087 E3.27209
G1 X110.068 Y130.07 E3.29575
G1 X109.287 Y130.023 E3.32177
G1 X108.815 Y129.978 E3.33754
G1 X108.257 Y129.911 E3.35623
G1 X107.727 Y129.833 E3.37405
G1 X107.019 Y129.708 E3.39796
G1 X106.33 Y129.553 E3.42145
G1 X105.667 Y129.382 E3.44423
G1 X104.984 Y129.183 E3.46789
G1 X104.466 Y129.013 E3.48602
G1 X103.968 Y128.836 E3.5036
G1 X103.369 Y128.607 E3.52493
G1 X102.474 Y128.218 E3.55738
G1 X101.511 Y127.741 E3.59313
G1 X100.931 Y127.419 E3.61519
G1 X100.506 Y127.167 E3.63163
G1 X100 Y126.848 E3.65152
G1 X99.701 Y126.648 E3.66349
G1 X98.945 Y126.094 E3.69466
G1 X98.238 Y125.477 E3.72587
G1 X97.586 Y124.803 E3.75706
G1 X97.259 Y124.416 E3.77391
G1 X96.45 Y123.413 E3.81677
G1 X96.056 Y122.912 E3.83797
G1 X95.652 Y122.418 E3.85919
G1 X94.804 Y121.334 E3.90497
G1 X94.396 Y120.776 E3.92796
G1 X94.003 Y120.197 E3.95123
G1 X93.708 Y119.741 E3.9693
G1 X93.427 Y119.282 E3.9872
G1 X92.753 Y118.108 E4.03222
G1 X92.073 Y116.829 E4.0804
G1 X91.396 Y115.454 E4.13138
G1 X90.936 Y114.443 E4.16832
G1 X90.382 Y113.129 E4.21575
G1 X90.042 Y112.233 E4.24762
G1 X89.572 Y110.859 E4.29592
G1 X89.348 Y110.099 E4.32228
G1 X89.218 Y109.604 E4.3393
G1 X89.045 Y108.849 E4.36506
G1 X88.895 Y108.048 E4.39216
G1 X88.791 Y107.333 E4.4162
G1 X88.727 Y106.764 E4.43524
G1 X88.659 Y105.704 E4.47057
G1 X88.656 Y105.51 E4.47702
G1 X88.678 Y104.627 E4.5064
G1 X88.716 Y104.042 E4.5259
G1 X88.783 Y103.348 E4.54909
G1 X88.863 Y102.738 E4.56955
G1 X89.078 Y101.25 E4.61956
G1 X89.435 Y98.199 E4.72172
G1 F1500 E-1.77828
G0 F6000 X89.456 Y105.498
G1 F1500 E4.72172
G1 F1200 X89.476 Y104.679 E4.74897
G1 X89.514 Y104.094 E4.76847
G1 X89.577 Y103.45 E4.78999
G1 X89.655 Y102.852 E4.81005
G1 X89.873 Y101.344 E4.86073
G1 X90.23 Y98.292 E4.96293
G1 X90.374 Y97.4 E4.99298
G1 X90.597 Y96.525 E5.02302
G1 X90.849 Y95.793 E5.04876
G1 X90.928 Y95.589 E5.05604
G1 X91.291 Y94.762 E5.08608
G1 X91.726 Y93.97 E5.11613
G1 X92.229 Y93.22 E5.14617
G1 X92.797 Y92.518 E5.1762
G1 X93.595 Y91.71 E5.21397
G1 X93.827 Y91.5 E5.22438
G1 X94.523 Y90.924 E5.25443
G1 X95.267 Y90.412 E5.28447
G1 X96.053 Y89.968 E5.31449
G1 X96.875 Y89.595 E5.34452
G1 X97.728 Y89.296 E5.37458
G1 X98.477 Y89.098 E5.40035
G1 X99.363 Y88.921 E5.4304
G1 X100.261 Y88.824 E5.46044
G1 X101.454 Y88.817 E5.50012
G1 X102.16 Y88.861 E5.52365
G1 X104.834 Y89.095 E5.61293
G1 X107.376 Y89.247 E5.69762
G1 X109.906 Y89.325 E5.78181
G1 X112.436 Y89.333 E5.86596
G1 X115.011 Y89.266 E5.95163
G1 X117.486 Y89.133 E6.03407
G1 X120.009 Y88.915 E6.1183
G1 X120.984 Y88.844 E6.15081
G1 X121.887 Y88.818 E6.18086
G1 X122.788 Y88.873 E6.21088
G1 X123.438 Y88.962 E6.2327
G1 X123.796 Y89.023 E6.24478
G1 X124.679 Y89.214 E6.27483
G1 X125.541 Y89.482 E6.30486
G1 X126.377 Y89.826 E6.33492
G1 X127.178 Y90.242 E6.36494
G1 X128.176 Y90.898 E6.40467
G1 X128.372 Y91.044 E6.41279
G1 X129.072 Y91.615 E6.44284
G1 X129.718 Y92.246 E6.47287
G1 X130.306 Y92.931 E6.5029
G1 X130.832 Y93.666 E6.53296
G1 X131.29 Y94.444 E6.56299
G1 X131.57 Y95.015 E6.58414
G1 X131.705 Y95.313 E6.59502
G1 X132.041 Y96.151 E6.62505
G1 X132.301 Y97.016 E6.65509
G1 X132.484 Y97.9 E6.68512
G1 X132.582 Y98.717 E6.71249
G1 X132.598 Y98.919 E6.71923
G1 X132.617 Y100.233 E6.76293
G1 X132.54 Y101.766 E6.81399
G1 X132.452 Y104.472 E6.90404
G1 X132.438 Y105.476 E6.93743
G1 X132.408 Y106.121 E6.95891
G1 X132.36 Y106.738 E6.97949
G1 X132.274 Y107.489 E7.00463
G1 X132.211 Y107.901 E7.0185
G1 X132.06 Y108.682 E7.04495
G1 X131.875 Y109.473 E7.07197
G1 X131.699 Y110.126 E7.09447
G1 X131.437 Y110.985 E7.12434
G1 X131.27 Y111.485 E7.14187
G1 X130.863 Y112.596 E7.18122
G1 X130.582 Y113.296 E7.20631
G1 X130.273 Y114.019 E7.23246
G1 X129.885 Y114.878 E7.26381
G1 X129.566 Y115.545 E7.2884
G1 X129.037 Y116.6 E7.32766
G1 X128.539 Y117.538 E7.36298
G1 X128.011 Y118.471 E7.39863
G1 X127.497 Y119.31 E7.43136
G1 X127.095 Y119.927 E7.45585
G1 X126.853 Y120.283 E7.47017
G1 X126.41 Y120.904 E7.49554
G1 X126.094 Y121.322 E7.51297
G1 X125.643 Y121.89 E7.53709
G1 X125.513 Y122.071 E7.5445
G1 X124.026 Y123.905 E7.62304
G1 X123.427 Y124.581 E7.65308
G1 X122.77 Y125.201 E7.68312
G1 X121.777 Y125.957 E7.72463
G1 X121.164 Y126.356 E7.74896
G1 X120.669 Y126.657 E7.76823
G1 X120.048 Y127.005 E7.7919
G1 X119.618 Y127.227 E7.808
G1 X119.101 Y127.476 E7.82708
G1 X118.394 Y127.792 E7.85284
G1 X117.737 Y128.059 E7.87643
G1 X117.379 Y128.19 E7.88911
G1 X116.596 Y128.441 E7.91646
G1 X115.592 Y128.719 E7.95111
G1 X114.698 Y128.924 E7.98161
G1 X113.874 Y129.06 E8.00939
G1 X112.968 Y129.177 E8.03977
G1 X112.139 Y129.25 E8.06745
G1 X111.519 Y129.279 E8.0881
G1 X110.798 Y129.287 E8.11208
G1 X110.087 Y129.27 E8.13573
G1 X109.363 Y129.227 E8.15986
G1 X108.891 Y129.182 E8.17563
G1 X108.374 Y129.119 E8.19295
G1 X107.42 Y128.97 E8.22506
G1 X107.168 Y128.922 E8.2336
G1 X106.53 Y128.779 E8.25534
G1 X105.867 Y128.608 E8.27812
G1 X105.233 Y128.422 E8.30009
G1 X104.715 Y128.252 E8.31822
G1 X104.254 Y128.088 E8.3345
G1 X103.655 Y127.859 E8.35583
G1 X102.825 Y127.499 E8.38592
G1 X101.887 Y127.035 E8.42072
G1 X101.339 Y126.731 E8.44157
G1 X100.914 Y126.479 E8.458
G1 X100.445 Y126.183 E8.47645
G1 X100.146 Y125.983 E8.48841
G1 X99.418 Y125.448 E8.51846
G1 X98.741 Y124.851 E8.54848
G1 X97.882 Y123.914 E8.59076
G1 X97.079 Y122.918 E8.63331
G1 X96.698 Y122.433 E8.65383
G1 X96.282 Y121.925 E8.67567
G1 X95.434 Y120.841 E8.72144
G1 X95.055 Y120.324 E8.74276
G1 X94.675 Y119.762 E8.76533
G1 X94.38 Y119.306 E8.78339
G1 X94.119 Y118.881 E8.79998
G1 X93.458 Y117.73 E8.84412
G1 X92.79 Y116.473 E8.89147
G1 X92.123 Y115.119 E8.94167
G1 X91.672 Y114.129 E8.97785
G1 X91.128 Y112.839 E9.02442
G1 X90.798 Y111.971 E9.0553
G1 X90.336 Y110.622 E9.10273
G1 X90.122 Y109.896 E9.1279
G1 X89.992 Y109.401 E9.14493
G1 X89.827 Y108.683 E9.16943
G1 X89.683 Y107.907 E9.19568
G1 X89.586 Y107.243 E9.218
G1 X89.522 Y106.674 E9.23704
G1 X89.459 Y105.692 E9.26977
G1 X89.456 Y105.498 E9.27623
G0 F6000 X89.056 Y105.504
G1 F1200 X89.077 Y104.653 E9.30454
G1 X89.115 Y104.068 E9.32404
G1 X89.18 Y103.399 E9.34639
G1 X89.259 Y102.795 E9.36665
G1 X89.478 Y101.281 E9.41753
G1 X89.833 Y98.245 E9.5192
G1 X89.979 Y97.336 E9.54982
G1 X90.204 Y96.443 E9.58045
G1 X90.476 Y95.648 E9.6084
G1 X90.555 Y95.444 E9.61567
G1 X90.925 Y94.601 E9.64629
G1 X91.366 Y93.793 E9.67691
G1 X91.876 Y93.026 E9.70754
G1 X92.45 Y92.306 E9.73817
G1 X93.327 Y91.413 E9.7798
G1 X93.559 Y91.203 E9.79021
G1 X94.267 Y90.616 E9.8208
G1 X95.024 Y90.092 E9.85142
G1 X95.824 Y89.636 E9.88204
G1 X96.66 Y89.25 E9.91267
G1 X97.527 Y88.939 E9.94331
G1 X98.142 Y88.768 E9.96454
G1 X98.382 Y88.709 E9.97276
G1 X99.284 Y88.529 E10.00335
G1 X100.199 Y88.427 E10.03397
G1 X101.475 Y88.418 E10.07641
G1 X102.195 Y88.462 E10.1004
G1 X104.895 Y88.699 E10.19055
G1 X107.375 Y88.846 E10.27318
G1 X109.92 Y88.925 E10.35787
G1 X112.461 Y88.933 E10.44238
G1 X114.943 Y88.869 E10.52496
G1 X117.491 Y88.731 E10.60983
G1 X119.98 Y88.516 E10.69293
G1 X120.955 Y88.445 E10.72544
G1 X121.875 Y88.418 E10.75605
G1 X122.795 Y88.471 E10.7867
G1 X123.505 Y88.568 E10.81054
G1 X123.863 Y88.629 E10.82262
G1 X124.763 Y88.823 E10.85324
G1 X125.643 Y89.094 E10.88386
G1 X126.496 Y89.44 E10.91448
G1 X127.316 Y89.86 E10.94512
G1 X128.415 Y90.577 E10.98877
G1 X128.611 Y90.723 E10.9969
G1 X129.325 Y91.305 E11.02753
G1 X129.986 Y91.946 E11.05816
G1 X130.588 Y92.642 E11.08876
G1 X131.128 Y93.388 E11.1194
G1 X131.601 Y94.178 E11.15002
G1 X131.934 Y94.85 E11.17496
G1 X132.069 Y95.148 E11.18585
G1 X132.413 Y96.002 E11.21647
G1 X132.68 Y96.883 E11.24709
G1 X132.871 Y97.784 E11.27772
G1 X132.981 Y98.685 E11.30791
G1 X132.997 Y98.887 E11.31465
G1 X133.017 Y100.253 E11.36009
G1 X132.937 Y101.857 E11.4135
G1 X132.853 Y104.435 E11.49929
G1 X132.838 Y105.482 E11.53412
G1 X132.807 Y106.152 E11.55643
G1 X132.759 Y106.769 E11.57701
G1 X132.669 Y107.549 E11.60313
G1 X132.606 Y107.961 E11.61699
G1 X132.449 Y108.773 E11.6445
G1 X132.264 Y109.564 E11.67152
G1 X132.082 Y110.242 E11.69486
G1 X131.82 Y111.101 E11.72473
G1 X131.646 Y111.622 E11.743
G1 X131.235 Y112.743 E11.78271
G1 X130.95 Y113.452 E11.80813
G1 X130.638 Y114.182 E11.83453
G1 X130.247 Y115.049 E11.86617
G1 X129.924 Y115.724 E11.89106
G1 X129.391 Y116.787 E11.93061
G1 X128.889 Y117.733 E11.96623
G1 X128.353 Y118.678 E12.00236
G1 X127.832 Y119.528 E12.03552
G1 X127.43 Y120.145 E12.06001
G1 X127.178 Y120.515 E12.0749
G1 X126.735 Y121.136 E12.10027
G1 X126.408 Y121.571 E12.11837
G1 X125.824 Y122.323 E12.15004
G1 X124.337 Y124.157 E12.22857
G1 X123.726 Y124.846 E12.2592
G1 X123.059 Y125.48 E12.28981
G1 X122 Y126.289 E12.33413
G1 X121.371 Y126.698 E12.35909
G1 X120.876 Y126.999 E12.37836
G1 X120.232 Y127.361 E12.40293
G1 X119.802 Y127.583 E12.41902
G1 X119.264 Y127.841 E12.43887
G1 X118.557 Y128.157 E12.46463
G1 X117.875 Y128.434 E12.48911
G1 X117.517 Y128.565 E12.50179
G1 X116.703 Y128.827 E12.53023
G1 X115.699 Y129.105 E12.56488
G1 X114.769 Y129.317 E12.5966
G1 X113.926 Y129.457 E12.62503
G1 X113.02 Y129.574 E12.65541
G1 X112.157 Y129.649 E12.68422
G1 X111.537 Y129.678 E12.70487
G1 X110.789 Y129.687 E12.72975
G1 X110.078 Y129.67 E12.7534
G1 X109.325 Y129.625 E12.77849
G1 X108.853 Y129.58 E12.79426
G1 X108.316 Y129.515 E12.81225
G1 X107.346 Y129.363 E12.84491
G1 X107.094 Y129.315 E12.85344
G1 X106.43 Y129.166 E12.87607
G1 X105.767 Y128.995 E12.89885
G1 X105.109 Y128.802 E12.92165
G1 X104.591 Y128.632 E12.93979
G1 X104.111 Y128.462 E12.95672
G1 X103.512 Y128.233 E12.97805
G1 X102.649 Y127.859 E13.00934
G1 X101.699 Y127.388 E13.0446
G1 X101.135 Y127.075 E13.06606
G1 X100.71 Y126.823 E13.08249
G1 X100.223 Y126.516 E13.10164
G1 X99.924 Y126.316 E13.1136
G1 X99.181 Y125.771 E13.14425
G1 X98.489 Y125.164 E13.17487
G1 X97.571 Y124.165 E13.21999
G1 X96.765 Y123.166 E13.26268
G1 X96.363 Y122.654 E13.28434
G1 X95.967 Y122.171 E13.30511
G1 X95.119 Y121.087 E13.35088
G1 X94.726 Y120.55 E13.37302
G1 X94.339 Y119.98 E13.39593
G1 X94.044 Y119.524 E13.414
G1 X93.773 Y119.081 E13.43127
G1 X93.106 Y117.919 E13.47583
G1 X92.431 Y116.651 E13.52361
G1 X91.76 Y115.287 E13.57417
G1 X91.304 Y114.286 E13.61075
G1 X90.755 Y112.984 E13.65775
G1 X90.42 Y112.102 E13.68913
G1 X89.954 Y110.74 E13.73701
G1 X89.735 Y109.998 E13.76274
G1 X89.605 Y109.503 E13.77976
G1 X89.436 Y108.766 E13.80491
G1 X89.289 Y107.977 E13.8316
G1 X89.188 Y107.288 E13.85477
G1 X89.124 Y106.719 E13.87381
G1 X89.059 Y105.698 E13.90784
G1 X89.056 Y105.504 E13.91429
G1 F1500 E7.41429
G0 F6000 X100.621 Y102.971
G0 X110.628 Y102.041
G0 X112.122 Y102.126
G0 X116.391 Y103.216
G1 F1500 E13.91429
G1 F1200 X118.395 Y102.358 E13.9868
G1 X117.889 Y102.735 E14.00778
G1 X117.391 Y103.161 E14.02958
G1 X116.885 Y103.652 E14.05303
G1 X116.391 Y103.216 E14.07495
G0 F6000 X115.386 Y102.995
G1 F1200 X115.642 Y103.002 E14.08346
G1 X115.923 Y102.97 E14.09287
G1 X116.064 Y102.921 E14.09783
G1 X119.469 Y101.463 E14.22103
G1 X119.805 Y101.228 E14.23467
G1 X120.255 Y100.748 E14.25655
G1 X121.245 Y100.182 E14.29448
G1 X120.596 Y101.172 E14.33385
G1 X120.217 Y101.503 E14.35059
G1 X120.024 Y101.732 E14.36055
G1 X119.829 Y102.049 E14.37293
G1 X119.415 Y102.222 E14.38785
G1 X118.954 Y102.471 E14.40528
G1 X118.524 Y102.754 E14.4224
G1 X118.084 Y103.091 E14.44083
G1 X117.668 Y103.45 E14.45911
G1 X117.231 Y103.871 E14.47929
G1 X116.898 Y104.22 E14.49534
G1 X116.454 Y103.795 E14.51578
G1 X116.015 Y103.427 E14.53483
G1 X115.576 Y103.115 E14.55274
G1 X115.386 Y102.995 E14.56022
G1 F1500 E8.06022
G0 F6000 X112.65 Y102.221
G0 X111.136 Y102.04
G0 X110.638 Y102.506
G1 F1500 E14.56022
G1 F1200 X110.2 Y102.539 E14.57483
G1 X109.705 Y102.606 E14.59144
G1 X109.219 Y102.7 E14.60791
G1 X108.806 Y102.814 E14.62216
G1 X108.384 Y102.953 E14.63693
G1 X107.951 Y103.122 E14.65239
G1 X107.502 Y103.342 E14.66902
G1 X107.045 Y103.594 E14.68638
G1 X106.598 Y103.892 E14.70425
G1 X106.175 Y104.213 E14.72191
G1 X105.923 Y104.431 E14.73299
G1 X105.576 Y104.77 E14.74913
G1 X105.314 Y105.046 E14.76179
G1 X105.002 Y105.433 E14.77832
G1 X104.541 Y104.907 E14.80158
G1 X104.072 Y104.417 E14.82414
G1 X103.659 Y104.021 E14.84317
G1 X103.278 Y103.694 E14.85987
G1 X102.945 Y103.437 E14.87386
G1 X102.592 Y103.2 E14.888
G1 X101.548 Y101.819 E14.94558
G1 X101.351 Y101.441 E14.95976
G1 X100.893 Y100.872 E14.98406
G1 X100.566 Y99.903 E15.01807
