;FLAVOR:Marlin
;TIME:2465
;Filament used: 1.39405m
;Layer height: 0.2
;MINX:92.65
;MINY:83.9
;MINZ:0.2
;MAXX:127.35
;MAXY:128.6
;MAXZ:44.6
;Generated with Cura_SteamEngine 5.0.0
M140 S60
M105
M190 S60
M104 S200
M105
M109 S200
M82 ;absolute extrusion mode
; Ender 3 Custom Start G-code
G92 E0 ; Reset Extruder
G28 ; Home all axes
G1 Z2.0 F3000 ; Move Z Axis up little to prevent scratching of Heat Bed
G1 X0.1 Y20 Z0.3 F5000.0 ; Move to start position
G1 X0.1 Y200.0 Z0.3 F1500.0 E15 ; Draw the first line
G1 X0.4 Y200.0 Z0.3 F5000.0 ; Move to side a little
G1 X0.4 Y20 Z0.3 F1500.0 E30 ; Draw the second line
G92 E0 ; Reset Extruder
G1 Z2.0 F3000 ; Move Z Axis up little to prevent scratching of Heat Bed
G1 X5 Y20 Z0.3 F5000.0 ; Move over to prevent blob squish
G92 E0
G92 E0
G1 F1500 E-6.5
;LAYER_COUNT:223
;LAYER:0
M107
G0 F6000 X95.272 Y87.89 Z0.2
G0 X92.652 Y95.448
;TYPE:SKIRT
G1 F1500 E0
G1 F1200 X92.666 Y94.774 E0.02242
G1 X92.726 Y93.838 E0.05362
G1 X92.865 Y92.91 E0.08483
G1 X93.082 Y91.998 E0.11601
G1 X93.377 Y91.107 E0.14722
G1 X93.746 Y90.245 E0.17841
G1 X94.187 Y89.418 E0.20958
G1 X94.697 Y88.631 E0.24077
G1 X95.272 Y87.89 E0.27197
G1 X95.909 Y87.201 E0.30318
G1 X96.602 Y86.569 E0.33437
G1 X97.346 Y85.998 E0.36557
G1 X98.136 Y85.492 E0.39677
G1 X98.966 Y85.056 E0.42795
G1 X99.593 Y84.783 E0.4507
G1 X99.834 Y84.687 E0.45933
G1 X100.72 Y84.377 E0.49055
G1 X101.628 Y84.144 E0.52173
G1 X102.553 Y83.989 E0.55292
G1 X103.771 Y83.907 E0.59352
G1 X104.397 Y83.9 E0.61435
G1 X115.502 Y83.9 E0.9837
G1 X116.361 Y83.911 E1.01227
G1 X117.298 Y83.964 E1.04349
G1 X118.226 Y84.097 E1.07467
G1 X119.14 Y84.309 E1.10587
G1 X120.032 Y84.597 E1.13705
G1 X120.897 Y84.961 E1.16826
G1 X121.727 Y85.397 E1.19945
G1 X122.753 Y86.071 E1.24028
G1 X122.888 Y86.171 E1.24586
G1 X123.617 Y86.761 E1.27706
G1 X124.293 Y87.411 E1.30825
G1 X124.911 Y88.116 E1.33943
G1 X125.467 Y88.871 E1.37062
G1 X125.957 Y89.671 E1.40182
G1 X126.377 Y90.509 E1.433
G1 X126.724 Y91.381 E1.46421
G1 X126.995 Y92.278 E1.49538
G1 X127.189 Y93.196 E1.52658
G1 X127.304 Y94.127 E1.55778
G1 X127.338 Y94.785 E1.5797
G1 X127.35 Y95.499 E1.60345
G1 X127.348 Y117.011 E2.31894
G1 X127.334 Y117.716 E2.34239
G1 X127.275 Y118.652 E2.37359
G1 X127.137 Y119.58 E2.40479
G1 X126.921 Y120.493 E2.436
G1 X126.627 Y121.383 E2.46717
G1 X126.259 Y122.246 E2.49838
G1 X125.818 Y123.074 E2.52958
G1 X125.309 Y123.861 E2.56075
G1 X124.734 Y124.602 E2.59195
G1 X124.098 Y125.292 E2.62316
G1 X123.406 Y125.925 E2.65435
G1 X122.663 Y126.497 E2.68554
G1 X121.873 Y127.003 E2.71674
G1 X121.043 Y127.44 E2.74794
G1 X120.407 Y127.717 E2.77101
G1 X120.166 Y127.813 E2.77964
G1 X119.28 Y128.123 E2.81086
G1 X118.372 Y128.356 E2.84204
G1 X117.447 Y128.511 E2.87323
G1 X116.229 Y128.593 E2.91384
G1 X115.603 Y128.6 E2.93466
G1 X104.342 Y128.599 E3.3092
G1 X103.639 Y128.589 E3.33259
G1 X102.702 Y128.536 E3.3638
G1 X101.774 Y128.403 E3.39498
G1 X100.86 Y128.191 E3.42619
G1 X99.968 Y127.903 E3.45736
G1 X99.103 Y127.539 E3.48858
G1 X98.273 Y127.103 E3.51976
G1 X97.482 Y126.598 E3.55097
G1 X96.738 Y126.028 E3.58215
G1 X96.133 Y125.483 E3.60923
G1 X95.996 Y125.35 E3.61558
G1 X95.351 Y124.668 E3.6468
G1 X94.767 Y123.934 E3.678
G1 X94.248 Y123.153 E3.70919
G1 X93.797 Y122.331 E3.74037
G1 X93.418 Y121.473 E3.77157
G1 X93.113 Y120.587 E3.80274
G1 X92.884 Y119.677 E3.83395
G1 X92.734 Y118.751 E3.86515
G1 X92.659 Y117.622 E3.90278
G1 X92.65 Y116.925 E3.92596
G1 X92.652 Y95.448 E4.64029
G0 F6000 X93.052 Y95.456
G1 F1200 X93.066 Y94.782 E4.66271
G1 X93.125 Y93.863 E4.69334
G1 X93.264 Y92.953 E4.72396
G1 X93.481 Y92.058 E4.75459
G1 X93.775 Y91.186 E4.7852
G1 X94.143 Y90.342 E4.81582
G1 X94.584 Y89.533 E4.84647
G1 X95.092 Y88.766 E4.87707
G1 X95.666 Y88.046 E4.90769
G1 X96.299 Y87.378 E4.9383
G1 X96.989 Y86.768 E4.96893
G1 X97.728 Y86.22 E4.99953
G1 X98.513 Y85.738 E5.03017
G1 X99.741 Y85.155 E5.07538
G1 X99.982 Y85.059 E5.08401
G1 X100.852 Y84.755 E5.11466
G1 X101.744 Y84.529 E5.14527
G1 X102.653 Y84.38 E5.17591
G1 X103.776 Y84.307 E5.21334
G1 X104.397 Y84.3 E5.23399
G1 X115.502 Y84.3 E5.60335
G1 X116.356 Y84.311 E5.63175
G1 X117.275 Y84.364 E5.66237
G1 X118.186 Y84.497 E5.69299
G1 X119.082 Y84.708 E5.72361
G1 X119.956 Y84.996 E5.75421
G1 X120.803 Y85.359 E5.78486
G1 X121.614 Y85.794 E5.81547
G1 X122.514 Y86.392 E5.85141
G1 X122.649 Y86.492 E5.857
G1 X123.365 Y87.072 E5.88765
G1 X124.027 Y87.711 E5.91825
G1 X124.631 Y88.406 E5.94887
G1 X125.173 Y89.15 E5.97949
G1 X125.648 Y89.939 E6.01012
G1 X126.053 Y90.766 E6.04075
G1 X126.385 Y91.625 E6.07138
G1 X126.641 Y92.509 E6.10199
G1 X126.819 Y93.412 E6.1326
G1 X126.918 Y94.327 E6.16321
G1 X126.938 Y94.793 E6.17872
G1 X126.95 Y95.499 E6.20221
G1 X126.948 Y117.003 E6.91744
G1 X126.934 Y117.708 E6.94089
G1 X126.876 Y118.627 E6.97152
G1 X126.738 Y119.538 E7.00216
G1 X126.522 Y120.432 E7.03275
G1 X126.229 Y121.305 E7.06338
G1 X125.861 Y122.149 E7.094
G1 X125.421 Y122.958 E7.12463
G1 X124.913 Y123.726 E7.15526
G1 X124.341 Y124.447 E7.18587
G1 X123.707 Y125.115 E7.2165
G1 X123.019 Y125.726 E7.2471
G1 X122.28 Y126.275 E7.27772
G1 X121.496 Y126.758 E7.30835
G1 X120.259 Y127.345 E7.35389
G1 X120.018 Y127.441 E7.36252
G1 X119.148 Y127.745 E7.39317
G1 X118.256 Y127.971 E7.42378
G1 X117.347 Y128.12 E7.45441
G1 X116.224 Y128.193 E7.49184
G1 X115.603 Y128.2 E7.5125
G1 X104.347 Y128.199 E7.88688
G1 X103.644 Y128.189 E7.91026
G1 X102.725 Y128.136 E7.94088
G1 X101.814 Y128.003 E7.9715
G1 X100.918 Y127.792 E8.00211
G1 X100.044 Y127.504 E8.03272
G1 X99.197 Y127.141 E8.06337
G1 X98.386 Y126.706 E8.09398
G1 X97.615 Y126.202 E8.12462
G1 X96.891 Y125.634 E8.15522
G1 X96.275 Y125.063 E8.18316
G1 X95.642 Y124.393 E8.21382
G1 X95.071 Y123.671 E8.24443
G1 X94.564 Y122.903 E8.27504
G1 X94.126 Y122.093 E8.30567
G1 X93.759 Y121.249 E8.33628
G1 X93.468 Y120.375 E8.36692
G1 X93.253 Y119.48 E8.39753
G1 X93.117 Y118.57 E8.42813
G1 X93.059 Y117.616 E8.45992
G1 X93.05 Y116.925 E8.48291
G1 X93.052 Y95.456 E9.19697
G0 F6000 X93.452 Y95.464
G1 F1200 X93.466 Y94.79 E9.21939
G1 X93.525 Y93.889 E9.24942
G1 X93.663 Y92.997 E9.27944
G1 X93.88 Y92.12 E9.30949
G1 X94.173 Y91.266 E9.33952
G1 X94.541 Y90.441 E9.36957
G1 X94.98 Y89.652 E9.3996
G1 X95.487 Y88.904 E9.42965
G1 X96.059 Y88.205 E9.45969
G1 X96.69 Y87.559 E9.48973
G1 X97.375 Y86.971 E9.51976
G1 X98.11 Y86.447 E9.54978
G1 X98.889 Y85.989 E9.57983
G1 X99.889 Y85.526 E9.61649
G1 X100.13 Y85.43 E9.62511
G1 X100.983 Y85.133 E9.65516
G1 X101.859 Y84.913 E9.6852
G1 X102.751 Y84.771 E9.71524
G1 X103.781 Y84.707 E9.74956
G1 X104.397 Y84.7 E9.77005
G1 X115.502 Y84.7 E10.13941
G1 X116.35 Y84.711 E10.16761
G1 X117.252 Y84.764 E10.19767
G1 X118.145 Y84.896 E10.22769
G1 X119.023 Y85.107 E10.25772
G1 X119.879 Y85.395 E10.28776
G1 X120.706 Y85.757 E10.31779
G1 X121.498 Y86.191 E10.34783
G1 X122.276 Y86.714 E10.37901
G1 X122.411 Y86.814 E10.38459
G1 X123.113 Y87.383 E10.41465
G1 X123.761 Y88.012 E10.44468
G1 X124.351 Y88.696 E10.47473
G1 X124.878 Y89.429 E10.50476
G1 X125.338 Y90.206 E10.53479
G1 X125.728 Y91.021 E10.56484
G1 X126.044 Y91.867 E10.59488
G1 X126.284 Y92.737 E10.62489
G1 X126.446 Y93.626 E10.65495
G1 X126.538 Y94.801 E10.69415
G1 X126.55 Y95.499 E10.71737
G1 X126.548 Y116.996 E11.43236
G1 X126.534 Y117.701 E11.45581
G1 X126.476 Y118.602 E11.48584
G1 X126.339 Y119.494 E11.51586
G1 X126.123 Y120.371 E11.5459
G1 X125.83 Y121.226 E11.57596
G1 X125.463 Y122.051 E11.60599
G1 X125.025 Y122.84 E11.63601
G1 X124.518 Y123.588 E11.66606
G1 X123.948 Y124.288 E11.69609
G1 X123.317 Y124.935 E11.72615
G1 X122.632 Y125.523 E11.75617
G1 X121.898 Y126.048 E11.78619
G1 X121.119 Y126.507 E11.81626
G1 X120.111 Y126.974 E11.85321
G1 X119.87 Y127.07 E11.86184
G1 X119.017 Y127.367 E11.89188
G1 X118.141 Y127.587 E11.92192
G1 X117.249 Y127.729 E11.95196
G1 X116.219 Y127.793 E11.98628
G1 X115.603 Y127.8 E12.00677
G1 X104.353 Y127.799 E12.38095
G1 X103.65 Y127.789 E12.40433
G1 X102.748 Y127.736 E12.43439
G1 X101.855 Y127.604 E12.46441
G1 X100.977 Y127.393 E12.49445
G1 X100.121 Y127.105 E12.52448
G1 X99.294 Y126.743 E12.55451
G1 X98.502 Y126.309 E12.58455
G1 X97.751 Y125.807 E12.61459
G1 X97.048 Y125.24 E12.64463
G1 X96.553 Y124.776 E12.6672
G1 X95.934 Y124.118 E12.69724
G1 X95.375 Y123.409 E12.72727
G1 X94.881 Y122.653 E12.75731
G1 X94.455 Y121.856 E12.78737
G1 X94.102 Y121.025 E12.8174
G1 X93.824 Y120.166 E12.84743
G1 X93.623 Y119.285 E12.87748
G1 X93.501 Y118.391 E12.90749
G1 X93.459 Y117.61 E12.93351
G1 X93.45 Y116.925 E12.95629
G1 X93.452 Y95.464 E13.67009
G1 F1500 E7.17009
;MESH:Thor_Hammer_Keychain_2020_by_timmyD.stl
G0 F6000 X102.985 Y95.464
G0 X104.08 Y95.464
G0 X104.23 Y117.02
G1 F1500 E13.67009
G0 F6000 X103.855 Y117.4
;TYPE:WALL-OUTER
G1 F1200 X116.147 Y117.399 E14.07892
G1 X116.15 Y117.395 E14.07909
G1 X116.15 Y95.103 E14.82052
G1 X116.145 Y95.1 E14.82072
G1 X103.853 Y95.101 E15.22955
G1 X103.85 Y95.103 E15.22967
G1 X103.85 Y117.397 E15.97117
G1 X103.855 Y117.4 E15.97137
G0 F6000 X104.25 Y117
;TYPE:WALL-INNER
G1 F1200 X115.75 Y117 E16.35386
G1 X115.75 Y95.5 E17.06895
G1 X104.25 Y95.5 E17.45144
G1 X104.25 Y117 E18.16653
G0 F6000 X104.61 Y116.64
;TYPE:SKIN
G1 F1200 X115.39 Y116.64 E18.52508
G1 X115.39 Y95.86 E19.21622
G1 X104.61 Y95.86 E19.57477
G1 X104.61 Y101.25 E19.75404
G1 X104.61 Y116.64 E20.26591
G0 F6000 X105.125 Y116.439
G1 F1200 X104.809 Y116.123 E20.28078
G0 F6000 X104.809 Y115.557
G1 F1200 X105.691 Y116.439 E20.32226
G0 F6000 X106.256 Y116.439
G1 F1200 X104.809 Y114.991 E20.39035
G0 F6000 X104.809 Y114.426
G1 F1200 X106.822 Y116.439 E20.48504
G0 F6000 X107.388 Y116.439
G1 F1200 X104.809 Y113.86 E20.60634
G0 F6000 X104.809 Y113.294
G1 F1200 X107.953 Y116.439 E20.75425
G0 F6000 X108.519 Y116.439
G1 F1200 X104.809 Y112.729 E20.92876
G0 F6000 X104.809 Y112.163
G1 F1200 X109.085 Y116.439 E21.12989
G0 F6000 X109.651 Y116.439
G1 F1200 X104.809 Y111.597 E21.35764
G0 F6000 X104.809 Y111.032
G1 F1200 X110.216 Y116.439 E21.61197
G0 F6000 X110.782 Y116.439
G1 F1200 X104.809 Y110.466 E21.89292
G0 F6000 X104.809 Y109.9
G1 F1200 X111.348 Y116.439 E22.2005
G0 F6000 X111.913 Y116.439
G1 F1200 X104.809 Y109.334 E22.53467
G0 F6000 X104.809 Y108.769
G1 F1200 X112.479 Y116.439 E22.89544
G0 F6000 X113.045 Y116.439
G1 F1200 X104.809 Y108.203 E23.28284
G0 F6000 X104.809 Y107.637
G1 F1200 X113.61 Y116.439 E23.69683
G0 F6000 X114.176 Y116.439
G1 F1200 X104.809 Y107.072 E24.13743
G0 F6000 X104.809 Y106.506
G1 F1200 X114.742 Y116.439 E24.60465
G0 F6000 X115.19 Y116.321
G1 F1200 X104.809 Y105.94 E25.09294
G0 F6000 X104.809 Y105.375
G1 F1200 X115.19 Y115.756 E25.58123
G0 F6000 X115.19 Y115.19
G1 F1200 X104.809 Y104.809 E26.06952
G0 F6000 X104.809 Y104.243
G1 F1200 X115.19 Y114.624 E26.55781
G0 F6000 X115.19 Y114.059
G1 F1200 X104.809 Y103.678 E27.0461
G0 F6000 X104.809 Y103.112
G1 F1200 X115.19 Y113.493 E27.53439
G0 F6000 X115.19 Y112.927
G1 F1200 X104.809 Y102.546 E28.02268
G0 F6000 X104.809 Y101.981
G1 F1200 X115.19 Y112.362 E28.51097
G0 F6000 X115.19 Y111.796
G1 F1200 X104.809 Y101.415 E28.99926
G0 F6000 X104.809 Y100.849
G1 F1200 X115.19 Y111.23 E29.48755
G0 F6000 X115.19 Y110.665
G1 F1200 X104.809 Y100.284 E29.97584
G0 F6000 X104.809 Y99.718
G1 F1200 X115.19 Y110.099 E30.46413
G0 F6000 X115.19 Y109.533
G1 F1200 X104.809 Y99.152 E30.95242
G0 F6000 X104.809 Y98.586
G1 F1200 X115.19 Y108.967 E31.44071
G0 F6000 X115.19 Y108.402
G1 F1200 X104.809 Y98.021 E31.929
G0 F6000 X104.809 Y97.455
G1 F1200 X115.19 Y107.836 E32.41729
G0 F6000 X115.19 Y107.27
G1 F1200 X104.809 Y96.889 E32.90558
G0 F6000 X104.809 Y96.324
G1 F1200 X115.19 Y106.705 E33.39387
G0 F6000 X115.189 Y106.138
G1 F1200 X105.111 Y96.06 E33.86791
G0 F6000 X105.677 Y96.06
G1 F1200 X115.189 Y105.573 E34.31535
G0 F6000 X115.189 Y105.007
G1 F1200 X106.242 Y96.06 E34.73619
G0 F6000 X106.808 Y96.06
G1 F1200 X115.189 Y104.441 E35.13041
G0 F6000 X115.189 Y103.876
G1 F1200 X107.374 Y96.06 E35.49803
G0 F6000 X107.939 Y96.06
G1 F1200 X115.189 Y103.31 E35.83904
G0 F6000 X115.189 Y102.744
G1 F1200 X108.505 Y96.06 E36.15344
G0 F6000 X109.071 Y96.06
G1 F1200 X115.189 Y102.179 E36.44123
G0 F6000 X115.189 Y101.613
G1 F1200 X109.636 Y96.06 E36.70243
G0 F6000 X110.202 Y96.06
G1 F1200 X115.189 Y101.047 E36.937
G0 F6000 X115.189 Y100.481
G1 F1200 X110.768 Y96.06 E37.14495
G0 F6000 X111.333 Y96.06
G1 F1200 X115.189 Y99.916 E37.32633
G0 F6000 X115.189 Y99.35
G1 F1200 X111.899 Y96.06 E37.48108
G0 F6000 X112.465 Y96.06
G1 F1200 X115.189 Y98.784 E37.60921
G0 F6000 X115.189 Y98.219
G1 F1200 X113.031 Y96.06 E37.71074
G0 F6000 X113.596 Y96.06
G1 F1200 X115.189 Y97.653 E37.78567
G0 F6000 X115.189 Y97.087
G1 F1200 X114.162 Y96.06 E37.83397
G0 F6000 X114.728 Y96.06
G1 F1200 X115.189 Y96.522 E37.85568
G1 F1500 E31.35568
;MESH:NONMESH
G0 F300 X115.189 Y96.522 Z0.4
G0 F6000 X115.65 Y96.522
G0 X115.578 Y116.828
G0 X104.23 Y117.02
G1 F1500 E37.85568
G0 F6000 X103.937 Y117.6
;TIME_ELAPSED:68.553021
;LAYER:1
M106 S85
;TYPE:WALL-OUTER
;MESH:Thor_Hammer_Keychain_2020_by_timmyD.stl
G1 F1350 X116.063 Y117.6 E38.25899
G1 X116.35 Y117.397 E38.27069
G1 X116.35 Y95.103 E39.01219
G1 X116.063 Y94.9 E39.02388
G1 X103.937 Y94.9 E39.42719
G1 X103.65 Y95.103 E39.43888
G1 X103.65 Y117.397 E40.18039
G1 X103.937 Y117.6 E40.19208
G0 F7500 X104.05 Y117.19
;TYPE:WALL-INNER
G1 F1350 X104.07 Y117.2 E40.19282
G1 X115.936 Y117.2 E40.58749
G1 X115.95 Y117.18 E40.5883
G1 X115.95 Y95.31 E41.3157
G1 X115.93 Y95.3 E41.31644
G1 X104.064 Y95.3 E41.71111
G1 X104.05 Y95.31 E41.71168
G1 X104.05 Y117.19 E42.43941
G0 F7500 X104.41 Y116.84
;TYPE:SKIN
G1 F1350 X115.59 Y116.84 E42.81126
G1 X115.59 Y95.66 E43.51571
G1 X104.41 Y95.66 E43.88756
G1 X104.41 Y116.84 E44.59201
G0 F7500 X104.15 Y116.84
G0 X115.291 Y117.1
G0 X115.291 Y116.639
G1 F1350 X115.389 Y116.541 E44.59661
G0 F7500 X115.389 Y115.976
G1 F1350 X114.725 Y116.639 E44.62782
G0 F7500 X114.16 Y116.639
G1 F1350 X115.389 Y115.41 E44.68563
G0 F7500 X115.389 Y114.844
G1 F1350 X113.594 Y116.639 E44.77006
G0 F7500 X113.028 Y116.639
G1 F1350 X115.389 Y114.279 E44.88109
G0 F7500 X115.389 Y113.713
G1 F1350 X112.463 Y116.639 E45.01872
G0 F7500 X111.897 Y116.639
G1 F1350 X115.389 Y113.147 E45.18298
G0 F7500 X115.389 Y112.582
G1 F1350 X111.331 Y116.639 E45.37383
G0 F7500 X110.766 Y116.639
G1 F1350 X115.389 Y112.016 E45.59128
G0 F7500 X115.389 Y111.45
G1 F1350 X110.2 Y116.639 E45.83536
G0 F7500 X109.634 Y116.639
G1 F1350 X115.389 Y110.884 E46.10605
G0 F7500 X115.389 Y110.319
G1 F1350 X109.069 Y116.639 E46.40333
G0 F7500 X108.503 Y116.639
G1 F1350 X115.389 Y109.753 E46.72722
G0 F7500 X115.389 Y109.187
G1 F1350 X107.937 Y116.639 E47.07774
G0 F7500 X107.372 Y116.639
G1 F1350 X115.389 Y108.622 E47.45484
G0 F7500 X115.389 Y108.056
G1 F1350 X106.806 Y116.639 E47.85856
G0 F7500 X106.24 Y116.639
G1 F1350 X115.389 Y107.49 E48.2889
G0 F7500 X115.389 Y106.925
G1 F1350 X105.674 Y116.639 E48.74584
G0 F7500 X105.109 Y116.639
G1 F1350 X115.389 Y106.359 E49.22938
G0 F7500 X115.389 Y105.793
G1 F1350 X104.61 Y116.572 E49.73639
G0 F7500 X104.61 Y116.007
G1 F1350 X115.389 Y105.228 E50.2434
G0 F7500 X115.389 Y104.662
G1 F1350 X104.61 Y115.441 E50.75041
G0 F7500 X104.61 Y114.875
G1 F1350 X115.389 Y104.096 E51.25742
G0 F7500 X115.389 Y103.531
G1 F1350 X104.61 Y114.31 E51.76443
G0 F7500 X104.61 Y113.744
G1 F1350 X115.389 Y102.965 E52.27144
G0 F7500 X115.389 Y102.399
G1 F1350 X104.61 Y113.178 E52.77845
G0 F7500 X104.61 Y112.613
G1 F1350 X115.389 Y101.833 E53.28549
G0 F7500 X115.389 Y101.268
G1 F1350 X104.61 Y112.047 E53.7925
G0 F7500 X104.61 Y111.481
G1 F1350 X115.389 Y100.702 E54.29951
G0 F7500 X115.389 Y100.136
G1 F1350 X104.61 Y110.916 E54.80655
G0 F7500 X104.61 Y110.35
G1 F1350 X115.389 Y99.571 E55.31356
G0 F7500 X115.389 Y99.005
G1 F1350 X104.61 Y109.784 E55.82057
G0 F7500 X104.61 Y109.219
G1 F1350 X115.389 Y98.439 E56.3276
G0 F7500 X115.389 Y97.874
G1 F1350 X104.61 Y108.653 E56.83461
G0 F7500 X104.61 Y108.087
G1 F1350 X115.389 Y97.308 E57.34162
G0 F7500 X115.389 Y96.742
G1 F1350 X104.61 Y107.521 E57.84864
G0 F7500 X104.61 Y106.956
G1 F1350 X115.389 Y96.177 E58.35565
G0 F7500 X115.141 Y95.859
G1 F1350 X104.61 Y106.39 E58.85099
G0 F7500 X104.61 Y105.824
