;FLAVOR:Marlin
;TIME:2687
;Filament used: 1.13654m
;Layer height: 0.2
;MINX:83.349
;MINY:84.904
;MINZ:0.2
;MAXX:136.651
;MAXY:131.834
;MAXZ:30.6
;Generated with Cura_SteamEngine 5.0.0
M140 S60
M105
M190 S60
M104 S200
M105
M109 S200
M82 ;absolute extrusion mode
; Ender 3 Custom Start G-code
G92 E0 ; Reset Extruder
G28 ; Home all axes
G1 Z2.0 F3000 ; Move Z Axis up little to prevent scratching of Heat Bed
G1 X0.1 Y20 Z0.3 F5000.0 ; Move to start position
G1 X0.1 Y200.0 Z0.3 F1500.0 E15 ; Draw the first line
G1 X0.4 Y200.0 Z0.3 F5000.0 ; Move to side a little
G1 X0.4 Y20 Z0.3 F1500.0 E30 ; Draw the second line
G92 E0 ; Reset Extruder
G1 Z2.0 F3000 ; Move Z Axis up little to prevent scratching of Heat Bed
G1 X5 Y20 Z0.3 F5000.0 ; Move over to prevent blob squish
G92 E0
G92 E0
G1 F1500 E-6.5
;LAYER_COUNT:153
;LAYER:0
M107
G0 F6000 X94.515 Y88.358 Z0.2
G0 X92.106 Y92.342
;TYPE:SKIRT
G1 F1500 E0
G1 F1200 X92.448 Y91.469 E0.03118
G1 X92.863 Y90.628 E0.06238
G1 X93.348 Y89.825 E0.09358
G1 X93.9 Y89.067 E0.12477
G1 X94.515 Y88.358 E0.15598
G1 X95.187 Y87.705 E0.18715
G1 X95.913 Y87.111 E0.21835
G1 X96.687 Y86.581 E0.24955
G1 X97.503 Y86.119 E0.28074
G1 X98.355 Y85.728 E0.31192
G1 X99.238 Y85.411 E0.34312
G1 X100.145 Y85.17 E0.37433
G1 X101.068 Y85.008 E0.4055
G1 X102.2 Y84.917 E0.44327
G1 X102.83 Y84.904 E0.46423
G1 X116.955 Y84.906 E0.93403
G1 X117.65 Y84.916 E0.95715
G1 X118.587 Y84.97 E0.98837
G1 X119.515 Y85.103 E1.01955
G1 X120.429 Y85.314 E1.05075
G1 X121.321 Y85.603 E1.08193
G1 X122.186 Y85.967 E1.11315
G1 X123.016 Y86.403 E1.14433
G1 X123.806 Y86.908 E1.17551
G1 X124.55 Y87.478 E1.20669
G1 X125.243 Y88.11 E1.23788
G1 X125.88 Y88.799 E1.26909
G1 X126.456 Y89.539 E1.30028
G1 X126.966 Y90.326 E1.33147
G1 X127.408 Y91.153 E1.36266
G1 X127.858 Y92.236 E1.40167
G1 X128.205 Y93.217 E1.43628
G1 X128.516 Y94.134 E1.46848
G1 X129.415 Y96.555 E1.55438
G1 X130.341 Y98.851 E1.63672
G1 X131.347 Y101.154 E1.72031
G1 X132.43 Y103.454 E1.80486
G1 X133.564 Y105.694 E1.88837
G1 X134.745 Y107.876 E1.97089
G1 X135.259 Y108.802 E2.00611
G1 X135.678 Y109.641 E2.03731
G1 X136.025 Y110.513 E2.06852
G1 X136.297 Y111.41 E2.0997
G1 X136.491 Y112.328 E2.1309
G1 X136.606 Y113.259 E2.1621
G1 X136.638 Y113.885 E2.18295
G1 X136.651 Y114.642 E2.20813
G1 X136.641 Y116.181 E2.25932
G1 X136.625 Y116.707 E2.27683
G1 X136.536 Y117.641 E2.30803
G1 X136.367 Y118.563 E2.33921
G1 X136.121 Y119.468 E2.3704
G1 X135.798 Y120.349 E2.40161
G1 X135.402 Y121.199 E2.4328
G1 X134.846 Y122.15 E2.46944
G1 X133.193 Y124.741 E2.57166
G1 X132.138 Y126.493 E2.63968
G1 X131.621 Y127.275 E2.67086
G1 X131.039 Y128.01 E2.70204
G1 X130.396 Y128.693 E2.73324
G1 X129.697 Y129.319 E2.76445
G1 X128.948 Y129.883 E2.79564
G1 X128.153 Y130.381 E2.82684
G1 X127.319 Y130.81 E2.85803
G1 X126.452 Y131.166 E2.8892
G1 X125.557 Y131.446 E2.92039
G1 X124.641 Y131.65 E2.95161
G1 X123.712 Y131.775 E2.98278
G1 X122.853 Y131.819 E3.01139
G1 X121.449 Y131.833 E3.05809
G1 X120.751 Y131.823 E3.08131
G1 X119.824 Y131.77 E3.11219
G1 X118.904 Y131.679 E3.14294
G1 X116.238 Y131.453 E3.23193
G1 X113.778 Y131.313 E3.31388
G1 X111.221 Y131.241 E3.39896
G1 X108.733 Y131.241 E3.48171
G1 X106.174 Y131.313 E3.56686
G1 X103.691 Y131.454 E3.64958
G1 X101.119 Y131.673 E3.73543
G1 X100.222 Y131.766 E3.76543
G1 X99.399 Y131.821 E3.79286
G1 X98.77 Y131.834 E3.81379
G1 X97.832 Y131.833 E3.84498
G1 X97.131 Y131.823 E3.8683
G1 X96.195 Y131.77 E3.89948
G1 X95.266 Y131.637 E3.9307
G1 X94.353 Y131.425 E3.96187
G1 X93.46 Y131.137 E3.99308
G1 X92.596 Y130.773 E4.02426
G1 X91.765 Y130.337 E4.05547
G1 X90.975 Y129.832 E4.08666
G1 X90.231 Y129.262 E4.11783
G1 X89.538 Y128.63 E4.14903
G1 X88.901 Y127.941 E4.18024
G1 X88.325 Y127.201 E4.21143
G1 X87.845 Y126.465 E4.24065
G1 X87.518 Y125.917 E4.26188
G1 X86.106 Y123.629 E4.3513
G1 X85.555 Y122.785 E4.38482
G1 X85.05 Y121.983 E4.41635
G1 X84.584 Y121.169 E4.44754
G1 X84.19 Y120.318 E4.47873
G1 X83.869 Y119.437 E4.50992
G1 X83.625 Y118.531 E4.54113
G1 X83.459 Y117.608 E4.57232
G1 X83.36 Y116.355 E4.61412
G1 X83.349 Y115.685 E4.63641
G1 X83.351 Y114.566 E4.67363
G1 X83.361 Y113.957 E4.69389
G1 X83.417 Y113.021 E4.72508
G1 X83.552 Y112.093 E4.75627
G1 X83.765 Y111.18 E4.78745
G1 X84.056 Y110.288 E4.81865
G1 X84.421 Y109.424 E4.84985
G1 X84.746 Y108.792 E4.87349
G1 X85.896 Y106.724 E4.95219
G1 X87.05 Y104.515 E5.03508
G1 X88.148 Y102.261 E5.11847
G1 X89.203 Y99.929 E5.2036
G1 X90.175 Y97.604 E5.28742
G1 X91.072 Y95.282 E5.37021
G1 X92.106 Y92.342 E5.47387
G1 F1500 E-1.02613
G0 F6000 X90.546 Y97.754
G1 F1500 E5.47387
G1 F1200 X91.446 Y95.423 E5.55697
G1 X92.484 Y92.472 E5.66102
G1 X92.82 Y91.615 E5.69164
G1 X93.23 Y90.79 E5.72228
G1 X93.71 Y90.004 E5.75291
G1 X94.255 Y89.263 E5.7835
G1 X94.864 Y88.572 E5.81414
G1 X95.529 Y87.936 E5.84474
G1 X96.248 Y87.36 E5.87539
G1 X97.014 Y86.849 E5.90601
G1 X97.821 Y86.407 E5.93661
G1 X98.663 Y86.036 E5.96722
G1 X99.535 Y85.739 E5.99786
G1 X100.429 Y85.519 E6.02848
G1 X101.339 Y85.378 E6.05911
G1 X102.211 Y85.317 E6.08818
G1 X102.83 Y85.304 E6.10877
G1 X116.95 Y85.306 E6.57841
G1 X117.645 Y85.316 E6.60152
G1 X118.564 Y85.369 E6.63214
G1 X119.475 Y85.502 E6.66276
G1 X120.371 Y85.713 E6.69338
G1 X121.245 Y86.002 E6.72399
G1 X122.091 Y86.365 E6.75461
G1 X122.902 Y86.8 E6.78522
G1 X123.673 Y87.304 E6.81586
G1 X124.397 Y87.872 E6.84647
G1 X125.069 Y88.502 E6.8771
G1 X125.683 Y89.187 E6.9077
G1 X126.236 Y89.924 E6.93835
G1 X126.723 Y90.705 E6.96896
G1 X127.14 Y91.526 E6.99958
G1 X127.481 Y92.37 E7.02986
G1 X127.827 Y93.345 E7.06427
G1 X128.149 Y94.296 E7.09767
G1 X129.045 Y96.708 E7.18324
G1 X129.974 Y99.012 E7.26587
G1 X130.982 Y101.319 E7.34961
G1 X132.068 Y103.627 E7.43444
G1 X133.205 Y105.872 E7.51814
G1 X134.437 Y108.146 E7.60416
G1 X134.909 Y108.997 E7.63653
G1 X135.32 Y109.82 E7.66713
G1 X135.659 Y110.676 E7.69775
G1 X135.922 Y111.559 E7.72839
G1 X136.107 Y112.461 E7.75902
G1 X136.213 Y113.375 E7.78962
G1 X136.238 Y113.895 E7.80694
G1 X136.251 Y114.64 E7.83172
G1 X136.241 Y116.179 E7.88291
G1 X136.225 Y116.686 E7.89978
G1 X136.137 Y117.603 E7.93042
G1 X135.97 Y118.508 E7.96103
G1 X135.724 Y119.395 E7.99164
G1 X135.403 Y120.258 E8.02227
G1 X135.008 Y121.089 E8.05287
G1 X134.511 Y121.932 E8.08542
G1 X134.256 Y122.322 E8.10092
G1 X132.859 Y124.521 E8.18757
G1 X131.796 Y126.286 E8.2561
G1 X131.287 Y127.054 E8.28674
G1 X130.714 Y127.774 E8.31735
G1 X130.08 Y128.442 E8.34798
G1 X129.391 Y129.053 E8.37861
G1 X128.652 Y129.601 E8.40921
G1 X127.867 Y130.083 E8.43984
G1 X127.044 Y130.495 E8.47046
G1 X126.188 Y130.835 E8.50109
G1 X125.306 Y131.098 E8.5317
G1 X124.404 Y131.284 E8.56233
G1 X123.49 Y131.392 E8.59294
G1 X122.848 Y131.419 E8.61432
G1 X121.455 Y131.433 E8.66065
G1 X120.757 Y131.423 E8.68387
G1 X119.863 Y131.372 E8.71365
G1 X118.903 Y131.277 E8.74574
G1 X116.294 Y131.056 E8.83282
G1 X113.778 Y130.913 E8.91664
G1 X111.232 Y130.841 E9.00136
G1 X108.722 Y130.841 E9.08484
G1 X106.176 Y130.913 E9.16955
G1 X103.669 Y131.055 E9.25307
G1 X101.1 Y131.274 E9.33882
G1 X100.181 Y131.369 E9.36955
G1 X99.388 Y131.421 E9.39599
G1 X98.77 Y131.434 E9.41654
G1 X97.838 Y131.433 E9.44754
G1 X97.137 Y131.423 E9.47086
G1 X96.218 Y131.37 E9.50148
G1 X95.307 Y131.237 E9.5321
G1 X94.411 Y131.026 E9.56272
G1 X93.536 Y130.738 E9.59335
G1 X92.69 Y130.375 E9.62397
G1 X91.879 Y129.94 E9.65458
G1 X91.108 Y129.436 E9.68522
G1 X90.384 Y128.867 E9.71585
G1 X89.712 Y128.238 E9.74646
G1 X89.097 Y127.553 E9.77708
G1 X88.544 Y126.817 E9.8077
G1 X88.188 Y126.26 E9.82968
G1 X87.817 Y125.638 E9.85377
G1 X86.454 Y123.43 E9.94008
G1 X85.893 Y122.572 E9.97417
G1 X85.388 Y121.77 E10.00569
G1 X84.932 Y120.97 E10.03632
G1 X84.547 Y120.134 E10.06693
G1 X84.236 Y119.268 E10.09754
G1 X84.001 Y118.378 E10.12815
G1 X83.844 Y117.47 E10.1588
G1 X83.76 Y116.346 E10.19629
G1 X83.749 Y115.686 E10.21825
G1 X83.751 Y114.573 E10.25526
G1 X83.761 Y113.964 E10.27552
G1 X83.817 Y113.045 E10.30614
G1 X83.951 Y112.134 E10.33677
G1 X84.164 Y111.239 E10.36737
G1 X84.454 Y110.365 E10.398
G1 X84.819 Y109.519 E10.42864
G1 X85.096 Y108.987 E10.44859
G1 X86.226 Y106.956 E10.5259
G1 X87.406 Y104.696 E10.61069
G1 X88.528 Y102.393 E10.6959
G1 X89.56 Y100.111 E10.7792
G1 X90.546 Y97.754 E10.86417
G1 F1500 E4.36417
G0 F6000 X88.88 Y102.583
G1 F1500 E10.86417
G1 F1200 X89.935 Y100.252 E10.94927
G1 X90.912 Y97.917 E11.03346
G1 X91.824 Y95.552 E11.11777
G1 X92.862 Y92.602 E11.22178
G1 X93.193 Y91.761 E11.25184
G1 X93.597 Y90.954 E11.28186
G1 X94.07 Y90.185 E11.31189
G1 X94.61 Y89.461 E11.34193
G1 X95.212 Y88.787 E11.37198
G1 X95.871 Y88.169 E11.40203
G1 X96.582 Y87.613 E11.43205
G1 X97.339 Y87.121 E11.46208
G1 X98.137 Y86.698 E11.49212
G1 X98.969 Y86.347 E11.52216
G1 X99.829 Y86.072 E11.55219
G1 X100.711 Y85.873 E11.58226
G1 X101.606 Y85.753 E11.61229
G1 X102.222 Y85.717 E11.63282
G1 X102.83 Y85.704 E11.65304
G1 X116.944 Y85.706 E12.12248
G1 X117.639 Y85.716 E12.1456
G1 X118.54 Y85.769 E12.17561
G1 X119.434 Y85.902 E12.20568
G1 X120.312 Y86.112 E12.2357
G1 X121.168 Y86.4 E12.26574
G1 X121.995 Y86.763 E12.29578
G1 X122.787 Y87.197 E12.32582
G1 X123.537 Y87.699 E12.35584
G1 X124.24 Y88.266 E12.38587
G1 X124.89 Y88.893 E12.41591
G1 X125.482 Y89.575 E12.44595
G1 X126.012 Y90.307 E12.47601
G1 X126.475 Y91.082 E12.50603
G1 X126.867 Y91.896 E12.53608
G1 X127.105 Y92.503 E12.55777
G1 X127.448 Y93.473 E12.59199
G1 X127.775 Y94.438 E12.62588
G1 X128.665 Y96.836 E12.71095
G1 X129.601 Y99.155 E12.79413
G1 X130.625 Y101.5 E12.87923
G1 X131.707 Y103.799 E12.96374
G1 X132.862 Y106.079 E13.04875
G1 X134.071 Y108.312 E13.13321
G1 X134.559 Y109.191 E13.16665
G1 X134.962 Y109.999 E13.19668
G1 X135.292 Y110.84 E13.22673
G1 X135.546 Y111.706 E13.25675
G1 X135.723 Y112.592 E13.2868
G1 X135.838 Y113.904 E13.3306
G1 X135.851 Y114.637 E13.35498
G1 X135.841 Y116.176 E13.40617
G1 X135.826 Y116.665 E13.42244
G1 X135.739 Y117.564 E13.45248
G1 X135.572 Y118.452 E13.48254
G1 X135.328 Y119.321 E13.51256
G1 X135.007 Y120.165 E13.54259
G1 X134.614 Y120.978 E13.57263
G1 X134.176 Y121.713 E13.60108
G1 X132.511 Y124.323 E13.70405
G1 X131.453 Y126.08 E13.77227
G1 X130.954 Y126.833 E13.80231
G1 X130.389 Y127.538 E13.83236
G1 X129.765 Y128.19 E13.86238
G1 X129.086 Y128.785 E13.89241
G1 X128.356 Y129.318 E13.92247
G1 X127.582 Y129.783 E13.9525
G1 X126.77 Y130.179 E13.98255
G1 X125.927 Y130.501 E14.01256
G1 X125.058 Y130.747 E14.0426
G1 X124.17 Y130.915 E14.07266
G1 X122.843 Y131.019 E14.11693
G1 X121.461 Y131.033 E14.1629
G1 X120.763 Y131.023 E14.18612
G1 X119.903 Y130.974 E14.21477
G1 X118.979 Y130.882 E14.24565
G1 X116.317 Y130.657 E14.33451
G1 X113.776 Y130.513 E14.41916
G1 X111.243 Y130.441 E14.50344
G1 X108.71 Y130.441 E14.58769
G1 X106.177 Y130.513 E14.67197
G1 X103.613 Y130.658 E14.75738
G1 X101.081 Y130.874 E14.8419
G1 X100.14 Y130.971 E14.87337
G1 X99.377 Y131.021 E14.8988
G1 X98.77 Y131.034 E14.91899
G1 X97.844 Y131.033 E14.94979
G1 X97.143 Y131.023 E14.97311
G1 X96.241 Y130.97 E15.00316
G1 X95.348 Y130.838 E15.03319
G1 X94.469 Y130.627 E15.06325
G1 X93.613 Y130.339 E15.09329
G1 X92.786 Y129.977 E15.12332
G1 X91.994 Y129.543 E15.15335
G1 X91.244 Y129.04 E15.18339
G1 X90.541 Y128.473 E15.21343
G1 X89.891 Y127.847 E15.24344
G1 X89.298 Y127.165 E15.2735
G1 X88.531 Y126.055 E15.31838
G1 X88.157 Y125.429 E15.34263
G1 X86.795 Y123.222 E15.42889
G1 X86.232 Y122.359 E15.46316
G1 X85.727 Y121.557 E15.49468
G1 X85.28 Y120.772 E15.52473
G1 X84.904 Y119.951 E15.55476
G1 X84.602 Y119.1 E15.5848
G1 X84.377 Y118.225 E15.61485
G1 X84.23 Y117.334 E15.64488
G1 X84.16 Y116.338 E15.67809
G1 X84.149 Y115.686 E15.69978
G1 X84.151 Y114.58 E15.73657
G1 X84.161 Y113.971 E15.75682
G1 X84.216 Y113.069 E15.78688
G1 X84.35 Y112.176 E15.81691
G1 X84.563 Y111.298 E15.84696
G1 X84.853 Y110.443 E15.87699
G1 X85.217 Y109.616 E15.90704
G1 X85.446 Y109.181 E15.92339
G1 X86.581 Y107.141 E16.00104
G1 X87.763 Y104.878 E16.08596
G1 X88.88 Y102.583 E16.17085
G1 F1500 E9.67085
G0 F6000 X95.496 Y116.787
G0 X106.49 Y118.334
G1 F1500 E16.17085
G1 F1200 X113.513 Y118.334 E16.40444
G1 X113.5 Y118.434 E16.40779
G1 X106.5 Y118.434 E16.64061
G1 X106.49 Y118.334 E16.64395
G0 F6000 X105.968 Y117.934
G1 F1200 X114.025 Y117.934 E16.91193
G1 X113.924 Y118.199 E16.92136
G1 X113.9 Y118.834 E16.9425
G1 X106.1 Y118.834 E17.20193
G1 X106.1 Y118.416 E17.21583
G1 X106.06 Y118.137 E17.2252
G1 X105.968 Y117.934 E17.23262
G0 F6000 X104.818 Y117.934
G1 F1200 X99.382 Y117.934 E17.41342
G1 X99.241 Y117.993 E17.4185
G1 X98.959 Y118.275 E17.43177
G1 X98.9 Y118.416 E17.43685
G1 X98.9 Y120.634 E17.51062
G1 X97.422 Y120.634 E17.55978
G1 X97.3 Y120.299 E17.57164
G1 X97.3 Y117.134 E17.67691
G1 X122.7 Y117.134 E18.52171
G1 X122.7 Y120.299 E18.62698
G1 X122.578 Y120.634 E18.63884
G1 X121.1 Y120.634 E18.688
G1 X121.1 Y118.416 E18.76177
G1 X121.041 Y118.275 E18.76685
G1 X120.759 Y117.993 E18.78012
G1 X120.618 Y117.934 E18.7852
G1 X115.182 Y117.934 E18.966
G1 X115.041 Y117.993 E18.97109
G1 X114.759 Y118.275 E18.98435
G1 X114.7 Y118.416 E18.98943
G1 X114.7 Y119.634 E19.02995
G1 X105.3 Y119.634 E19.34259
G1 X105.3 Y118.416 E19.3831
G1 X105.241 Y118.275 E19.38819
G1 X104.959 Y117.993 E19.40145
G1 X104.818 Y117.934 E19.40653
G0 F6000 X104.818 Y117.534
G1 F1200 X99.382 Y117.534 E19.58734
G1 X99.167 Y117.574 E19.59461
G1 X98.958 Y117.71 E19.6029
G1 X98.676 Y117.992 E19.61617
G1 X98.552 Y118.171 E19.62341
G1 X98.5 Y118.416 E19.63174
G1 X98.5 Y120.234 E19.69221
G1 X97.702 Y120.234 E19.71875
G1 X97.7 Y117.534 E19.80855
G1 X122.3 Y117.534 E20.62675
G1 X122.298 Y120.234 E20.71655
G1 X121.5 Y120.234 E20.74309
G1 X121.5 Y118.416 E20.80356
G1 X121.46 Y118.201 E20.81083
G1 X121.324 Y117.992 E20.81913
G1 X121.042 Y117.71 E20.83239
G1 X120.863 Y117.586 E20.83964
G1 X120.618 Y117.534 E20.84797
G1 X115.182 Y117.534 E21.02877
G1 X114.967 Y117.574 E21.03604
G1 X114.758 Y117.71 E21.04433
G1 X114.476 Y117.992 E21.0576
G1 X114.352 Y118.171 E21.06484
G1 X114.3 Y118.416 E21.07317
G1 X114.3 Y119.234 E21.10038
G1 X105.7 Y119.234 E21.38642
G1 X105.7 Y118.416 E21.41362
G1 X105.66 Y118.201 E21.4209
G1 X105.524 Y117.992 E21.42919
G1 X105.242 Y117.71 E21.44245
G1 X105.063 Y117.586 E21.4497
G1 X104.818 Y117.534 E21.45803
G1 F1500 E14.95803
G0 F6000 X98.1 Y117.934
G1 F1500 E21.45803
G1 F1200 X98.225 Y117.934 E21.46218
G1 X98.124 Y118.199 E21.47162
G1 X98.1 Y118.416 E21.47888
G1 X98.1 Y117.934 E21.49491
G1 F1500 E14.99491
G0 F6000 X95.496 Y116.787
G0 X94.549 Y115.934
G1 F1500 E21.49491
G1 F1200 X94.55 Y114.334 E21.54813
G1 X95.15 Y114.334 E21.56808
G1 X95.149 Y115.934 E21.6213
G1 X94.549 Y115.934 E21.64125
G1 F1500 E15.14125
G0 F6000 X95.497 Y113.481
G0 X107.7 Y109.193
G1 F1500 E21.64125
G1 F1200 X112.3 Y109.192 E21.79425
G1 X112.3 Y109.37 E21.80017
G1 X107.7 Y109.37 E21.95317
G1 X107.7 Y109.193 E21.95906
G1 F1500 E15.45906
G0 F6000 X113.153 Y109.717
G0 X124.504 Y113.481
G0 X124.503 Y116.787
G0 X121.768 Y117.934
G1 F1500 E21.95906
G1 F1200 X121.9 Y117.934 E21.96345
G1 X121.9 Y118.416 E21.97948
G1 X121.86 Y118.137 E21.98885
G1 X121.768 Y117.934 E21.99626
G1 F1500 E15.49626
G0 F6000 X124.503 Y116.787
G0 X124.85 Y115.934
G1 F1500 E21.99626
G1 F1200 X124.851 Y114.334 E22.04948
G1 X125.451 Y114.334 E22.06944
G1 X125.45 Y115.934 E22.12265
G1 X124.85 Y115.934 E22.14261
G1 F1500 E15.64261
;MESH:T-nut_M3_2020_aluprofile.stl
G0 F6000 X111.27 Y103.107
G0 X109.788 Y103.295
G1 F1500 E22.14261
G0 F6000 X109.814 Y102.886
;TYPE:WALL-OUTER
G1 F1200 X109.396 Y102.793 E22.15685
G1 X109.013 Y102.602 E22.17109
G1 X108.687 Y102.328 E22.18525
G1 X108.435 Y101.985 E22.19941
G1 X108.271 Y101.596 E22.21345
G1 X108.203 Y101.176 E22.2276
G1 X108.234 Y100.749 E22.24184
G1 X108.365 Y100.346 E22.25593
G1 X108.588 Y99.982 E22.27013
G1 X108.889 Y99.681 E22.28429
G1 X109.253 Y99.461 E22.29843
G1 X109.671 Y99.33 E22.313
G1 X109.727 Y99.322 E22.31489
G1 X110.256 Y99.318 E22.33248
G1 X110.686 Y99.436 E22.34731
G1 X111.058 Y99.643 E22.36147
G1 X111.37 Y99.933 E22.37564
G1 X111.606 Y100.289 E22.38984
G1 X111.751 Y100.687 E22.40393
G1 X111.798 Y101.108 E22.41802
G1 X111.746 Y101.531 E22.4322
G1 X111.594 Y101.928 E22.44634
G1 X111.354 Y102.28 E22.46051
G1 X111.04 Y102.565 E22.47461
