;FLAVOR:Marlin
;TIME:3402
;Filament used: 1.66709m
;Layer height: 0.2
;MINX:88.699
;MINY:45.988
;MINZ:0.2
;MAXX:129.477
;MAXY:109.798
;MAXZ:41.8
;Generated with Cura_SteamEngine 5.0.0
M140 S60
M105
M190 S60
M104 S200
M105
M109 S200
M82 ;absolute extrusion mode
; Ender 3 Custom Start G-code
G92 E0 ; Reset Extruder
G28 ; Home all axes
G1 Z2.0 F3000 ; Move Z Axis up little to prevent scratching of Heat Bed
G1 X0.1 Y20 Z0.3 F5000.0 ; Move to start position
G1 X0.1 Y200.0 Z0.3 F1500.0 E15 ; Draw the first line
G1 X0.4 Y200.0 Z0.3 F5000.0 ; Move to side a little
G1 X0.4 Y20 Z0.3 F1500.0 E30 ; Draw the second line
G92 E0 ; Reset Extruder
G1 Z2.0 F3000 ; Move Z Axis up little to prevent scratching of Heat Bed
G1 X5 Y20 Z0.3 F5000.0 ; Move over to prevent blob squish
G92 E0
G92 E0
G1 F1500 E-6.5
;LAYER_COUNT:209
;LAYER:0
M107
G0 F6000 X94.501 Y53.918 Z0.2
G0 X92.956 Y59.267
;TYPE:SKIRT
G1 F1500 E0
G1 F1200 X93.019 Y58.332 E0.03117
G1 X93.162 Y57.405 E0.06237
G1 X93.384 Y56.494 E0.09355
G1 X93.682 Y55.604 E0.12477
G1 X94.056 Y54.744 E0.15596
G1 X94.501 Y53.918 E0.18717
G1 X95.014 Y53.134 E0.21833
G1 X95.593 Y52.396 E0.24953
G1 X96.232 Y51.71 E0.28071
G1 X97.255 Y50.82 E0.32581
G1 X97.556 Y50.589 E0.33843
G1 X98.324 Y50.05 E0.36964
G1 X99.078 Y49.608 E0.3987
G1 X100.918 Y48.627 E0.46806
G1 X101.668 Y48.263 E0.49579
G1 X102.897 Y47.73 E0.54034
G1 X103.438 Y47.514 E0.55972
G1 X104.043 Y47.293 E0.58114
G1 X104.994 Y46.982 E0.61442
G1 X105.489 Y46.834 E0.6316
G1 X106.111 Y46.668 E0.65301
G1 X107.3 Y46.393 E0.6936
G1 X107.811 Y46.29 E0.71094
G1 X109.056 Y46.112 E0.75277
G1 X110.017 Y46.035 E0.78484
G1 X110.64 Y46 E0.80559
G1 X111.578 Y45.988 E0.83679
G1 X112.131 Y46.018 E0.85521
G1 X113.043 Y46.095 E0.88565
G1 X113.738 Y46.171 E0.90891
G1 X114.975 Y46.379 E0.95063
G1 X115.918 Y46.597 E0.98282
G1 X116.526 Y46.754 E1.0037
G1 X117.208 Y46.954 E1.02734
G1 X118.114 Y47.259 E1.05914
G1 X118.696 Y47.473 E1.07976
G1 X119.308 Y47.719 E1.1017
G1 X120.435 Y48.218 E1.14269
G1 X121.212 Y48.593 E1.17139
G1 X122.098 Y49.051 E1.20456
G1 X123.278 Y49.69 E1.24919
G1 X124.083 Y50.172 E1.2804
G1 X124.844 Y50.72 E1.31159
G1 X125.323 Y51.119 E1.33233
G1 X125.546 Y51.316 E1.34222
G1 X126.222 Y51.966 E1.37341
G1 X126.839 Y52.672 E1.4046
G1 X127.395 Y53.428 E1.43581
G1 X127.884 Y54.228 E1.467
G1 X128.303 Y55.067 E1.49819
G1 X128.65 Y55.938 E1.52937
G1 X128.92 Y56.836 E1.56056
G1 X129.114 Y57.754 E1.59177
G1 X129.255 Y59.141 E1.63814
G1 X129.284 Y59.946 E1.66493
G1 X129.471 Y68.409 E1.94648
G1 X129.477 Y69.163 E1.97156
G1 X129.444 Y70.101 E2.00278
G1 X129.332 Y71.032 E2.03396
G1 X129.141 Y71.95 E2.06515
G1 X128.773 Y73.124 E2.10607
G1 X128.474 Y73.916 E2.13423
G1 X127.978 Y75.183 E2.17948
G1 X127.143 Y77.505 E2.26155
G1 X126.354 Y79.913 E2.34583
G1 X125.646 Y82.295 E2.42849
G1 X125.059 Y84.552 E2.50605
G1 X124.757 Y85.666 E2.54444
G1 X124.473 Y86.56 E2.57564
G1 X124.114 Y87.427 E2.60685
G1 X123.771 Y88.102 E2.63203
G1 X122.36 Y90.66 E2.7292
G1 X121.197 Y92.923 E2.81382
G1 X120.122 Y95.168 E2.89661
G1 X119.092 Y97.487 E2.98101
G1 X118.1 Y99.903 E3.06787
G1 X117.766 Y100.749 E3.09813
G1 X117.385 Y101.606 E3.12932
G1 X116.933 Y102.427 E3.16049
G1 X116.412 Y103.207 E3.19169
G1 X115.827 Y103.94 E3.22288
G1 X115.181 Y104.62 E3.25408
G1 X114.154 Y105.498 E3.29902
G1 X113.33 Y106.118 E3.33331
G1 X112.293 Y106.871 E3.37594
G1 X111.723 Y107.274 E3.39916
G1 X110.935 Y107.782 E3.43034
G1 X110.107 Y108.221 E3.46151
G1 X109.243 Y108.589 E3.49275
G1 X108.352 Y108.881 E3.52393
G1 X107.439 Y109.096 E3.55513
G1 X106.512 Y109.233 E3.58629
G1 X105.567 Y109.29 E3.61778
G1 X104.465 Y109.308 E3.65444
G1 X103.226 Y109.307 E3.69565
G1 X102.548 Y109.297 E3.7182
G1 X101.611 Y109.243 E3.74942
G1 X100.683 Y109.11 E3.7806
G1 X99.77 Y108.898 E3.81177
G1 X99.102 Y108.69 E3.83504
G1 X98.229 Y108.347 E3.86624
G1 X97.388 Y107.932 E3.89743
G1 X96.363 Y107.294 E3.93759
G1 X95.506 Y106.691 E3.97244
G1 X94.44 Y105.913 E4.01634
G1 X93.92 Y105.523 E4.03795
G1 X93.194 Y104.929 E4.06915
G1 X92.522 Y104.275 E4.10034
G1 X91.908 Y103.566 E4.13154
G1 X91.356 Y102.808 E4.16273
G1 X90.871 Y102.005 E4.19393
G1 X90.456 Y101.164 E4.22512
G1 X90.113 Y100.286 E4.25647
G1 X89.794 Y99.349 E4.28939
G1 X89.382 Y98.076 E4.33389
G1 X89.168 Y97.374 E4.3583
G1 X88.933 Y96.466 E4.3895
G1 X88.776 Y95.541 E4.4207
G1 X88.699 Y94.606 E4.45191
G1 X88.701 Y93.668 E4.48311
G1 X88.784 Y92.734 E4.51429
G1 X88.945 Y91.81 E4.54549
G1 X89.079 Y91.267 E4.56409
G1 X89.33 Y90.353 E4.59562
G1 X89.512 Y89.725 E4.61736
G1 X90.151 Y87.263 E4.70196
G1 X90.714 Y84.804 E4.78587
G1 X91.204 Y82.359 E4.8688
G1 X91.627 Y79.879 E4.95248
G1 X91.98 Y77.389 E5.03613
G1 X92.263 Y74.875 E5.12027
G1 X92.475 Y72.376 E5.20369
G1 X92.618 Y69.817 E5.28893
G1 X92.673 Y68.118 E5.34547
G1 X92.747 Y64.605 E5.46234
G1 X92.88 Y62.006 E5.54889
G1 X92.956 Y59.267 E5.64003
G1 F1500 E-0.85997
G0 F6000 X93.147 Y64.625
G1 F1500 E5.64003
G1 F1200 X93.28 Y62.037 E5.72622
G1 X93.355 Y59.278 E5.81802
G1 X93.419 Y58.359 E5.84866
G1 X93.561 Y57.45 E5.87926
G1 X93.782 Y56.556 E5.90989
G1 X94.08 Y55.685 E5.94051
G1 X94.453 Y54.843 E5.97114
G1 X94.897 Y54.036 E6.00177
G1 X95.409 Y53.271 E6.03239
G1 X95.986 Y52.554 E6.063
G1 X96.622 Y51.889 E6.0936
G1 X97.499 Y51.137 E6.13203
G1 X97.8 Y50.906 E6.14465
G1 X98.554 Y50.378 E6.17526
G1 X99.266 Y49.961 E6.20271
G1 X101.106 Y48.98 E6.27206
G1 X101.829 Y48.63 E6.29878
G1 X103.046 Y48.102 E6.3429
G1 X103.587 Y47.886 E6.36227
G1 X104.17 Y47.672 E6.38293
G1 X105.109 Y47.365 E6.41579
G1 X105.604 Y47.217 E6.43297
G1 X106.203 Y47.057 E6.45359
G1 X107.38 Y46.785 E6.49377
G1 X107.891 Y46.682 E6.51111
G1 X109.09 Y46.511 E6.55139
G1 X110.039 Y46.435 E6.58306
G1 X110.662 Y46.4 E6.60381
G1 X111.583 Y46.388 E6.63445
G1 X112.099 Y46.416 E6.65163
G1 X112.999 Y46.493 E6.68168
G1 X113.694 Y46.569 E6.70493
G1 X114.887 Y46.769 E6.74516
G1 X115.818 Y46.985 E6.77695
G1 X116.426 Y47.142 E6.79784
G1 X117.083 Y47.334 E6.8206
G1 X117.976 Y47.634 E6.85194
G1 X118.558 Y47.848 E6.87256
G1 X119.148 Y48.085 E6.89371
G1 X120.264 Y48.579 E6.9343
G1 X121.029 Y48.949 E6.96256
G1 X121.908 Y49.403 E6.99547
G1 X123.088 Y50.042 E7.0401
G1 X123.877 Y50.515 E7.0707
G1 X124.623 Y51.055 E7.10133
G1 X125.058 Y51.419 E7.12019
G1 X125.281 Y51.616 E7.13009
G1 X125.944 Y52.255 E7.16072
G1 X126.549 Y52.949 E7.19134
G1 X127.091 Y53.693 E7.22195
G1 X127.567 Y54.481 E7.25257
G1 X127.973 Y55.307 E7.28319
G1 X128.305 Y56.166 E7.31382
G1 X128.562 Y57.05 E7.34444
G1 X128.741 Y57.953 E7.37505
G1 X128.855 Y59.156 E7.41524
G1 X128.884 Y59.955 E7.44184
G1 X129.071 Y68.413 E7.72322
G1 X129.077 Y69.167 E7.7483
G1 X129.044 Y70.087 E7.77892
G1 X128.932 Y71 E7.80951
G1 X128.74 Y71.901 E7.84015
G1 X128.398 Y72.983 E7.87789
G1 X128.101 Y73.77 E7.90587
G1 X127.616 Y75.008 E7.9501
G1 X126.759 Y77.392 E8.03436
G1 X125.966 Y79.812 E8.11906
G1 X125.257 Y82.198 E8.20184
G1 X124.673 Y84.447 E8.27913
G1 X124.371 Y85.561 E8.31752
G1 X124.091 Y86.439 E8.34817
G1 X123.737 Y87.289 E8.37879
G1 X123.421 Y87.909 E8.40194
G1 X121.997 Y90.489 E8.49995
G1 X120.838 Y92.746 E8.58434
G1 X119.76 Y94.998 E8.66738
G1 X118.727 Y97.322 E8.75197
G1 X117.729 Y99.752 E8.83934
G1 X117.394 Y100.602 E8.86973
G1 X117.02 Y101.443 E8.90034
G1 X116.574 Y102.248 E8.93095
G1 X116.059 Y103.012 E8.9616
G1 X115.481 Y103.728 E8.9922
G1 X114.842 Y104.391 E9.02283
G1 X113.913 Y105.179 E9.06334
G1 X113.094 Y105.794 E9.09741
G1 X112.062 Y106.544 E9.13984
G1 X111.492 Y106.947 E9.16306
G1 X110.718 Y107.446 E9.19369
G1 X109.904 Y107.875 E9.22429
G1 X109.055 Y108.232 E9.25493
G1 X108.179 Y108.514 E9.28553
G1 X107.281 Y108.719 E9.31617
G1 X106.369 Y108.845 E9.34679
G1 X105.56 Y108.89 E9.37374
G1 X104.465 Y108.908 E9.41017
G1 X103.232 Y108.907 E9.45117
G1 X102.554 Y108.897 E9.47373
G1 X101.635 Y108.843 E9.50435
G1 X100.724 Y108.71 E9.53497
G1 X99.828 Y108.499 E9.56558
G1 X99.232 Y108.311 E9.58637
G1 X98.375 Y107.974 E9.617
G1 X97.551 Y107.565 E9.64759
G1 X96.593 Y106.966 E9.68517
G1 X95.742 Y106.368 E9.71977
G1 X94.68 Y105.593 E9.7635
G1 X94.16 Y105.203 E9.78511
G1 X93.448 Y104.619 E9.81574
G1 X92.79 Y103.976 E9.84634
G1 X92.189 Y103.278 E9.87698
G1 X91.652 Y102.53 E9.9076
G1 X91.182 Y101.739 E9.93821
G1 X90.782 Y100.909 E9.96885
G1 X90.492 Y100.157 E9.99566
G1 X90.174 Y99.226 E10.02838
G1 X89.765 Y97.959 E10.07266
G1 X89.551 Y97.257 E10.09707
G1 X89.321 Y96.365 E10.12771
G1 X89.169 Y95.457 E10.15833
G1 X89.097 Y94.54 E10.18892
G1 X89.104 Y93.619 E10.21956
G1 X89.192 Y92.702 E10.2502
G1 X89.465 Y91.372 E10.29535
G1 X89.714 Y90.464 E10.32667
G1 X89.9 Y89.822 E10.3489
G1 X90.54 Y87.356 E10.43364
G1 X91.103 Y84.9 E10.51744
G1 X91.598 Y82.427 E10.60133
G1 X92.023 Y79.937 E10.68534
G1 X92.38 Y77.419 E10.76993
G1 X92.662 Y74.917 E10.85367
G1 X92.875 Y72.399 E10.93772
G1 X93.017 Y69.852 E11.02257
G1 X93.073 Y68.138 E11.0796
G1 X93.147 Y64.625 E11.19647
G1 F1500 E4.69647
G0 F6000 X93.415 Y69.886
G1 F1500 E11.19647
G1 F1200 X93.475 Y68.048 E11.25764
G1 X93.546 Y64.646 E11.37081
G1 X93.68 Y62.024 E11.45814
G1 X93.755 Y59.288 E11.54917
G1 X93.818 Y58.387 E11.57921
G1 X93.96 Y57.495 E11.60925
G1 X94.181 Y56.619 E11.6393
G1 X94.478 Y55.766 E11.66934
G1 X94.85 Y54.943 E11.69938
G1 X95.292 Y54.156 E11.7294
G1 X95.803 Y53.411 E11.75945
G1 X96.378 Y52.715 E11.78948
G1 X97.012 Y52.071 E11.81953
G1 X97.742 Y51.454 E11.85133
G1 X98.043 Y51.223 E11.86394
G1 X98.783 Y50.706 E11.89397
G1 X99.454 Y50.314 E11.91982
G1 X101.294 Y49.333 E11.98917
G1 X101.99 Y48.996 E12.01489
G1 X103.194 Y48.473 E12.05855
G1 X103.735 Y48.257 E12.07792
G1 X104.296 Y48.052 E12.09779
G1 X105.223 Y47.748 E12.13024
G1 X105.718 Y47.6 E12.14742
G1 X106.295 Y47.446 E12.16728
G1 X107.459 Y47.177 E12.20702
G1 X107.97 Y47.074 E12.22436
G1 X109.124 Y46.909 E12.26313
G1 X110.062 Y46.834 E12.29443
G1 X110.685 Y46.799 E12.31518
G1 X111.588 Y46.788 E12.34522
G1 X112.067 Y46.815 E12.36117
G1 X112.956 Y46.89 E12.39085
G1 X113.651 Y46.966 E12.4141
G1 X114.798 Y47.159 E12.45279
G1 X115.718 Y47.372 E12.4842
G1 X116.326 Y47.529 E12.50508
G1 X116.959 Y47.714 E12.52702
G1 X117.838 Y48.01 E12.55786
G1 X118.42 Y48.224 E12.57849
G1 X118.988 Y48.452 E12.59885
G1 X120.092 Y48.94 E12.63899
G1 X120.847 Y49.305 E12.66688
G1 X121.717 Y49.755 E12.69946
G1 X122.897 Y50.394 E12.74409
G1 X123.671 Y50.858 E12.77411
G1 X124.402 Y51.39 E12.80418
G1 X125.016 Y51.916 E12.83107
G1 X125.666 Y52.543 E12.86111
G1 X126.257 Y53.225 E12.89112
G1 X126.786 Y53.957 E12.92116
G1 X127.249 Y54.733 E12.95122
G1 X127.64 Y55.547 E12.98125
G1 X127.959 Y56.392 E13.01129
G1 X128.201 Y57.262 E13.04133
G1 X128.365 Y58.15 E13.07136
G1 X128.456 Y59.172 E13.10549
G1 X128.484 Y59.964 E13.13185
G1 X128.671 Y68.416 E13.41303
G1 X128.677 Y69.17 E13.43811
G1 X128.644 Y70.072 E13.46813
G1 X128.531 Y70.968 E13.49817
G1 X128.34 Y71.851 E13.52822
G1 X128.024 Y72.842 E13.56281
G1 X127.729 Y73.624 E13.59061
G1 X127.244 Y74.863 E13.63486
G1 X126.379 Y77.27 E13.71993
G1 X125.586 Y79.689 E13.8046
G1 X124.871 Y82.094 E13.88805
G1 X124.287 Y84.343 E13.96534
G1 X123.985 Y85.457 E14.00373
G1 X123.71 Y86.317 E14.03376
G1 X123.36 Y87.15 E14.06381
G1 X123.071 Y87.715 E14.08492
G1 X121.642 Y90.305 E14.1833
G1 X120.486 Y92.555 E14.26744
G1 X119.385 Y94.855 E14.35225
G1 X118.37 Y97.14 E14.43541
G1 X117.358 Y99.602 E14.52394
G1 X117.022 Y100.455 E14.55443
G1 X116.654 Y101.28 E14.58448
G1 X116.214 Y102.069 E14.61453
G1 X115.707 Y102.816 E14.64455
G1 X115.135 Y103.515 E14.67459
G1 X114.504 Y104.16 E14.70461
G1 X113.672 Y104.86 E14.74077
G1 X112.859 Y105.471 E14.7746
G1 X111.831 Y106.218 E14.81686
G1 X111.261 Y106.621 E14.84008
G1 X110.502 Y107.109 E14.87009
G1 X109.702 Y107.528 E14.90013
G1 X108.868 Y107.875 E14.93017
G1 X108.007 Y108.146 E14.96019
G1 X107.125 Y108.34 E14.99023
G1 X106.229 Y108.456 E15.02028
G1 X105.553 Y108.49 E15.04279
G1 X104.465 Y108.508 E15.07898
G1 X103.238 Y108.507 E15.11979
G1 X102.56 Y108.497 E15.14235
G1 X101.658 Y108.444 E15.1724
G1 X100.765 Y108.311 E15.20243
G1 X99.887 Y108.099 E15.23247
G1 X99.362 Y107.933 E15.25078
G1 X98.522 Y107.602 E15.28081
G1 X97.714 Y107.198 E15.31086
G1 X96.822 Y106.639 E15.34587
G1 X95.977 Y106.044 E15.38025
G1 X94.92 Y105.273 E15.42376
G1 X94.4 Y104.883 E15.44538
G1 X93.702 Y104.31 E15.47542
G1 X93.058 Y103.677 E15.50545
G1 X92.472 Y102.99 E15.53548
G1 X91.949 Y102.253 E15.56554
G1 X91.494 Y101.473 E15.59557
G1 X91.109 Y100.656 E15.62561
G1 X90.87 Y100.027 E15.64799
G1 X90.555 Y99.102 E15.68049
G1 X90.147 Y97.842 E15.72454
G1 X89.933 Y97.14 E15.74895
G1 X89.708 Y96.266 E15.77897
G1 X89.562 Y95.374 E15.80903
G1 X89.495 Y94.474 E15.83905
G1 X89.507 Y93.571 E15.86909
G1 X89.6 Y92.673 E15.89911
G1 X89.851 Y91.478 E15.93973
G1 X90.098 Y90.575 E15.97087
G1 X90.285 Y89.929 E15.99323
G1 X90.925 Y87.465 E16.07791
G1 X91.498 Y84.962 E16.16331
G1 X91.989 Y82.507 E16.24658
G1 X92.42 Y79.984 E16.33171
G1 X92.773 Y77.492 E16.41542
G1 X93.059 Y74.959 E16.50021
G1 X93.274 Y72.418 E16.58502
G1 X93.415 Y69.886 E16.66937
G1 F1500 E10.16937
G0 F6000 X103.468 Y93.593
G0 X103.742 Y93.969
G0 X103.675 Y94.175
G1 F1500 E16.66937
G1 F1200 X103.742 Y93.969 E16.67657
G1 X104.19 Y93.61 E16.69567
G1 X104.373 Y94.175 E16.71542
G1 X104.307 Y94.379 E16.72255
G1 X104.13 Y94.508 E16.72984
G1 X103.918 Y94.508 E16.73689
G1 X103.741 Y94.379 E16.74417
G1 X103.675 Y94.175 E16.7513
G0 F6000 X103.253 Y94.175
G1 F1200 X103.4 Y93.724 E16.76708
G1 X103.67 Y93.527 E16.7782
G1 X104.066 Y93.189 E16.79551
G1 X104.362 Y92.846 E16.81058
G1 X104.795 Y94.175 E16.85707
G1 X104.648 Y94.626 E16.87285
G1 X104.26 Y94.908 E16.8888
G1 X103.788 Y94.908 E16.9045
G1 X103.4 Y94.626 E16.92045
G1 X103.253 Y94.175 E16.93623
G0 F6000 X102.833 Y94.175
G1 F1200 X103.06 Y93.476 E16.96067
G1 X103.434 Y93.204 E16.97606
G1 X103.805 Y92.884 E16.99235
G1 X104.119 Y92.509 E17.00862
G1 X104.368 Y92.087 E17.02492
G1 X104.547 Y91.623 E17.04146
G1 X104.564 Y92.006 E17.05421
G1 X104.687 Y92.552 E17.07282
G1 X105.215 Y94.175 E17.12959
G1 X104.988 Y94.873 E17.154
G1 X104.391 Y95.308 E17.17857
G1 X103.657 Y95.308 E17.20298
G1 X103.06 Y94.873 E17.22755
G1 X102.833 Y94.175 E17.25196
G0 F6000 X102.412 Y94.175
G1 F1200 X102.719 Y93.231 E17.28498
G1 X103.199 Y92.881 E17.30474
G1 X103.542 Y92.581 E17.31989
G1 X103.828 Y92.226 E17.33506
G1 X104.047 Y91.827 E17.3502
G1 X104.228 Y91.236 E17.37075
G1 X104.739 Y88.373 E17.46748
G1 X105.676 Y85.882 E17.556
G1 X107.338 Y84.028 E17.63881
G1 X108.129 Y83.078 E17.67993
G1 X108.389 Y82.703 E17.69511
G1 X108.603 Y82.218 E17.71274
G1 X108.966 Y81.102 E17.75177
G1 X109.769 Y80.518 E17.7848
G1 X110.125 Y80.459 E17.7968
G1 X110.567 Y80.346 E17.81197
G1 X110.981 Y80.158 E17.82709
G1 X111.122 Y80.068 E17.83266
G1 X111.861 Y80.068 E17.85724
G1 X112.075 Y80.165 E17.86505
G1 X111.827 Y81.275 E17.90288
G1 X111.568 Y81.501 E17.91431
G1 X111.282 Y81.856 E17.92948
G1 X111.062 Y82.255 E17.94463
G1 X110.956 Y82.542 E17.95481
G1 X110.322 Y83.003 E17.98088
G1 X109.805 Y83.011 E17.99808
G1 X109.352 Y83.058 E18.01322
G1 X108.914 Y83.183 E18.02837
G1 X108.504 Y83.383 E18.04355
G1 X108.136 Y83.651 E18.05869
G1 X107.696 Y84.146 E18.08072
G1 X106.072 Y86.528 E18.1766
G1 X105.798 Y87.047 E18.19612
G1 X105.192 Y88.598 E18.25151
G1 X105.064 Y89.035 E18.26665
G1 X105.016 Y89.452 E18.28061
G1 X104.942 Y91.532 E18.34984
G1 X104.965 Y91.987 E18.36499
G1 X105.068 Y92.428 E18.38005
G1 X105.636 Y94.175 E18.44115
G1 X105.329 Y95.12 E18.4742
G1 X104.521 Y95.708 E18.50744
G1 X103.527 Y95.708 E18.5405
G1 X102.719 Y95.12 E18.57374
G1 X102.412 Y94.175 E18.60678
G0 F6000 X101.992 Y94.175
G1 F1200 X102.38 Y92.982 E18.64851
G1 X102.963 Y92.557 E18.6725
G1 X103.277 Y92.279 E18.68645
G1 X103.532 Y91.947 E18.70038
G1 X103.72 Y91.572 E18.71433
G1 X103.834 Y91.165 E18.72839
G1 X104.35 Y88.27 E18.82619
G1 X105.329 Y85.669 E18.91863
G1 X107.031 Y83.772 E19.00339
G1 X107.822 Y82.822 E19.04451
G1 X108.058 Y82.476 E19.05844
G1 X108.223 Y82.095 E19.07225
G1 X108.626 Y80.855 E19.11562
G1 X109.61 Y80.139 E19.15609
G1 X110.06 Y80.065 E19.17126
G1 X110.465 Y79.958 E19.18519
G1 X111.003 Y79.668 E19.20552
G1 X111.947 Y79.668 E19.23692
G1 X112.536 Y79.936 E19.25844
G1 X112.187 Y81.496 E19.31161
