;FLAVOR:Marlin
;TIME:4556
;Filament used: 2.16125m
;Layer height: 0.2
;MINX:82.889
;MINY:53.407
;MINZ:0.2
;MAXX:126.323
;MAXY:119.458
;MAXZ:44.2
;Generated with Cura_SteamEngine 5.0.0
M140 S60
M105
M190 S60
M104 S200
M105
M109 S200
M82 ;absolute extrusion mode
; Ender 3 Custom Start G-code
G92 E0 ; Reset Extruder
G28 ; Home all axes
G1 Z2.0 F3000 ; Move Z Axis up little to prevent scratching of Heat Bed
G1 X0.1 Y20 Z0.3 F5000.0 ; Move to start position
G1 X0.1 Y200.0 Z0.3 F1500.0 E15 ; Draw the first line
G1 X0.4 Y200.0 Z0.3 F5000.0 ; Move to side a little
G1 X0.4 Y20 Z0.3 F1500.0 E30 ; Draw the second line
G92 E0 ; Reset Extruder
G1 Z2.0 F3000 ; Move Z Axis up little to prevent scratching of Heat Bed
G1 X5 Y20 Z0.3 F5000.0 ; Move over to prevent blob squish
G92 E0
G92 E0
G1 F1500 E-6.5
;LAYER_COUNT:221
;LAYER:0
M107
G0 F6000 X90.479 Y60.252 Z0.2
G0 X88.299 Y66.849
;TYPE:SKIRT
G1 F1500 E0
G1 F1200 X88.402 Y65.913 E0.03132
G1 X88.542 Y65 E0.06204
G1 X88.635 Y64.527 E0.07807
G1 X88.855 Y63.615 E0.10928
G1 X89.152 Y62.725 E0.14048
G1 X89.523 Y61.864 E0.17167
G1 X89.967 Y61.038 E0.20286
G1 X90.479 Y60.252 E0.23406
G1 X91.056 Y59.513 E0.26524
G1 X91.695 Y58.826 E0.29645
G1 X92.389 Y58.196 E0.32762
G1 X93.045 Y57.69 E0.35518
G1 X93.445 Y57.405 E0.37151
G1 X94.231 Y56.894 E0.40269
G1 X95.058 Y56.452 E0.43388
G1 X96.111 Y56.011 E0.47185
G1 X97.545 Y55.497 E0.52252
G1 X99.121 Y54.95 E0.578
G1 X99.755 Y54.716 E0.60048
G1 X100.592 Y54.445 E0.62974
G1 X102.824 Y53.82 E0.70683
G1 X103.737 Y53.606 E0.73802
G1 X104.665 Y53.471 E0.76921
G1 X105.691 Y53.413 E0.80339
G1 X106.357 Y53.407 E0.82555
G1 X107.294 Y53.439 E0.85673
G1 X108.304 Y53.563 E0.89057
G1 X111.754 Y54.151 E1.00698
G1 X112.525 Y54.275 E1.03295
G1 X113.579 Y54.477 E1.06864
G1 X113.93 Y54.554 E1.0806
G1 X114.837 Y54.794 E1.1118
G1 X115.315 Y54.955 E1.12858
G1 X117.322 Y55.681 E1.19956
G1 X118.189 Y56.037 E1.23074
G1 X118.764 Y56.323 E1.2521
G1 X119.084 Y56.494 E1.26416
G1 X119.892 Y56.971 E1.29537
G1 X120.656 Y57.515 E1.32656
G1 X121.371 Y58.122 E1.35776
G1 X122.031 Y58.788 E1.38895
G1 X122.633 Y59.508 E1.42016
G1 X123.171 Y60.276 E1.45135
G1 X123.791 Y61.383 E1.49355
G1 X125.118 Y64.11 E1.59442
G1 X125.492 Y64.97 E1.62561
G1 X125.792 Y65.859 E1.65682
G1 X126.071 Y67.077 E1.69838
G1 X126.119 Y67.359 E1.70789
G1 X126.233 Y68.25 E1.73777
G1 X126.279 Y68.778 E1.75539
G1 X126.321 Y69.688 E1.78569
G1 X126.323 Y70.179 E1.80202
G1 X126.273 Y71.267 E1.83825
G1 X126.102 Y73.04 E1.89749
G1 X125.287 Y80.027 E2.13146
G1 X125.195 Y80.729 E2.15501
G1 X125.033 Y81.653 E2.18621
G1 X124.794 Y82.56 E2.2174
G1 X124.478 Y83.443 E2.2486
G1 X124.096 Y84.28 E2.2792
G1 X123.543 Y85.369 E2.31982
G1 X122.401 Y87.701 E2.40618
G1 X121.351 Y90.009 E2.49052
G1 X120.383 Y92.306 E2.57342
G1 X119.45 Y94.707 E2.6591
G1 X118.937 Y96.118 E2.70903
G1 X118.237 Y98.093 E2.77873
G1 X117.997 Y98.742 E2.80174
G1 X117.635 Y99.607 E2.83293
G1 X117.2 Y100.438 E2.86413
G1 X116.695 Y101.231 E2.8954
G1 X116.214 Y101.919 E2.92332
G1 X114.789 Y104.026 E3.00792
G1 X113.446 Y106.134 E3.09105
G1 X112.135 Y108.332 E3.17617
G1 X111.32 Y109.768 E3.23109
G1 X110.823 Y110.563 E3.26227
G1 X110.26 Y111.313 E3.29347
G1 X109.635 Y112.013 E3.32468
G1 X108.953 Y112.656 E3.35585
G1 X108.363 Y113.133 E3.38109
G1 X107.726 Y113.61 E3.40756
G1 X106.487 Y114.512 E3.45853
G1 X105.929 Y114.906 E3.48125
G1 X105.14 Y115.414 E3.51246
G1 X104.311 Y115.852 E3.54364
G1 X103.448 Y116.219 E3.57483
G1 X102.557 Y116.511 E3.60602
G1 X101.644 Y116.725 E3.63721
G1 X100.716 Y116.862 E3.66841
G1 X99.784 Y116.918 E3.69946
G1 X98.702 Y116.936 E3.73546
G1 X97.428 Y116.935 E3.77783
G1 X96.75 Y116.925 E3.80038
G1 X95.813 Y116.871 E3.8316
G1 X94.885 Y116.738 E3.86278
G1 X93.972 Y116.526 E3.89395
G1 X93.4 Y116.351 E3.91385
G1 X92.524 Y116.016 E3.94504
G1 X91.68 Y115.609 E3.97621
G1 X90.559 Y114.918 E4.02001
G1 X89.714 Y114.323 E4.05438
G1 X88.683 Y113.571 E4.09682
G1 X88.128 Y113.156 E4.11987
G1 X87.401 Y112.562 E4.1511
G1 X86.728 Y111.909 E4.18229
G1 X86.113 Y111.202 E4.21345
G1 X85.56 Y110.444 E4.24466
G1 X85.074 Y109.642 E4.27585
G1 X84.658 Y108.801 E4.30706
G1 X84.314 Y107.926 E4.33833
G1 X83.981 Y106.953 E4.37253
G1 X83.58 Y105.718 E4.41572
G1 X83.373 Y105.05 E4.43898
G1 X83.134 Y104.143 E4.47018
G1 X82.973 Y103.219 E4.50137
G1 X82.891 Y102.285 E4.53256
G1 X82.889 Y101.347 E4.56376
G1 X82.967 Y100.412 E4.59496
G1 X83.124 Y99.488 E4.62614
G1 X83.364 Y98.568 E4.65776
G1 X83.572 Y97.891 E4.68131
G1 X84.292 Y95.413 E4.76714
G1 X84.927 Y92.973 E4.851
G1 X85.493 Y90.517 E4.93483
G1 X85.991 Y88.028 E5.01925
G1 X86.412 Y85.576 E5.102
G1 X86.768 Y83.068 E5.18625
G1 X87.054 Y80.553 E5.27044
G1 X87.266 Y78.064 E5.35353
G1 X87.409 Y75.536 E5.43774
G1 X87.454 Y74.29 E5.47921
G1 X87.513 Y73.48 E5.50622
G1 X87.653 Y72.21 E5.54872
G1 X87.718 Y71.547 E5.57088
G1 X87.878 Y70.135 E5.61814
G1 X87.974 Y69.448 E5.64121
G1 X88.299 Y66.849 E5.72833
G1 F1500 E-0.77167
G0 F6000 X88.211 Y75.512
G1 F1500 E5.72833
G1 F1200 X88.254 Y74.319 E5.76803
G1 X88.308 Y73.568 E5.79308
G1 X88.457 Y72.217 E5.83828
G1 X88.513 Y71.635 E5.85773
G1 X88.671 Y70.245 E5.90426
G1 X88.763 Y69.584 E5.92646
G1 X89.091 Y66.963 E6.01431
G1 X89.197 Y66.001 E6.0465
G1 X89.327 Y65.154 E6.075
G1 X89.42 Y64.681 E6.09104
G1 X89.633 Y63.804 E6.12105
G1 X89.923 Y62.948 E6.15111
G1 X90.288 Y62.122 E6.18115
G1 X90.724 Y61.331 E6.21119
G1 X91.228 Y60.582 E6.24122
G1 X91.797 Y59.881 E6.27124
G1 X92.426 Y59.232 E6.3013
G1 X93.109 Y58.642 E6.33132
G1 X93.509 Y58.342 E6.34795
G1 X93.909 Y58.057 E6.36429
G1 X94.667 Y57.566 E6.39433
G1 X95.466 Y57.144 E6.42438
G1 X96.382 Y56.764 E6.45737
G1 X97.808 Y56.253 E6.50775
G1 X99.38 Y55.707 E6.5631
G1 X100.031 Y55.467 E6.58617
G1 X100.808 Y55.216 E6.61333
G1 X103.04 Y54.591 E6.69042
G1 X103.919 Y54.386 E6.72044
G1 X104.813 Y54.26 E6.75047
G1 X105.698 Y54.213 E6.77995
G1 X106.364 Y54.207 E6.8021
G1 X107.267 Y54.239 E6.83215
G1 X108.17 Y54.352 E6.86242
G1 X111.622 Y54.94 E6.97889
G1 X112.378 Y55.061 E7.00435
G1 X113.408 Y55.259 E7.03924
G1 X113.759 Y55.336 E7.05119
G1 X115.043 Y55.707 E7.09564
G1 X117.05 Y56.433 E7.16663
G1 X117.884 Y56.778 E7.19665
G1 X118.387 Y57.029 E7.21535
G1 X118.707 Y57.2 E7.22741
G1 X119.484 Y57.66 E7.25745
G1 X120.217 Y58.188 E7.28749
G1 X120.901 Y58.778 E7.31754
G1 X121.53 Y59.426 E7.34757
G1 X122.098 Y60.128 E7.37761
G1 X122.603 Y60.877 E7.40765
G1 X123.072 Y61.733 E7.44012
G1 X124.399 Y64.46 E7.54099
G1 X124.758 Y65.289 E7.57103
G1 X125.042 Y66.146 E7.60106
G1 X125.282 Y67.211 E7.63737
G1 X125.33 Y67.493 E7.64689
G1 X125.437 Y68.32 E7.67462
G1 X125.483 Y68.848 E7.69225
G1 X125.521 Y69.691 E7.72032
G1 X125.523 Y70.182 E7.73665
G1 X125.477 Y71.191 E7.77024
G1 X125.307 Y72.948 E7.82895
G1 X124.494 Y79.923 E8.06251
G1 X124.402 Y80.625 E8.08606
G1 X124.245 Y81.515 E8.11612
G1 X124.01 Y82.387 E8.14616
G1 X123.699 Y83.235 E8.1762
G1 X123.383 Y83.917 E8.2012
G1 X122.813 Y85.04 E8.24308
G1 X121.684 Y87.346 E8.32848
G1 X120.621 Y89.681 E8.41381
G1 X119.635 Y92.021 E8.49827
G1 X118.701 Y94.425 E8.58405
G1 X118.215 Y95.761 E8.63133
G1 X117.487 Y97.816 E8.70384
G1 X117.247 Y98.465 E8.72686
G1 X116.896 Y99.297 E8.75689
G1 X116.474 Y100.095 E8.78692
G1 X116.039 Y100.772 E8.81368
G1 X115.571 Y101.441 E8.84084
G1 X114.134 Y103.566 E8.92616
G1 X112.764 Y105.716 E9.01095
G1 X111.426 Y107.959 E9.09782
G1 X110.624 Y109.373 E9.15189
G1 X110.144 Y110.138 E9.18193
G1 X109.599 Y110.858 E9.21196
G1 X108.992 Y111.526 E9.24198
G1 X108.328 Y112.138 E9.27201
G1 X107.882 Y112.493 E9.29097
G1 X107.255 Y112.963 E9.31704
G1 X106.025 Y113.858 E9.36763
G1 X105.467 Y114.252 E9.39035
G1 X104.707 Y114.74 E9.42039
G1 X103.907 Y115.159 E9.45043
G1 X103.073 Y115.505 E9.48046
G1 X102.211 Y115.776 E9.51051
G1 X101.329 Y115.97 E9.54055
G1 X100.434 Y116.085 E9.57056
G1 X99.769 Y116.118 E9.59271
G1 X98.702 Y116.136 E9.6282
G1 X97.44 Y116.135 E9.67017
G1 X96.762 Y116.125 E9.69273
G1 X95.86 Y116.072 E9.72278
G1 X94.967 Y115.939 E9.75281
G1 X93.653 Y115.592 E9.79801
G1 X92.81 Y115.268 E9.82805
G1 X91.999 Y114.872 E9.85807
G1 X91.018 Y114.263 E9.89647
G1 X90.185 Y113.676 E9.93036
G1 X89.162 Y112.93 E9.97247
G1 X88.607 Y112.515 E9.99552
G1 X87.908 Y111.943 E10.02556
G1 X87.263 Y111.311 E10.0556
G1 X86.676 Y110.624 E10.08565
G1 X86.152 Y109.889 E10.11568
G1 X85.696 Y109.109 E10.14573
G1 X85.31 Y108.293 E10.17575
G1 X85.07 Y107.666 E10.19808
G1 X84.742 Y106.706 E10.23182
G1 X84.344 Y105.481 E10.27466
G1 X84.137 Y104.813 E10.29792
G1 X83.908 Y103.94 E10.32794
G1 X83.758 Y103.049 E10.35799
G1 X83.686 Y102.149 E10.38802
G1 X83.695 Y101.246 E10.41806
G1 X83.783 Y100.347 E10.4481
G1 X83.951 Y99.46 E10.47813
G1 X84.129 Y98.803 E10.50077
G1 X84.327 Y98.157 E10.52324
G1 X85.063 Y95.627 E10.61088
G1 X85.711 Y93.135 E10.69652
G1 X86.276 Y90.684 E10.78018
G1 X86.779 Y88.172 E10.86538
G1 X87.205 Y85.687 E10.94924
G1 X87.558 Y83.202 E11.03272
G1 X87.849 Y80.641 E11.11845
G1 X88.062 Y78.139 E11.20197
G1 X88.211 Y75.512 E11.28948
G1 F1500 E4.78948
G0 F6000 X87.448 Y80.634
G1 F1500 E11.28948
G1 F1200 X87.665 Y78.083 E11.37464
G1 X87.81 Y75.521 E11.45998
G1 X87.854 Y74.305 E11.50046
G1 X87.911 Y73.524 E11.5265
G1 X88.099 Y71.754 E11.5857
G1 X88.274 Y70.19 E11.63805
G1 X88.377 Y69.451 E11.66286
G1 X88.69 Y66.945 E11.74686
G1 X88.799 Y65.957 E11.77992
G1 X88.934 Y65.077 E11.80953
G1 X89.027 Y64.604 E11.82557
G1 X89.244 Y63.709 E11.8562
G1 X89.537 Y62.837 E11.88679
G1 X89.905 Y61.993 E11.91742
G1 X90.345 Y61.184 E11.94805
G1 X90.854 Y60.417 E11.97866
G1 X91.427 Y59.696 E12.00929
G1 X92.06 Y59.028 E12.0399
G1 X92.75 Y58.417 E12.07056
G1 X93.277 Y58.016 E12.09258
G1 X93.677 Y57.731 E12.10892
G1 X94.449 Y57.23 E12.13953
G1 X95.262 Y56.798 E12.17015
G1 X96.247 Y56.387 E12.20565
G1 X97.676 Y55.875 E12.25613
G1 X99.279 Y55.318 E12.31258
G1 X99.893 Y55.092 E12.33434
G1 X100.7 Y54.831 E12.36255
G1 X102.932 Y54.206 E12.43964
G1 X103.828 Y53.996 E12.47025
G1 X104.74 Y53.865 E12.50089
G1 X105.695 Y53.813 E12.5327
G1 X106.361 Y53.807 E12.55486
G1 X107.281 Y53.839 E12.58547
G1 X108.237 Y53.958 E12.61752
G1 X111.638 Y54.538 E12.73227
G1 X112.452 Y54.668 E12.75968
G1 X113.493 Y54.868 E12.79494
G1 X113.844 Y54.945 E12.80689
G1 X114.734 Y55.181 E12.83752
G1 X115.179 Y55.331 E12.85314
G1 X117.186 Y56.057 E12.92412
G1 X118.037 Y56.408 E12.95474
G1 X118.576 Y56.676 E12.97476
G1 X118.896 Y56.847 E12.98683
G1 X119.688 Y57.316 E13.01744
G1 X120.437 Y57.852 E13.04808
G1 X121.136 Y58.45 E13.07867
G1 X121.781 Y59.107 E13.10929
G1 X122.366 Y59.818 E13.13992
G1 X122.888 Y60.577 E13.17056
G1 X123.431 Y61.558 E13.20785
G1 X124.758 Y64.285 E13.30872
G1 X125.125 Y65.129 E13.33933
G1 X125.417 Y66.003 E13.36998
G1 X125.677 Y67.144 E13.4089
G1 X125.725 Y67.426 E13.41841
G1 X125.835 Y68.285 E13.44722
G1 X125.881 Y68.813 E13.46485
G1 X125.921 Y69.69 E13.49405
G1 X125.923 Y70.181 E13.51038
G1 X125.875 Y71.229 E13.54527
G1 X125.705 Y72.994 E13.60425
G1 X124.89 Y79.975 E13.83801
G1 X124.798 Y80.677 E13.86156
G1 X124.639 Y81.584 E13.89219
G1 X124.402 Y82.474 E13.92282
G1 X124.088 Y83.339 E13.95343
G1 X123.74 Y84.099 E13.98123
G1 X123.172 Y85.219 E14.023
G1 X122.036 Y87.538 E14.10888
G1 X120.982 Y89.854 E14.19352
G1 X120.012 Y92.155 E14.27657
G1 X119.076 Y94.566 E14.36259
G1 X118.592 Y95.895 E14.40963
G1 X117.862 Y97.955 E14.48232
G1 X117.622 Y98.604 E14.50534
G1 X117.265 Y99.452 E14.53594
G1 X116.837 Y100.267 E14.56656
G1 X116.367 Y101.002 E14.59558
G1 X115.898 Y101.673 E14.6228
G1 X114.453 Y103.808 E14.70855
G1 X113.092 Y105.945 E14.79282
G1 X111.79 Y108.128 E14.87736
G1 X110.972 Y109.57 E14.9325
G1 X110.484 Y110.351 E14.96313
G1 X109.929 Y111.086 E14.99376
G1 X109.313 Y111.77 E15.02438
G1 X108.64 Y112.398 E15.05499
G1 X108.123 Y112.813 E15.07704
G1 X107.491 Y113.287 E15.10332
G1 X106.256 Y114.185 E15.15411
G1 X105.698 Y114.579 E15.17683
G1 X104.924 Y115.077 E15.20744
G1 X104.109 Y115.506 E15.23807
G1 X103.26 Y115.862 E15.26869
G1 X102.384 Y116.144 E15.2993
G1 X101.486 Y116.348 E15.32993
G1 X100.574 Y116.474 E15.36055
G1 X99.776 Y116.518 E15.38713
G1 X98.702 Y116.536 E15.42286
G1 X97.434 Y116.535 E15.46503
G1 X96.756 Y116.525 E15.48758
G1 X95.837 Y116.471 E15.5182
G1 X94.926 Y116.338 E15.54882
G1 X94.03 Y116.127 E15.57944
G1 X93.527 Y115.971 E15.59696
G1 X92.667 Y115.642 E15.62758
G1 X91.839 Y115.24 E15.65819
G1 X90.788 Y114.591 E15.69928
G1 X89.949 Y113.999 E15.73343
G1 X88.922 Y113.25 E15.77571
G1 X88.367 Y112.835 E15.79876
G1 X87.655 Y112.252 E15.82936
G1 X86.995 Y111.61 E15.85999
G1 X86.394 Y110.913 E15.8906
G1 X85.856 Y110.166 E15.92122
G1 X85.384 Y109.375 E15.95185
G1 X84.983 Y108.546 E15.98248
G1 X84.692 Y107.796 E16.00924
G1 X84.361 Y106.83 E16.0432
G1 X83.962 Y105.6 E16.08621
G1 X83.755 Y104.932 E16.10947
G1 X83.521 Y104.041 E16.14011
G1 X83.365 Y103.134 E16.17072
G1 X83.288 Y102.216 E16.20136
G1 X83.292 Y101.296 E16.23196
G1 X83.375 Y100.379 E16.26259
G1 X83.537 Y99.473 E16.2932
G1 X83.746 Y98.685 E16.32031
G1 X83.961 Y97.985 E16.34467
G1 X84.678 Y95.52 E16.43005
G1 X85.32 Y93.049 E16.51497
G1 X85.88 Y90.62 E16.59787
G1 X86.385 Y88.097 E16.68345
G1 X86.808 Y85.634 E16.76657
G1 X87.168 Y83.098 E16.85177
G1 X87.448 Y80.634 E16.93425
G1 F1500 E10.43425
G0 F6000 X97.658 Y101.198
G0 X97.933 Y101.573
G0 X97.863 Y101.786
G1 F1500 E16.93425
G1 F1200 X97.933 Y101.573 E16.9417
G1 X98.181 Y101.392 E16.95192
G1 X98.28 Y101.384 E16.95522
G1 X98.844 Y101.251 E16.97449
G1 X98.587 Y101.958 E16.99951
G1 X98.342 Y102.136 E17.00958
G1 X98.12 Y102.136 E17.01697
G1 X97.933 Y101.999 E17.02468
G1 X97.863 Y101.786 E17.03214
G0 F6000 X97.443 Y101.786
G1 F1200 X97.593 Y101.325 E17.04826
G1 X98.036 Y101.002 E17.06649
G1 X98.246 Y100.984 E17.07351
G1 X98.753 Y100.861 E17.09086
G1 X99.234 Y100.662 E17.10817
G1 X99.559 Y100.465 E17.12081
G1 X98.921 Y102.209 E17.18258
G1 X98.472 Y102.536 E17.20105
G1 X97.99 Y102.536 E17.21708
G1 X97.593 Y102.247 E17.23341
G1 X97.443 Y101.786 E17.24954
G0 F6000 X97.023 Y101.786
G1 F1200 X97.253 Y101.077 E17.27433
G1 X97.89 Y100.614 E17.30052
G1 X98.211 Y100.585 E17.31124
G1 X98.685 Y100.462 E17.32753
G1 X99.133 Y100.264 E17.34382
G1 X99.542 Y99.995 E17.3601
G1 X99.902 Y99.664 E17.37637
G1 X100.302 Y99.119 E17.39885
G1 X102.058 Y96.049 E17.51648
G1 X103.059 Y94.591 E17.57531
G1 X103.302 Y94.166 E17.59159
G1 X103.495 Y93.625 E17.61069
G1 X103.935 Y91.876 E17.67068
G1 X104.755 Y91.138 E17.70737
G1 X105.09 Y90.782 E17.72363
G1 X105.364 Y90.376 E17.73992
G1 X105.6 Y89.838 E17.75946
G1 X105.83 Y89.132 E17.78416
G1 X106.235 Y88.694 E17.804
G1 X106.452 Y89.361 E17.82733
G1 X105.845 Y91.15 E17.89016
G1 X105.117 Y93.205 E17.96267
G1 X104.029 Y94.18 E18.01126
G1 X103.693 Y94.536 E18.02755
G1 X103.397 Y94.98 E18.04529
G1 X101.957 Y97.623 E18.1454
G1 X100.293 Y99.935 E18.24015
G1 X100.041 Y100.355 E18.25644
G1 X99.909 Y100.663 E18.26758
G1 X99.255 Y102.461 E18.33122
G1 X98.603 Y102.936 E18.35805
G1 X97.859 Y102.936 E18.38279
G1 X97.253 Y102.495 E18.40772
G1 X97.023 Y101.786 E18.43251
G0 F6000 X96.601 Y101.786
G1 F1200 X96.912 Y100.832 E18.46588
G1 X97.743 Y100.227 E18.50007
G1 X98.174 Y100.185 E18.51448
G1 X98.613 Y100.063 E18.52963
G1 X99.024 Y99.866 E18.54479
G1 X99.394 Y99.6 E18.55995
G1 X99.712 Y99.274 E18.57509
G1 X99.955 Y98.92 E18.58937
G1 X101.714 Y95.845 E18.7072
G1 X102.73 Y94.365 E18.76691
G1 X102.953 Y93.968 E18.78205
G1 X103.107 Y93.527 E18.79759
G1 X103.577 Y91.661 E18.86159
G1 X104.487 Y90.841 E18.90233
G1 X104.797 Y90.508 E18.91746
G1 X105.045 Y90.125 E18.93264
G1 X105.219 Y89.714 E18.94749
G1 X105.483 Y88.905 E18.97579
G1 X105.705 Y88.71 E18.98562
G1 X105.991 Y88.355 E19.00078
G1 X106.21 Y87.956 E19.01592
G1 X106.357 Y87.524 E19.03109
G1 X106.426 Y87.074 E19.04624
G1 X106.389 Y86.445 E19.06719
G1 X106.29 Y85.898 E19.08568
G1 X106.34 Y85.744 E19.09107
G1 X106.457 Y86.103 E19.10363
G1 X106.427 Y87.525 E19.15093
G1 X106.457 Y87.979 E19.16607
G1 X106.554 Y88.384 E19.17992
G1 X106.873 Y89.364 E19.2142
G1 X106.222 Y91.283 E19.28159
G1 X105.46 Y93.436 E19.35756
G1 X104.296 Y94.478 E19.40952
G1 X103.985 Y94.811 E19.42467
G1 X103.748 Y95.171 E19.43901
G1 X102.293 Y97.842 E19.54017
G1 X100.618 Y100.169 E19.63553
