;FLAVOR:Marlin
;TIME:1908
;Filament used: 1.0876m
;Layer height: 0.2
;MINX:86.5
;MINY:89.412
;MINZ:0.2
;MAXX:133.5
;MAXY:125.439
;MAXZ:21
;Generated with Cura_SteamEngine 5.0.0
M140 S60
M105
M190 S60
M104 S200
M105
M109 S200
M82 ;absolute extrusion mode
; Ender 3 Custom Start G-code
G92 E0 ; Reset Extruder
G28 ; Home all axes
G1 Z2.0 F3000 ; Move Z Axis up little to prevent scratching of Heat Bed
G1 X0.1 Y20 Z0.3 F5000.0 ; Move to start position
G1 X0.1 Y200.0 Z0.3 F1500.0 E15 ; Draw the first line
G1 X0.4 Y200.0 Z0.3 F5000.0 ; Move to side a little
G1 X0.4 Y20 Z0.3 F1500.0 E30 ; Draw the second line
G92 E0 ; Reset Extruder
G1 Z2.0 F3000 ; Move Z Axis up little to prevent scratching of Heat Bed
G1 X5 Y20 Z0.3 F5000.0 ; Move over to prevent blob squish
G92 E0
G92 E0
G1 F1500 E-6.5
;LAYER_COUNT:106
;LAYER:0
M107
G0 F6000 X89.698 Y92.676 Z0.2
G0 X86.501 Y100.937
;TYPE:SKIRT
G1 F1500 E0
G1 F1200 X86.51 Y100.272 E0.02212
G1 X86.563 Y99.336 E0.0533
G1 X86.695 Y98.407 E0.08451
G1 X86.906 Y97.493 E0.11571
G1 X87.194 Y96.601 E0.14689
G1 X87.557 Y95.736 E0.17809
G1 X87.992 Y94.905 E0.20928
G1 X88.496 Y94.115 E0.24045
G1 X89.066 Y93.37 E0.27165
G1 X89.698 Y92.676 E0.30287
G1 X90.386 Y92.039 E0.33405
G1 X91.126 Y91.463 E0.36524
G1 X91.912 Y90.951 E0.39644
G1 X92.739 Y90.509 E0.42763
G1 X93.601 Y90.139 E0.45883
G1 X94.491 Y89.843 E0.49003
G1 X95.403 Y89.625 E0.52122
G1 X96.33 Y89.484 E0.5524
G1 X97.201 Y89.425 E0.58144
G1 X97.83 Y89.412 E0.60236
G1 X121.793 Y89.412 E1.39938
G1 X122.649 Y89.423 E1.42785
G1 X123.585 Y89.477 E1.45903
G1 X124.513 Y89.609 E1.49021
G1 X125.427 Y89.821 E1.52142
G1 X126.319 Y90.11 E1.5526
G1 X127.184 Y90.473 E1.5838
G1 X128.014 Y90.909 E1.61499
G1 X128.805 Y91.414 E1.6462
G1 X129.549 Y91.985 E1.67739
G1 X130.242 Y92.617 E1.70859
G1 X130.879 Y93.305 E1.73977
G1 X131.454 Y94.046 E1.77097
G1 X131.965 Y94.832 E1.80215
G1 X132.407 Y95.66 E1.83337
G1 X132.776 Y96.522 E1.86455
G1 X133.071 Y97.412 E1.89574
G1 X133.289 Y98.324 E1.92693
G1 X133.429 Y99.252 E1.95814
G1 X133.487 Y100.113 E1.98684
G1 X133.5 Y100.742 E2.00777
G1 X133.499 Y113.839 E2.44338
G1 X133.49 Y114.566 E2.46756
G1 X133.439 Y115.503 E2.49877
G1 X133.307 Y116.431 E2.52994
G1 X133.098 Y117.345 E2.56113
G1 X132.811 Y118.238 E2.59233
G1 X132.449 Y119.104 E2.62355
G1 X132.015 Y119.935 E2.65473
G1 X131.511 Y120.726 E2.68592
G1 X130.942 Y121.471 E2.7171
G1 X130.311 Y122.166 E2.74832
G1 X129.624 Y122.804 E2.77951
G1 X128.885 Y123.381 E2.81069
G1 X128.099 Y123.893 E2.84189
G1 X127.273 Y124.336 E2.87306
G1 X126.411 Y124.708 E2.90429
G1 X125.522 Y125.004 E2.93546
G1 X124.61 Y125.224 E2.96666
G1 X123.683 Y125.365 E2.99785
G1 X122.799 Y125.426 E3.02732
G1 X122.17 Y125.439 E3.04824
G1 X98.065 Y125.438 E3.84998
G1 X97.367 Y125.429 E3.8732
G1 X96.431 Y125.377 E3.90437
G1 X95.502 Y125.245 E3.93558
G1 X94.588 Y125.035 E3.96678
G1 X93.695 Y124.748 E3.99797
G1 X92.83 Y124.385 E4.02917
G1 X91.999 Y123.951 E4.06036
G1 X91.208 Y123.447 E4.09155
G1 X90.463 Y122.877 E4.12275
G1 X89.769 Y122.246 E4.15395
G1 X89.132 Y121.559 E4.18511
G1 X88.555 Y120.819 E4.21632
G1 X88.043 Y120.033 E4.24752
G1 X87.6 Y119.206 E4.27872
G1 X87.229 Y118.345 E4.3099
G1 X86.933 Y117.455 E4.3411
G1 X86.714 Y116.543 E4.3723
G1 X86.573 Y115.616 E4.40348
G1 X86.513 Y114.727 E4.43312
G1 X86.5 Y114.097 E4.45408
G1 X86.501 Y100.937 E4.89178
G0 F6000 X86.901 Y100.943
G1 F1200 X86.91 Y100.278 E4.9139
G1 X86.962 Y99.358 E4.94455
G1 X87.094 Y98.447 E4.97516
G1 X87.305 Y97.551 E5.00578
G1 X87.592 Y96.676 E5.03641
G1 X87.955 Y95.83 E5.06703
G1 X88.389 Y95.018 E5.09765
G1 X88.892 Y94.247 E5.12827
G1 X89.461 Y93.523 E5.1589
G1 X90.089 Y92.851 E5.18949
G1 X90.774 Y92.235 E5.22013
G1 X91.51 Y91.682 E5.25075
G1 X92.291 Y91.194 E5.28138
G1 X93.111 Y90.776 E5.31199
G1 X93.965 Y90.431 E5.34262
G1 X94.845 Y90.161 E5.37324
G1 X95.745 Y89.969 E5.40385
G1 X96.659 Y89.855 E5.43448
G1 X97.212 Y89.825 E5.4529
G1 X97.83 Y89.812 E5.47346
G1 X121.793 Y89.812 E6.27047
G1 X122.643 Y89.823 E6.29875
G1 X123.562 Y89.876 E6.32936
G1 X124.473 Y90.009 E6.35999
G1 X125.369 Y90.22 E6.3906
G1 X126.243 Y90.508 E6.42121
G1 X127.09 Y90.871 E6.45186
G1 X127.901 Y91.306 E6.48247
G1 X128.671 Y91.81 E6.51308
G1 X129.395 Y92.379 E6.5437
G1 X130.067 Y93.009 E6.57434
G1 X130.682 Y93.694 E6.60496
G1 X131.235 Y94.43 E6.63558
G1 X131.722 Y95.211 E6.66619
G1 X132.139 Y96.032 E6.69682
G1 X132.484 Y96.886 E6.72745
G1 X132.753 Y97.766 E6.75806
G1 X132.945 Y98.667 E6.7887
G1 X133.058 Y99.58 E6.8193
G1 X133.096 Y100.444 E6.84806
G1 X133.099 Y113.834 E7.29341
G1 X133.09 Y114.561 E7.3176
G1 X133.039 Y115.48 E7.34821
G1 X132.908 Y116.392 E7.37885
G1 X132.698 Y117.288 E7.40946
G1 X132.412 Y118.163 E7.44008
G1 X132.051 Y119.01 E7.4707
G1 X131.617 Y119.822 E7.50133
G1 X131.115 Y120.594 E7.53195
G1 X130.547 Y121.319 E7.56259
G1 X129.919 Y121.992 E7.5932
G1 X129.235 Y122.608 E7.62382
G1 X128.5 Y123.162 E7.65443
G1 X127.72 Y123.651 E7.68505
G1 X126.9 Y124.07 E7.71568
G1 X126.047 Y124.416 E7.74629
G1 X125.167 Y124.687 E7.77692
G1 X124.267 Y124.88 E7.80753
G1 X123.353 Y124.995 E7.83817
G1 X122.788 Y125.026 E7.85699
G1 X122.17 Y125.039 E7.87755
G1 X98.07 Y125.038 E8.67912
G1 X97.372 Y125.029 E8.70234
G1 X96.453 Y124.977 E8.73296
G1 X95.542 Y124.846 E8.76357
G1 X94.646 Y124.636 E8.79418
G1 X93.771 Y124.349 E8.8248
G1 X92.924 Y123.987 E8.85544
G1 X92.112 Y123.553 E8.88606
G1 X91.341 Y123.051 E8.91666
G1 X90.616 Y122.483 E8.9473
G1 X89.943 Y121.854 E8.97793
G1 X89.328 Y121.17 E9.00853
G1 X88.774 Y120.435 E9.03914
G1 X88.286 Y119.654 E9.06977
G1 X87.867 Y118.834 E9.1004
G1 X87.521 Y117.981 E9.13101
G1 X87.251 Y117.101 E9.16163
G1 X87.058 Y116.2 E9.19228
G1 X86.944 Y115.287 E9.22288
G1 X86.913 Y114.716 E9.2419
G1 X86.9 Y114.097 E9.26249
G1 X86.901 Y100.943 E9.7
G0 F6000 X87.301 Y100.948
G1 F1200 X87.31 Y100.283 E9.72212
G1 X87.362 Y99.381 E9.75217
G1 X87.494 Y98.488 E9.78219
G1 X87.704 Y97.61 E9.81222
G1 X87.991 Y96.753 E9.84228
G1 X88.353 Y95.926 E9.8723
G1 X88.786 Y95.134 E9.90232
G1 X89.288 Y94.383 E9.93237
G1 X89.855 Y93.679 E9.96243
G1 X90.481 Y93.029 E9.99245
G1 X91.162 Y92.436 E10.02248
G1 X91.894 Y91.906 E10.05254
G1 X92.669 Y91.443 E10.08257
G1 X93.482 Y91.05 E10.1126
G1 X94.327 Y90.73 E10.14265
G1 X95.196 Y90.487 E10.17266
G1 X96.084 Y90.321 E10.20271
G1 X97.223 Y90.225 E10.24073
G1 X97.83 Y90.212 E10.26092
G1 X121.793 Y90.212 E11.05794
G1 X122.637 Y90.223 E11.08601
G1 X123.539 Y90.276 E11.11606
G1 X124.432 Y90.408 E11.14609
G1 X125.31 Y90.619 E11.17612
G1 X126.166 Y90.907 E11.20616
G1 X126.993 Y91.269 E11.23618
G1 X127.785 Y91.704 E11.26624
G1 X128.536 Y92.206 E11.29628
G1 X129.239 Y92.773 E11.32632
G1 X129.889 Y93.4 E11.35636
G1 X130.481 Y94.082 E11.3864
G1 X131.011 Y94.813 E11.41643
G1 X131.473 Y95.589 E11.44647
G1 X131.866 Y96.402 E11.4765
G1 X132.184 Y97.247 E11.50653
G1 X132.427 Y98.117 E11.53657
G1 X132.592 Y99.005 E11.56661
G1 X132.687 Y100.135 E11.60433
G1 X132.7 Y100.742 E11.62452
G1 X132.699 Y113.829 E12.0598
G1 X132.69 Y114.556 E12.08398
G1 X132.639 Y115.458 E12.11403
G1 X132.508 Y116.352 E12.14408
G1 X132.299 Y117.23 E12.1741
G1 X132.013 Y118.087 E12.20415
G1 X131.652 Y118.915 E12.23419
G1 X131.22 Y119.707 E12.2642
G1 X130.719 Y120.459 E12.29425
G1 X130.153 Y121.163 E12.3243
G1 X129.528 Y121.814 E12.35431
G1 X128.847 Y122.408 E12.38437
G1 X128.116 Y122.939 E12.41442
G1 X127.342 Y123.403 E12.44443
G1 X126.529 Y123.797 E12.47448
G1 X125.685 Y124.117 E12.5045
G1 X124.815 Y124.362 E12.53457
G1 X123.928 Y124.528 E12.56458
G1 X122.777 Y124.626 E12.603
G1 X122.17 Y124.639 E12.62319
G1 X98.075 Y124.638 E13.4246
G1 X97.377 Y124.629 E13.44781
G1 X96.476 Y124.578 E13.47783
G1 X95.582 Y124.446 E13.50789
G1 X94.704 Y124.237 E13.53791
G1 X93.847 Y123.95 E13.56796
G1 X93.02 Y123.589 E13.59798
G1 X92.227 Y123.156 E13.62803
G1 X91.476 Y122.655 E13.65805
G1 X90.772 Y122.089 E13.6881
G1 X90.121 Y121.463 E13.71814
G1 X89.528 Y120.782 E13.74817
G1 X88.998 Y120.051 E13.7782
G1 X88.534 Y119.276 E13.80825
G1 X88.14 Y118.463 E13.8383
G1 X87.82 Y117.619 E13.86832
G1 X87.576 Y116.749 E13.89837
G1 X87.41 Y115.861 E13.92842
G1 X87.313 Y114.706 E13.96697
G1 X87.3 Y114.097 E13.98723
G1 X87.301 Y100.948 E14.42456
G1 F1500 E7.92456
;MESH:bathroom-hinge.stl
G0 F6000 X101.85 Y105.587
G0 X102.293 Y106.019
G0 X103.242 Y106.687
G1 F1500 E14.42456
G0 F6000 X103.289 Y106.281
;TYPE:WALL-OUTER
G1 F1200 X103.199 Y106.248 E14.42775
G1 X102.706 Y105.912 E14.4476
G1 X102.642 Y105.84 E14.4508
G1 X102.362 Y105.313 E14.47065
G1 X102.339 Y105.221 E14.4738
G1 X102.336 Y104.619 E14.49383
G1 X102.473 Y104.303 E14.50528
G1 X102.632 Y103.997 E14.51675
G1 X102.695 Y103.926 E14.51991
G1 X103.187 Y103.582 E14.53987
G1 X103.277 Y103.547 E14.54309
G1 X103.869 Y103.474 E14.56293
G1 X103.965 Y103.485 E14.56614
G1 X104.525 Y103.695 E14.58603
G1 X104.603 Y103.749 E14.58919
G1 X105.003 Y104.193 E14.60906
G1 X105.049 Y104.278 E14.61228
G1 X105.195 Y104.863 E14.63233
G1 X105.195 Y104.96 E14.63556
G1 X105.048 Y105.552 E14.65585
G1 X105.01 Y105.617 E14.65835
G1 X104.613 Y106.068 E14.67833
G1 X104.535 Y106.122 E14.68149
G1 X103.979 Y106.337 E14.70132
G1 X103.883 Y106.349 E14.70453
G1 X103.289 Y106.281 E14.72442
G0 F6000 X103.243 Y106.679
;TYPE:WALL-INNER
G1 F1200 X102.973 Y106.578 E14.73401
G1 X102.481 Y106.242 E14.75382
G1 X102.289 Y106.028 E14.76339
G1 X102.009 Y105.501 E14.78324
G1 X101.939 Y105.223 E14.79277
G1 X101.936 Y104.619 E14.81286
G1 X102.003 Y104.342 E14.82234
G1 X102.277 Y103.813 E14.84215
G1 X102.466 Y103.598 E14.85167
G1 X102.958 Y103.254 E14.87164
G1 X103.198 Y103.154 E14.88029
G1 X103.82 Y103.077 E14.90113
G1 X104.105 Y103.111 E14.91068
G1 X104.665 Y103.321 E14.93057
G1 X104.9 Y103.481 E14.94003
G1 X105.3 Y103.925 E14.95991
G1 X105.437 Y104.181 E14.96956
G1 X105.583 Y104.766 E14.98962
G1 X105.592 Y105.017 E14.99797
G1 X105.442 Y105.628 E15.0189
G1 X105.31 Y105.881 E15.02839
G1 X104.913 Y106.332 E15.04837
G1 X104.679 Y106.495 E15.05786
G1 X104.123 Y106.71 E15.07768
G1 X103.837 Y106.747 E15.08727
G1 X103.243 Y106.679 E15.10716
G1 F1500 E8.60716
G0 F6000 X103.242 Y106.687
G0 X102.871 Y106.727
G0 X98.301 Y108.558
G0 X98.08 Y113.859
G1 F1500 E15.10716
G0 F6000 X97.701 Y114.238
;TYPE:WALL-OUTER
G1 F1200 X122.3 Y114.239 E15.92533
G1 X122.3 Y100.612 E16.37856
G1 X97.701 Y100.613 E17.19673
G1 X97.701 Y114.238 E17.6499
G0 F6000 X98.101 Y113.838
;TYPE:WALL-INNER
G1 F1200 X121.9 Y113.839 E18.44146
G1 X121.9 Y101.012 E18.86808
G1 X98.101 Y101.013 E19.65964
G1 X98.101 Y113.838 E20.0862
G1 F1500 E13.5862
G0 F6000 X98.11 Y113.838
G0 X115.742 Y114.009
G0 X116.315 Y106.926
G0 X115.742 Y106.687
G1 F1500 E20.0862
G0 F6000 X115.789 Y106.281
;TYPE:WALL-OUTER
G1 F1200 X115.699 Y106.248 E20.08939
G1 X115.206 Y105.912 E20.10923
G1 X115.107 Y105.773 E20.11491
G1 X114.854 Y105.296 E20.13287
G1 X114.839 Y105.22 E20.13545
G1 X114.836 Y104.62 E20.1554
G1 X114.858 Y104.527 E20.15858
G1 X115.132 Y103.997 E20.17842
G1 X115.195 Y103.926 E20.18158
G1 X115.687 Y103.582 E20.20155
G1 X115.777 Y103.547 E20.20476
G1 X116.369 Y103.474 E20.2246
G1 X116.465 Y103.485 E20.22781
G1 X117.025 Y103.695 E20.24771
G1 X117.103 Y103.749 E20.25086
G1 X117.503 Y104.193 E20.27074
G1 X117.549 Y104.278 E20.27395
G1 X117.698 Y104.877 E20.29448
G1 X117.695 Y104.96 E20.29724
G1 X117.554 Y105.532 E20.31684
G1 X117.51 Y105.617 E20.32002
G1 X117.113 Y106.068 E20.34001
G1 X116.683 Y106.258 E20.35564
G1 X116.448 Y106.346 E20.36399
G1 X116.383 Y106.349 E20.36615
G1 X115.789 Y106.281 E20.38604
G0 F6000 X115.743 Y106.679
;TYPE:WALL-INNER
G1 F1200 X115.474 Y106.578 E20.39559
G1 X114.98 Y106.242 E20.41547
G1 X114.789 Y106.028 E20.42501
G1 X114.509 Y105.501 E20.44485
G1 X114.439 Y105.253 E20.45343
G1 X114.436 Y104.622 E20.47441
G1 X114.503 Y104.343 E20.48396
G1 X114.777 Y103.813 E20.5038
G1 X114.966 Y103.598 E20.51332
G1 X115.458 Y103.254 E20.53329
G1 X115.698 Y103.154 E20.54194
G1 X116.32 Y103.077 E20.56278
G1 X116.605 Y103.111 E20.57233
G1 X117.165 Y103.321 E20.59222
G1 X117.4 Y103.481 E20.60168
G1 X117.8 Y103.925 E20.62155
G1 X117.937 Y104.181 E20.63121
G1 X118.092 Y104.808 E20.65269
G1 X118.083 Y105.056 E20.66095
G1 X117.942 Y105.628 E20.68054
G1 X117.81 Y105.881 E20.69003
G1 X117.413 Y106.332 E20.71002
G1 X117.179 Y106.495 E20.7195
G1 X116.623 Y106.71 E20.73933
G1 X116.337 Y106.747 E20.74892
G1 X115.743 Y106.679 E20.7688
G0 F6000 X115.688 Y107.034
;TYPE:SKIN
G1 F1200 X115.514 Y106.995 E20.77474
G1 X115.267 Y106.874 E20.78388
G1 X114.764 Y106.531 E20.80413
G1 X114.488 Y106.225 E20.81784
G1 X114.19 Y105.671 E20.83876
G1 X114.092 Y105.366 E20.84942
G1 X114.084 Y105.31 E20.8513
G1 X114.076 Y104.632 E20.87385
G1 X114.168 Y104.22 E20.88789
G1 X114.185 Y104.174 E20.88952
G1 X114.458 Y103.648 E20.90923
G1 X114.725 Y103.334 E20.92294
G1 X114.761 Y103.302 E20.92454
G1 X115.252 Y102.959 E20.94446
G1 X115.593 Y102.812 E20.95682
G1 X115.645 Y102.798 E20.95861
G1 X116.291 Y102.718 E20.98026
G1 X116.699 Y102.763 E20.99391
G1 X116.735 Y102.773 E20.99515
G1 X117.287 Y102.98 E21.01476
G1 X117.634 Y103.21 E21.02861
G1 X117.669 Y103.241 E21.03016
G1 X118.07 Y103.684 E21.05004
G1 X118.22 Y103.957 E21.0604
G1 X118.284 Y104.088 E21.06524
G1 X118.444 Y104.725 E21.08709
G1 X118.45 Y105.046 E21.09777
G1 X118.444 Y105.095 E21.09941
G1 X118.289 Y105.721 E21.12086
G1 X118.106 Y106.082 E21.13432
G1 X118.079 Y106.121 E21.1359
G1 X117.689 Y106.565 E21.15555
G1 X117.352 Y106.81 E21.16941
G1 X116.956 Y106.97 E21.18362
G1 X116.72 Y107.057 E21.19198
G1 X116.442 Y107.108 E21.20138
G1 X116.385 Y107.109 E21.20328
G1 X115.688 Y107.034 E21.2266
G1 F1500 E14.7266
G0 F6000 X115.738 Y106.779
G0 X114.774 Y106.306
G0 X105.445 Y106.001
G0 X104.787 Y106.399
G0 X104.132 Y106.651
G0 X103.237 Y106.779
G1 F1500 E21.2266
G0 F6000 X103.201 Y107.036
G1 F1200 X102.808 Y106.895 E21.24048
G1 X102.766 Y106.873 E21.24206
G1 X102.278 Y106.542 E21.26167
G1 X101.995 Y106.231 E21.27566
G1 X101.968 Y106.192 E21.27724
G1 X101.685 Y105.656 E21.2974
G1 X101.584 Y105.272 E21.3106
G1 X101.579 Y105.226 E21.31214
G1 X101.576 Y104.627 E21.33206
G1 X101.667 Y104.218 E21.346
G1 X101.797 Y103.954 E21.35579
G1 X101.954 Y103.651 E21.36714
G1 X102.224 Y103.335 E21.38096
G1 X102.26 Y103.303 E21.38256
G1 X102.752 Y102.959 E21.40253
G1 X103.093 Y102.812 E21.41488
G1 X103.145 Y102.798 E21.41667
G1 X103.791 Y102.718 E21.43832
G1 X104.199 Y102.763 E21.45198
G1 X104.235 Y102.773 E21.45322
G1 X104.787 Y102.98 E21.47283
G1 X105.134 Y103.21 E21.48667
G1 X105.169 Y103.241 E21.48823
G1 X105.57 Y103.684 E21.5081
G1 X105.766 Y104.043 E21.52171
G1 X105.783 Y104.088 E21.52331
G1 X105.931 Y104.674 E21.54341
G1 X105.954 Y105.018 E21.55487
G1 X105.948 Y105.08 E21.55695
G1 X105.763 Y105.809 E21.58196
G1 X105.602 Y106.088 E21.59268
G1 X105.58 Y106.119 E21.59394
G1 X105.18 Y106.572 E21.61404
G1 X104.835 Y106.818 E21.62813
G1 X104.807 Y106.832 E21.62917
G1 X104.264 Y107.046 E21.64859
G1 X103.943 Y107.107 E21.65945
G1 X103.885 Y107.109 E21.66138
G1 X103.201 Y107.036 E21.68426
G1 F1500 E15.18426
G0 F6000 X103.237 Y106.779
G0 X102.825 Y106.696
G0 X98.301 Y108.558
G0 X98.201 Y113.478
G1 F1500 E21.68426
G0 F6000 X98.461 Y113.478
G1 F1200 X121.54 Y113.478 E22.45187
G1 X121.54 Y101.372 E22.85452
G1 X98.462 Y101.374 E23.6221
G1 X98.461 Y113.478 E24.02468
G0 F6000 X99.134 Y113.277
G1 F1200 X98.661 Y112.803 E24.04695
G0 F6000 X98.661 Y112.237
G1 F1200 X99.7 Y113.277 E24.09585
G0 F6000 X100.266 Y113.277
G1 F1200 X98.661 Y111.671 E24.17136
G0 F6000 X98.661 Y111.106
G1 F1200 X100.832 Y113.277 E24.27348
G0 F6000 X101.397 Y113.277
G1 F1200 X98.661 Y110.54 E24.4022
G0 F6000 X98.661 Y109.974
G1 F1200 X101.963 Y113.277 E24.55754
G0 F6000 X102.529 Y113.277
G1 F1200 X98.661 Y109.409 E24.73948
G0 F6000 X98.661 Y108.843
G1 F1200 X103.094 Y113.277 E24.94801
G0 F6000 X103.66 Y113.277
G1 F1200 X98.661 Y108.277 E25.18318
G0 F6000 X98.661 Y107.712
G1 F1200 X104.226 Y113.277 E25.44494
G0 F6000 X104.791 Y113.277
G1 F1200 X98.661 Y107.146 E25.7333
G0 F6000 X98.661 Y106.58
G1 F1200 X105.357 Y113.277 E26.04828
G0 F6000 X105.923 Y113.277
G1 F1200 X98.661 Y106.015 E26.38986
G0 F6000 X98.661 Y105.449
G1 F1200 X106.488 Y113.277 E26.75804
G0 F6000 X107.054 Y113.277
