;FLAVOR:Marlin
;TIME:58731
;Filament used: 54.39m
;Layer height: 0.2
;MINX:24
;MINY:9
;MINZ:0.2
;MAXX:196
;MAXY:211
;MAXZ:35
;Generated with Cura_SteamEngine 5.0.0
M140 S60
M105
M190 S60
M104 S200
M105
M109 S200
M82 ;absolute extrusion mode
; Ender 3 Custom Start G-code
G92 E0 ; Reset Extruder
G28 ; Home all axes
G1 Z2.0 F3000 ; Move Z Axis up little to prevent scratching of Heat Bed
G1 X0.1 Y20 Z0.3 F5000.0 ; Move to start position
G1 X0.1 Y200.0 Z0.3 F1500.0 E15 ; Draw the first line
G1 X0.4 Y200.0 Z0.3 F5000.0 ; Move to side a little
G1 X0.4 Y20 Z0.3 F1500.0 E30 ; Draw the second line
G92 E0 ; Reset Extruder
G1 Z2.0 F3000 ; Move Z Axis up little to prevent scratching of Heat Bed
G1 X5 Y20 Z0.3 F5000.0 ; Move over to prevent blob squish
G92 E0
G92 E0
G1 F1500 E-6.5
;LAYER_COUNT:175
;LAYER:0
M107
G0 F6000 X25.492 Y14.493 Z0.2
G0 X24.001 Y20.525
;TYPE:SKIRT
G1 F1500 E0
G1 F1200 X24.01 Y19.86 E0.02212
G1 X24.063 Y18.924 E0.0533
G1 X24.195 Y17.995 E0.08451
G1 X24.406 Y17.081 E0.11571
G1 X24.694 Y16.189 E0.14689
G1 X25.057 Y15.324 E0.17809
G1 X25.492 Y14.493 E0.20928
G1 X25.996 Y13.703 E0.24045
G1 X26.566 Y12.958 E0.27165
G1 X27.198 Y12.264 E0.30287
G1 X27.886 Y11.627 E0.33405
G1 X28.626 Y11.051 E0.36524
G1 X29.412 Y10.539 E0.39644
G1 X30.239 Y10.097 E0.42763
G1 X31.101 Y9.727 E0.45883
G1 X31.991 Y9.431 E0.49003
G1 X32.903 Y9.213 E0.52122
G1 X33.83 Y9.072 E0.5524
G1 X34.701 Y9.013 E0.58144
G1 X35.33 Y9 E0.60236
G1 X184.293 Y9 E5.55689
G1 X185.149 Y9.011 E5.58537
G1 X186.085 Y9.065 E5.61655
G1 X187.013 Y9.197 E5.64773
G1 X187.927 Y9.409 E5.67893
G1 X188.819 Y9.698 E5.71012
G1 X189.684 Y10.061 E5.74132
G1 X190.514 Y10.497 E5.7725
G1 X191.305 Y11.002 E5.80372
G1 X192.049 Y11.573 E5.83491
G1 X192.742 Y12.205 E5.8661
G1 X193.379 Y12.893 E5.89729
G1 X193.954 Y13.634 E5.92848
G1 X194.465 Y14.42 E5.95967
G1 X194.907 Y15.248 E5.99088
G1 X195.276 Y16.11 E6.02207
G1 X195.571 Y17 E6.05326
G1 X195.789 Y17.912 E6.08444
G1 X195.929 Y18.84 E6.11566
G1 X195.987 Y19.701 E6.14436
G1 X196 Y20.33 E6.16528
G1 X195.999 Y199.4 E12.12118
G1 X195.99 Y200.127 E12.14536
G1 X195.939 Y201.064 E12.17657
G1 X195.807 Y201.992 E12.20775
G1 X195.598 Y202.906 E12.23893
G1 X195.311 Y203.799 E12.27013
G1 X194.949 Y204.665 E12.30135
G1 X194.515 Y205.496 E12.33253
G1 X194.011 Y206.287 E12.36372
G1 X193.442 Y207.032 E12.3949
G1 X192.811 Y207.727 E12.42612
G1 X192.124 Y208.365 E12.45731
G1 X191.385 Y208.942 E12.48849
G1 X190.599 Y209.454 E12.51969
G1 X189.773 Y209.897 E12.55087
G1 X188.911 Y210.269 E12.58209
G1 X188.022 Y210.565 E12.61326
G1 X187.11 Y210.785 E12.64446
G1 X186.183 Y210.926 E12.67565
G1 X185.299 Y210.987 E12.70512
G1 X184.67 Y211 E12.72604
G1 X35.565 Y210.999 E17.6853
G1 X34.867 Y210.99 E17.70851
G1 X33.931 Y210.938 E17.73969
G1 X33.002 Y210.806 E17.7709
G1 X32.088 Y210.596 E17.80209
G1 X31.195 Y210.309 E17.83329
G1 X30.33 Y209.946 E17.86449
G1 X29.499 Y209.512 E17.89567
G1 X28.708 Y209.008 E17.92687
G1 X27.963 Y208.438 E17.95807
G1 X27.269 Y207.807 E17.98927
G1 X26.632 Y207.12 E18.02043
G1 X26.055 Y206.38 E18.05164
G1 X25.543 Y205.594 E18.08284
G1 X25.1 Y204.767 E18.11404
G1 X24.729 Y203.906 E18.14522
G1 X24.433 Y203.016 E18.17642
G1 X24.214 Y202.104 E18.20761
G1 X24.073 Y201.177 E18.2388
G1 X24.013 Y200.288 E18.26844
G1 X24 Y199.658 E18.28939
G1 X24.001 Y20.525 E24.24738
G0 F6000 X24.401 Y20.531
G1 F1200 X24.41 Y19.866 E24.2695
G1 X24.462 Y18.946 E24.30015
G1 X24.594 Y18.035 E24.33077
G1 X24.805 Y17.139 E24.36138
G1 X25.092 Y16.264 E24.39201
G1 X25.455 Y15.418 E24.42263
G1 X25.889 Y14.606 E24.45325
G1 X26.392 Y13.835 E24.48387
G1 X26.961 Y13.111 E24.5145
G1 X27.589 Y12.439 E24.54509
G1 X28.274 Y11.823 E24.57573
G1 X29.01 Y11.27 E24.60635
G1 X29.791 Y10.782 E24.63698
G1 X30.611 Y10.364 E24.66759
G1 X31.465 Y10.019 E24.69823
G1 X32.345 Y9.749 E24.72884
G1 X33.245 Y9.557 E24.75945
G1 X34.159 Y9.443 E24.79008
G1 X34.712 Y9.413 E24.8085
G1 X35.33 Y9.4 E24.82906
G1 X184.293 Y9.4 E29.78359
G1 X185.143 Y9.411 E29.81187
G1 X186.062 Y9.464 E29.84248
G1 X186.973 Y9.597 E29.87311
G1 X187.869 Y9.808 E29.90372
G1 X188.743 Y10.096 E29.93433
G1 X189.59 Y10.459 E29.96498
G1 X190.401 Y10.894 E29.99559
G1 X191.171 Y11.398 E30.0262
G1 X191.895 Y11.967 E30.05682
G1 X192.567 Y12.597 E30.08746
G1 X193.182 Y13.282 E30.11808
G1 X193.735 Y14.018 E30.1487
G1 X194.222 Y14.799 E30.17931
G1 X194.639 Y15.62 E30.20994
G1 X194.984 Y16.474 E30.24057
G1 X195.253 Y17.354 E30.27118
G1 X195.445 Y18.255 E30.30182
G1 X195.558 Y19.168 E30.33242
G1 X195.596 Y20.032 E30.36118
G1 X195.599 Y199.395 E36.32682
G1 X195.59 Y200.122 E36.351
G1 X195.539 Y201.041 E36.38161
G1 X195.408 Y201.953 E36.41226
G1 X195.198 Y202.849 E36.44287
G1 X194.912 Y203.724 E36.47348
G1 X194.551 Y204.571 E36.50411
G1 X194.117 Y205.383 E36.53473
G1 X193.615 Y206.155 E36.56536
G1 X193.047 Y206.88 E36.59599
G1 X192.419 Y207.553 E36.62661
G1 X191.735 Y208.169 E36.65722
G1 X191 Y208.723 E36.68784
G1 X190.22 Y209.212 E36.71845
G1 X189.4 Y209.631 E36.74908
G1 X188.547 Y209.977 E36.7797
G1 X187.667 Y210.248 E36.81032
G1 X186.767 Y210.441 E36.84094
G1 X185.853 Y210.556 E36.87158
G1 X185.288 Y210.587 E36.8904
G1 X184.67 Y210.6 E36.91096
G1 X35.57 Y210.599 E41.87004
G1 X34.872 Y210.59 E41.89326
G1 X33.953 Y210.538 E41.92388
G1 X33.042 Y210.407 E41.95449
G1 X32.146 Y210.197 E41.9851
G1 X31.271 Y209.91 E42.01572
G1 X30.424 Y209.548 E42.04636
G1 X29.612 Y209.114 E42.07698
G1 X28.841 Y208.612 E42.10758
G1 X28.116 Y208.044 E42.13822
G1 X27.443 Y207.415 E42.16885
G1 X26.828 Y206.731 E42.19945
G1 X26.274 Y205.996 E42.23006
G1 X25.786 Y205.215 E42.26069
G1 X25.367 Y204.395 E42.29132
G1 X25.021 Y203.542 E42.32193
G1 X24.751 Y202.662 E42.35255
G1 X24.558 Y201.761 E42.3832
G1 X24.444 Y200.848 E42.4138
G1 X24.413 Y200.277 E42.43282
G1 X24.4 Y199.658 E42.45341
G1 X24.401 Y20.531 E48.4112
G0 F6000 X24.801 Y20.536
G1 F1200 X24.81 Y19.871 E48.43332
G1 X24.862 Y18.969 E48.46337
G1 X24.994 Y18.076 E48.49339
G1 X25.204 Y17.198 E48.52342
G1 X25.491 Y16.341 E48.55348
G1 X25.853 Y15.514 E48.58351
G1 X26.286 Y14.722 E48.61353
G1 X26.788 Y13.971 E48.64357
G1 X27.355 Y13.267 E48.67364
G1 X27.981 Y12.617 E48.70365
G1 X28.662 Y12.024 E48.73369
G1 X29.394 Y11.494 E48.76375
G1 X30.169 Y11.031 E48.79377
G1 X30.982 Y10.638 E48.82381
G1 X31.827 Y10.318 E48.85386
G1 X32.696 Y10.075 E48.88387
G1 X33.584 Y9.909 E48.91392
G1 X34.723 Y9.813 E48.95193
G1 X35.33 Y9.8 E48.97213
G1 X184.293 Y9.8 E53.92666
G1 X185.137 Y9.811 E53.95473
G1 X186.039 Y9.864 E53.98478
G1 X186.932 Y9.996 E54.01481
G1 X187.81 Y10.207 E54.04484
G1 X188.666 Y10.495 E54.07488
G1 X189.493 Y10.857 E54.10491
G1 X190.285 Y11.292 E54.13496
G1 X191.036 Y11.794 E54.165
G1 X191.739 Y12.361 E54.19504
G1 X192.389 Y12.988 E54.22508
G1 X192.981 Y13.67 E54.25512
G1 X193.511 Y14.401 E54.28515
G1 X193.973 Y15.177 E54.31519
G1 X194.366 Y15.99 E54.34522
G1 X194.684 Y16.835 E54.37525
G1 X194.927 Y17.705 E54.4053
G1 X195.092 Y18.593 E54.43534
G1 X195.187 Y19.723 E54.47305
G1 X195.2 Y20.33 E54.49325
G1 X195.199 Y199.39 E60.44881
G1 X195.19 Y200.117 E60.47299
G1 X195.139 Y201.019 E60.50304
G1 X195.008 Y201.913 E60.53309
G1 X194.799 Y202.791 E60.56311
G1 X194.513 Y203.648 E60.59316
G1 X194.152 Y204.476 E60.6232
G1 X193.72 Y205.268 E60.6532
G1 X193.219 Y206.02 E60.68326
G1 X192.653 Y206.724 E60.7133
G1 X192.028 Y207.375 E60.74332
G1 X191.347 Y207.969 E60.77337
G1 X190.616 Y208.5 E60.80343
G1 X189.842 Y208.964 E60.83344
G1 X189.029 Y209.358 E60.86349
G1 X188.185 Y209.678 E60.89351
G1 X187.315 Y209.923 E60.92357
G1 X186.428 Y210.089 E60.95359
G1 X185.277 Y210.187 E60.99201
G1 X184.67 Y210.2 E61.0122
G1 X35.575 Y210.199 E65.97112
G1 X34.877 Y210.19 E65.99434
G1 X33.976 Y210.139 E66.02435
G1 X33.082 Y210.007 E66.05441
G1 X32.204 Y209.798 E66.08443
G1 X31.347 Y209.511 E66.11449
G1 X30.52 Y209.15 E66.1445
G1 X29.727 Y208.717 E66.17455
G1 X28.976 Y208.216 E66.20458
G1 X28.272 Y207.65 E66.23462
G1 X27.621 Y207.024 E66.26466
G1 X27.028 Y206.343 E66.2947
G1 X26.498 Y205.612 E66.32473
G1 X26.034 Y204.837 E66.35477
G1 X25.64 Y204.024 E66.38482
G1 X25.32 Y203.18 E66.41484
G1 X25.076 Y202.31 E66.44489
G1 X24.91 Y201.422 E66.47494
G1 X24.813 Y200.267 E66.51349
G1 X24.8 Y199.658 E66.53375
G1 X24.801 Y20.536 E72.49137
G1 F1500 E65.99137
;MESH:coinholder.stl
G0 F6000 X34.335 Y20.8
G0 X35.8 Y20.8
G0 X35.58 Y199.42
G1 F1500 E72.49137
G0 F6000 X35.2 Y199.8
;TYPE:WALL-OUTER
G1 F1200 X184.8 Y199.8 E77.46709
G1 X184.8 Y20.2 E83.44061
G1 X35.2 Y20.2 E88.41632
G1 X35.2 Y199.8 E94.38984
G0 F6000 X35.6 Y199.4
;TYPE:WALL-INNER
G1 F1200 X184.4 Y199.4 E99.33895
G1 X184.4 Y20.6 E105.28586
G1 X35.6 Y20.6 E110.23497
G1 X35.6 Y199.4 E116.18189
G0 F6000 X35.96 Y199.04
;TYPE:SKIN
G1 F1200 X184.04 Y199.04 E121.10705
G1 X184.04 Y20.96 E127.03001
G1 X35.96 Y20.96 E131.95517
G1 X35.96 Y199.04 E137.87814
G0 F6000 X36.487 Y198.839
G1 F1200 X36.159 Y198.511 E137.89356
G0 F6000 X36.159 Y197.945
G1 F1200 X37.053 Y198.839 E137.93562
G0 F6000 X37.618 Y198.839
G1 F1200 X36.159 Y197.379 E138.00427
G0 F6000 X36.159 Y196.813
G1 F1200 X38.184 Y198.839 E138.09954
G0 F6000 X38.75 Y198.839
G1 F1200 X36.159 Y196.248 E138.22141
G0 F6000 X36.159 Y195.682
G1 F1200 X39.315 Y198.839 E138.36988
G0 F6000 X39.881 Y198.839
G1 F1200 X36.159 Y195.116 E138.54498
G0 F6000 X36.159 Y194.551
G1 F1200 X40.447 Y198.839 E138.74667
G0 F6000 X41.012 Y198.839
G1 F1200 X36.159 Y193.985 E138.97497
G0 F6000 X36.159 Y193.419
G1 F1200 X41.578 Y198.839 E139.22988
G0 F6000 X42.144 Y198.839
G1 F1200 X36.159 Y192.854 E139.5114
G0 F6000 X36.159 Y192.288
G1 F1200 X42.709 Y198.839 E139.81952
G0 F6000 X43.275 Y198.839
G1 F1200 X36.159 Y191.722 E140.15425
G0 F6000 X36.159 Y191.157
G1 F1200 X43.841 Y198.839 E140.51559
G0 F6000 X44.407 Y198.839
G1 F1200 X36.159 Y190.591 E140.90355
G0 F6000 X36.159 Y190.025
G1 F1200 X44.972 Y198.839 E141.31811
G0 F6000 X45.538 Y198.839
G1 F1200 X36.159 Y189.46 E141.75927
G0 F6000 X36.159 Y188.894
G1 F1200 X46.104 Y198.839 E142.22705
G0 F6000 X46.669 Y198.839
G1 F1200 X36.159 Y188.328 E142.72144
G0 F6000 X36.159 Y187.763
G1 F1200 X47.235 Y198.839 E143.24242
G0 F6000 X47.801 Y198.839
G1 F1200 X36.159 Y187.197 E143.79002
G0 F6000 X36.159 Y186.631
G1 F1200 X48.366 Y198.839 E144.36422
G0 F6000 X48.932 Y198.839
G1 F1200 X36.159 Y186.065 E144.96505
G0 F6000 X36.159 Y185.5
G1 F1200 X49.498 Y198.839 E145.59248
G0 F6000 X50.063 Y198.839
G1 F1200 X36.159 Y184.934 E146.2465
G0 F6000 X36.159 Y184.368
G1 F1200 X50.629 Y198.839 E146.92715
G0 F6000 X51.195 Y198.839
G1 F1200 X36.159 Y183.803 E147.6344
G0 F6000 X36.159 Y183.237
G1 F1200 X51.76 Y198.839 E148.36824
G0 F6000 X52.326 Y198.839
G1 F1200 X36.159 Y182.671 E149.12871
G0 F6000 X36.159 Y182.106
G1 F1200 X52.892 Y198.839 E149.91578
G0 F6000 X53.457 Y198.839
G1 F1200 X36.159 Y181.54 E150.72945
G0 F6000 X36.159 Y180.974
G1 F1200 X54.023 Y198.839 E151.56974
G0 F6000 X54.589 Y198.839
G1 F1200 X36.159 Y180.409 E152.43663
G0 F6000 X36.159 Y179.843
G1 F1200 X55.155 Y198.839 E153.33015
G0 F6000 X55.72 Y198.839
G1 F1200 X36.159 Y179.277 E154.25026
G0 F6000 X36.159 Y178.712
G1 F1200 X56.286 Y198.839 E155.19697
G0 F6000 X56.852 Y198.839
G1 F1200 X36.159 Y178.146 E156.17031
G0 F6000 X36.159 Y177.58
G1 F1200 X57.417 Y198.839 E157.17024
G0 F6000 X57.983 Y198.839
G1 F1200 X36.159 Y177.014 E158.1968
G0 F6000 X36.159 Y176.449
G1 F1200 X58.549 Y198.839 E159.24996
G0 F6000 X59.114 Y198.839
G1 F1200 X36.159 Y175.883 E160.32971
G0 F6000 X36.159 Y175.317
G1 F1200 X59.68 Y198.839 E161.43609
G0 F6000 X60.246 Y198.839
G1 F1200 X36.159 Y174.752 E162.56907
G0 F6000 X36.159 Y174.186
G1 F1200 X60.811 Y198.839 E163.72865
G0 F6000 X61.377 Y198.839
G1 F1200 X36.159 Y173.62 E164.91485
G0 F6000 X36.159 Y173.055
G1 F1200 X61.943 Y198.839 E166.12765
G0 F6000 X62.508 Y198.839
G1 F1200 X36.159 Y172.489 E167.36705
G0 F6000 X36.159 Y171.923
G1 F1200 X63.074 Y198.839 E168.63307
G0 F6000 X63.64 Y198.839
G1 F1200 X36.159 Y171.358 E169.92569
G0 F6000 X36.159 Y170.792
G1 F1200 X64.206 Y198.839 E171.24494
G0 F6000 X64.771 Y198.839
G1 F1200 X36.159 Y170.226 E172.59078
G0 F6000 X36.159 Y169.661
G1 F1200 X65.337 Y198.839 E173.96323
G0 F6000 X65.903 Y198.839
G1 F1200 X36.159 Y169.095 E175.36229
G0 F6000 X36.159 Y168.529
G1 F1200 X66.468 Y198.839 E176.78796
G0 F6000 X67.034 Y198.839
G1 F1200 X36.159 Y167.964 E178.24022
G0 F6000 X36.159 Y167.398
G1 F1200 X67.6 Y198.839 E179.71911
G0 F6000 X68.165 Y198.839
G1 F1200 X36.159 Y166.832 E181.2246
G0 F6000 X36.159 Y166.266
G1 F1200 X68.731 Y198.839 E182.75671
G0 F6000 X69.297 Y198.839
G1 F1200 X36.159 Y165.701 E184.31542
G0 F6000 X36.159 Y165.135
G1 F1200 X69.862 Y198.839 E185.90073
G0 F6000 X70.428 Y198.839
G1 F1200 X36.159 Y164.569 E187.51266
G0 F6000 X36.159 Y164.004
G1 F1200 X70.994 Y198.839 E189.15119
G0 F6000 X71.559 Y198.839
G1 F1200 X36.159 Y163.438 E190.81632
G0 F6000 X36.159 Y162.872
G1 F1200 X72.125 Y198.839 E192.50808
G0 F6000 X72.691 Y198.839
G1 F1200 X36.159 Y162.307 E194.22643
G0 F6000 X36.159 Y161.741
G1 F1200 X73.256 Y198.839 E195.97138
G0 F6000 X73.822 Y198.839
G1 F1200 X36.159 Y161.175 E197.74296
G0 F6000 X36.159 Y160.61
G1 F1200 X74.388 Y198.839 E199.54113
G0 F6000 X74.954 Y198.839
G1 F1200 X36.159 Y160.044 E201.36593
G0 F6000 X36.159 Y159.478
G1 F1200 X75.519 Y198.839 E203.21733
G0 F6000 X76.085 Y198.839
G1 F1200 X36.159 Y158.913 E205.09533
G0 F6000 X36.159 Y158.347
G1 F1200 X76.651 Y198.839 E206.99995
G0 F6000 X77.216 Y198.839
G1 F1200 X36.159 Y157.781 E208.93116
G0 F6000 X36.159 Y157.216
G1 F1200 X77.782 Y198.839 E210.88898
G0 F6000 X78.348 Y198.839
G1 F1200 X36.159 Y156.65 E212.87342
G0 F6000 X36.159 Y156.084
G1 F1200 X78.913 Y198.839 E214.88447
G0 F6000 X79.479 Y198.839
G1 F1200 X36.159 Y155.518 E216.92213
G0 F6000 X36.159 Y154.953
G1 F1200 X80.045 Y198.839 E218.98639
G0 F6000 X80.61 Y198.839
G1 F1200 X36.159 Y154.387 E221.07725
G0 F6000 X36.159 Y153.821
G1 F1200 X81.176 Y198.839 E223.19474
G0 F6000 X81.742 Y198.839
G1 F1200 X36.159 Y153.256 E225.33882
G0 F6000 X36.159 Y152.69
G1 F1200 X82.307 Y198.839 E227.50951
G0 F6000 X82.873 Y198.839
G1 F1200 X36.159 Y152.124 E229.70681
G0 F6000 X36.159 Y151.559
G1 F1200 X83.439 Y198.839 E231.93072
G0 F6000 X84.004 Y198.839
G1 F1200 X36.159 Y150.993 E234.18123
G0 F6000 X36.159 Y150.427
G1 F1200 X84.57 Y198.839 E236.45835
G0 F6000 X85.136 Y198.839
G1 F1200 X36.159 Y149.862 E238.76208
G0 F6000 X36.159 Y149.296
G1 F1200 X85.702 Y198.839 E241.09243
G0 F6000 X86.267 Y198.839
G1 F1200 X36.159 Y148.73 E243.44938
G0 F6000 X36.159 Y148.165
G1 F1200 X86.833 Y198.839 E245.83293
G0 F6000 X87.399 Y198.839
G1 F1200 X36.159 Y147.599 E248.24311
G0 F6000 X36.159 Y147.033
G1 F1200 X87.964 Y198.839 E250.67988
G0 F6000 X88.53 Y198.839
G1 F1200 X36.159 Y146.467 E253.14327
G0 F6000 X36.159 Y145.902
G1 F1200 X89.096 Y198.839 E255.63327
G0 F6000 X89.661 Y198.839
G1 F1200 X36.159 Y145.336 E258.14986
G0 F6000 X36.159 Y144.77
G1 F1200 X90.227 Y198.839 E260.69308
G0 F6000 X90.793 Y198.839
G1 F1200 X36.159 Y144.205 E263.26289
G0 F6000 X36.159 Y143.639
G1 F1200 X91.358 Y198.839 E265.85931
G0 F6000 X91.924 Y198.839
G1 F1200 X36.159 Y143.073 E268.48235
G0 F6000 X36.159 Y142.508
G1 F1200 X92.49 Y198.839 E271.13198
G0 F6000 X93.055 Y198.839
G1 F1200 X36.159 Y141.942 E273.80822
G0 F6000 X36.159 Y141.376
G1 F1200 X93.621 Y198.839 E276.51108
G0 F6000 X94.187 Y198.839
G1 F1200 X36.159 Y140.811 E279.24054
G0 F6000 X36.159 Y140.245
G1 F1200 X94.753 Y198.839 E281.99662
G0 F6000 X95.318 Y198.839
G1 F1200 X36.159 Y139.679 E284.7793
G0 F6000 X36.159 Y139.114
G1 F1200 X95.884 Y198.839 E287.58858
G0 F6000 X96.45 Y198.839
G1 F1200 X36.159 Y138.548 E290.42449
G0 F6000 X36.159 Y137.982
G1 F1200 X97.015 Y198.839 E293.28699
G0 F6000 X97.581 Y198.839
G1 F1200 X36.159 Y137.417 E296.17609
G0 F6000 X36.159 Y136.851
G1 F1200 X98.147 Y198.839 E299.09182
G0 F6000 X98.712 Y198.839
G1 F1200 X36.159 Y136.285 E302.03414
G0 F6000 X36.159 Y135.719
G1 F1200 X99.278 Y198.839 E305.00309
G0 F6000 X99.844 Y198.839
G1 F1200 X36.159 Y135.154 E307.99864
G0 F6000 X36.159 Y134.588
G1 F1200 X100.409 Y198.839 E311.02079
G0 F6000 X100.975 Y198.839
G1 F1200 X36.159 Y134.022 E314.06955
G0 F6000 X36.159 Y133.457
