;FLAVOR:Marlin
;TIME:4171
;Filament used: 1.98843m
;Layer height: 0.2
;MINX:68.804
;MINY:66.804
;MINZ:0.2
;MAXX:151.196
;MAXY:153.196
;MAXZ:4.2
;Generated with Cura_SteamEngine 5.0.0
M140 S60
M105
M190 S60
M104 S200
M105
M109 S200
M82 ;absolute extrusion mode
; Ender 3 Custom Start G-code
G92 E0 ; Reset Extruder
G28 ; Home all axes
G1 Z2.0 F3000 ; Move Z Axis up little to prevent scratching of Heat Bed
G1 X0.1 Y20 Z0.3 F5000.0 ; Move to start position
G1 X0.1 Y200.0 Z0.3 F1500.0 E15 ; Draw the first line
G1 X0.4 Y200.0 Z0.3 F5000.0 ; Move to side a little
G1 X0.4 Y20 Z0.3 F1500.0 E30 ; Draw the second line
G92 E0 ; Reset Extruder
G1 Z2.0 F3000 ; Move Z Axis up little to prevent scratching of Heat Bed
G1 X5 Y20 Z0.3 F5000.0 ; Move over to prevent blob squish
G92 E0
G92 E0
G1 F1500 E-6.5
;LAYER_COUNT:21
;LAYER:0
M107
G0 F6000 X82.169 Y78.612 Z0.2
G0 X79.41 Y83.116
;TYPE:SKIRT
G1 F1500 E0
G1 F1200 X80.562 Y80.913 E0.08269
G1 X81.032 Y80.101 E0.11389
G1 X81.569 Y79.333 E0.14506
G1 X82.169 Y78.612 E0.17626
G1 X82.829 Y77.945 E0.20747
G1 X83.543 Y77.337 E0.23866
G1 X84.66 Y76.572 E0.28369
G1 X85.491 Y76.075 E0.31589
G1 X86.343 Y75.583 E0.34862
G1 X88.455 Y74.282 E0.43112
G1 X90.604 Y72.874 E0.51657
G1 X92.624 Y71.467 E0.59845
G1 X94.783 Y69.868 E0.68781
G1 X95.864 Y69.048 E0.73293
G1 X96.635 Y68.514 E0.76413
G1 X97.448 Y68.047 E0.79531
G1 X98.299 Y67.652 E0.82652
G1 X99.18 Y67.33 E0.85771
G1 X100.085 Y67.084 E0.88891
G1 X101.007 Y66.916 E0.92008
G1 X102.2 Y66.817 E0.95989
G1 X102.83 Y66.804 E0.98085
G1 X116.985 Y66.807 E1.45165
G1 X117.687 Y66.819 E1.475
G1 X118.623 Y66.875 E1.50619
G1 X119.551 Y67.01 E1.53738
G1 X120.464 Y67.224 E1.56857
G1 X121.356 Y67.515 E1.59977
G1 X122.219 Y67.881 E1.63095
G1 X123.049 Y68.32 E1.66218
G1 X124.161 Y69.063 E1.70666
G1 X126.356 Y70.733 E1.7984
G1 X128.36 Y72.17 E1.88042
G1 X130.473 Y73.597 E1.96522
G1 X132.574 Y74.93 E2.04798
G1 X135.182 Y76.478 E2.14885
G1 X135.974 Y76.98 E2.18004
G1 X136.72 Y77.548 E2.21122
G1 X137.415 Y78.178 E2.24242
G1 X138.054 Y78.865 E2.27363
G1 X138.632 Y79.604 E2.30483
G1 X139.145 Y80.389 E2.33602
G1 X139.434 Y80.907 E2.35575
G1 X139.994 Y81.978 E2.39595
G1 X141.237 Y84.275 E2.48282
G1 X142.503 Y86.462 E2.56686
G1 X143.828 Y88.611 E2.65083
G1 X145.21 Y90.718 E2.73464
G1 X146.623 Y92.743 E2.81677
G1 X148.205 Y94.879 E2.90518
G1 X148.947 Y95.856 E2.94598
G1 X149.482 Y96.626 E2.97717
G1 X149.949 Y97.44 E3.00838
G1 X150.346 Y98.29 E3.03958
G1 X150.668 Y99.17 E3.07075
G1 X150.914 Y100.075 E3.10194
G1 X151.083 Y100.998 E3.13315
G1 X151.183 Y102.2 E3.17327
G1 X151.196 Y102.83 E3.19423
G1 X151.194 Y116.922 E3.66293
G1 X151.184 Y117.648 E3.68708
G1 X151.131 Y118.584 E3.71826
G1 X150.999 Y119.512 E3.74943
G1 X150.788 Y120.426 E3.78063
G1 X150.499 Y121.319 E3.81185
G1 X150.136 Y122.183 E3.84302
G1 X149.701 Y123.014 E3.87422
G1 X148.937 Y124.159 E3.92
G1 X147.335 Y126.264 E4.00798
G1 X145.865 Y128.311 E4.0918
G1 X144.459 Y130.394 E4.17539
G1 X143.111 Y132.514 E4.25895
G1 X141.816 Y134.689 E4.34314
G1 X140.574 Y136.911 E4.42781
G1 X139.43 Y139.097 E4.50987
G1 X138.96 Y139.908 E4.54104
G1 X138.423 Y140.677 E4.57224
G1 X137.822 Y141.397 E4.60343
G1 X137.162 Y142.063 E4.63462
G1 X136.447 Y142.671 E4.66584
G1 X135.322 Y143.441 E4.71118
G1 X134.516 Y143.921 E4.74238
G1 X133.657 Y144.417 E4.77537
G1 X131.545 Y145.718 E4.85787
G1 X129.396 Y147.126 E4.94333
G1 X127.376 Y148.533 E5.0252
G1 X125.217 Y150.132 E5.11456
G1 X124.136 Y150.952 E5.15969
G1 X123.365 Y151.486 E5.19088
G1 X122.552 Y151.953 E5.22207
G1 X121.701 Y152.348 E5.25327
G1 X120.82 Y152.67 E5.28447
G1 X119.915 Y152.916 E5.31566
G1 X118.993 Y153.084 E5.34683
G1 X117.8 Y153.183 E5.38665
G1 X117.17 Y153.196 E5.40761
G1 X103.031 Y153.194 E5.87787
G1 X102.329 Y153.183 E5.90122
G1 X101.392 Y153.128 E5.93244
G1 X100.464 Y152.994 E5.96363
G1 X99.551 Y152.781 E5.99481
G1 X98.659 Y152.491 E6.02601
G1 X97.795 Y152.126 E6.0572
G1 X96.965 Y151.689 E6.0884
G1 X95.837 Y150.936 E6.13351
G1 X93.67 Y149.286 E6.2241
G1 X91.622 Y147.817 E6.30793
G1 X89.528 Y146.403 E6.39197
G1 X87.426 Y145.07 E6.47475
G1 X85.197 Y143.741 E6.56107
G1 X84.81 Y143.518 E6.57592
G1 X84.018 Y143.014 E6.60714
G1 X83.273 Y142.445 E6.63832
G1 X82.578 Y141.815 E6.66952
G1 X81.94 Y141.128 E6.70071
G1 X81.362 Y140.389 E6.73191
G1 X80.85 Y139.604 E6.76308
G1 X80.563 Y139.089 E6.78269
G1 X79.991 Y137.995 E6.82375
G1 X78.754 Y135.71 E6.91017
G1 X77.5 Y133.541 E6.9935
G1 X76.174 Y131.391 E7.07752
G1 X74.789 Y129.281 E7.16147
G1 X73.377 Y127.257 E7.24355
G1 X71.814 Y125.146 E7.33091
G1 X71.062 Y124.159 E7.37218
G1 X70.526 Y123.389 E7.40338
G1 X70.058 Y122.576 E7.43459
G1 X69.661 Y121.727 E7.46576
G1 X69.337 Y120.847 E7.49695
G1 X69.09 Y119.942 E7.52815
G1 X68.92 Y119.02 E7.55933
G1 X68.819 Y117.835 E7.59889
G1 X68.804 Y117.171 E7.62098
G1 X68.806 Y103.045 E8.09081
G1 X68.816 Y102.347 E8.11403
G1 X68.87 Y101.411 E8.14521
G1 X69.002 Y100.483 E8.17639
G1 X69.214 Y99.569 E8.2076
G1 X69.503 Y98.677 E8.23878
G1 X69.866 Y97.812 E8.26998
G1 X70.302 Y96.982 E8.30117
G1 X71.063 Y95.842 E8.34675
G1 X72.665 Y93.737 E8.43474
G1 X74.14 Y91.682 E8.51887
G1 X75.537 Y89.614 E8.60187
G1 X76.901 Y87.468 E8.68645
G1 X78.172 Y85.334 E8.76906
G1 X79.41 Y83.116 E8.85354
G1 F1500 E2.35354
G0 F6000 X77.233 Y87.691
G1 F1500 E8.85354
G1 F1200 X78.537 Y85.501 E8.93832
G1 X79.765 Y83.303 E9.02206
G1 X80.917 Y81.099 E9.10478
G1 X81.378 Y80.302 E9.1354
G1 X81.907 Y79.548 E9.16603
G1 X82.5 Y78.844 E9.19665
G1 X83.151 Y78.193 E9.22727
G1 X83.856 Y77.601 E9.25789
G1 X84.865 Y76.915 E9.29847
G1 X85.691 Y76.422 E9.33046
G1 X86.52 Y75.943 E9.36231
G1 X88.704 Y74.598 E9.44762
G1 X90.789 Y73.232 E9.53052
G1 X92.884 Y71.772 E9.61545
G1 X95.023 Y70.189 E9.70396
G1 X96.106 Y69.367 E9.74918
G1 X96.863 Y68.843 E9.7798
G1 X97.662 Y68.387 E9.8104
G1 X98.499 Y68.002 E9.84105
G1 X99.365 Y67.691 E9.87165
G1 X100.255 Y67.456 E9.90227
G1 X101.163 Y67.299 E9.93291
G1 X102.211 Y67.217 E9.96788
G1 X102.83 Y67.204 E9.98847
G1 X116.978 Y67.207 E10.45903
G1 X117.68 Y67.219 E10.48239
G1 X118.599 Y67.274 E10.51301
G1 X119.51 Y67.409 E10.54364
G1 X120.405 Y67.623 E10.57424
G1 X121.279 Y67.914 E10.60488
G1 X122.124 Y68.279 E10.6355
G1 X122.934 Y68.716 E10.66611
G1 X123.918 Y69.382 E10.70563
G1 X126.086 Y71.032 E10.79624
G1 X128.133 Y72.499 E10.88001
G1 X130.232 Y73.917 E10.96426
G1 X132.403 Y75.294 E11.04977
G1 X134.574 Y76.588 E11.13383
G1 X134.983 Y76.824 E11.14953
G1 X135.76 Y77.318 E11.18016
G1 X136.491 Y77.878 E11.21078
G1 X137.17 Y78.499 E11.24139
G1 X137.794 Y79.176 E11.27201
G1 X138.356 Y79.905 E11.30263
G1 X138.853 Y80.68 E11.33325
G1 X139.08 Y81.092 E11.34889
G1 X139.677 Y82.232 E11.39169
G1 X140.882 Y84.46 E11.47594
G1 X142.165 Y86.678 E11.56117
G1 X143.48 Y88.81 E11.64448
G1 X144.87 Y90.927 E11.72871
G1 X146.318 Y93.004 E11.81292
G1 X147.885 Y95.119 E11.90047
G1 X148.628 Y96.098 E11.94135
G1 X149.153 Y96.855 E11.97199
G1 X149.61 Y97.654 E12.00261
G1 X149.996 Y98.49 E12.03323
G1 X150.307 Y99.356 E12.06384
G1 X150.543 Y100.246 E12.09446
G1 X150.7 Y101.153 E12.12508
G1 X150.783 Y102.211 E12.16037
G1 X150.796 Y102.83 E12.18097
G1 X150.794 Y116.916 E12.64947
G1 X150.784 Y117.642 E12.67362
G1 X150.731 Y118.561 E12.70423
G1 X150.599 Y119.472 E12.73485
G1 X150.388 Y120.368 E12.76547
G1 X150.101 Y121.243 E12.7961
G1 X149.738 Y122.089 E12.82671
G1 X149.304 Y122.901 E12.85734
G1 X148.619 Y123.917 E12.89809
G1 X147.007 Y126.034 E12.98659
G1 X145.525 Y128.1 E13.07116
G1 X144.133 Y130.161 E13.15388
G1 X142.763 Y132.316 E13.23881
G1 X141.465 Y134.495 E13.32317
G1 X140.236 Y136.696 E13.40702
G1 X139.076 Y138.911 E13.49018
G1 X138.614 Y139.708 E13.52082
G1 X138.085 Y140.461 E13.55143
G1 X137.492 Y141.165 E13.58204
G1 X136.84 Y141.816 E13.61269
G1 X136.135 Y142.407 E13.64328
G1 X135.117 Y143.098 E13.6842
G1 X134.315 Y143.574 E13.71522
G1 X133.495 Y144.048 E13.74673
G1 X131.296 Y145.402 E13.83262
G1 X129.211 Y146.768 E13.91552
G1 X127.116 Y148.228 E14.00045
G1 X124.977 Y149.811 E14.08896
G1 X123.894 Y150.633 E14.13418
G1 X123.137 Y151.157 E14.1648
G1 X122.338 Y151.613 E14.1954
G1 X121.501 Y151.998 E14.22604
G1 X120.635 Y152.309 E14.25665
G1 X119.745 Y152.544 E14.28727
G1 X118.837 Y152.701 E14.31791
G1 X117.789 Y152.783 E14.35288
G1 X117.17 Y152.796 E14.37347
G1 X103.037 Y152.794 E14.84353
G1 X102.335 Y152.783 E14.86689
G1 X101.416 Y152.728 E14.89751
G1 X100.505 Y152.594 E14.92813
G1 X99.609 Y152.382 E14.95876
G1 X98.735 Y152.093 E14.98937
G1 X97.89 Y151.728 E15.01999
G1 X97.079 Y151.292 E15.05061
G1 X96.079 Y150.617 E15.09074
G1 X93.906 Y148.962 E15.18159
G1 X91.874 Y147.505 E15.26475
G1 X89.76 Y146.078 E15.34959
G1 X87.597 Y144.706 E15.43478
G1 X85.396 Y143.394 E15.52
G1 X85.01 Y143.171 E15.53483
G1 X84.233 Y142.677 E15.56545
G1 X83.503 Y142.116 E15.59608
G1 X82.823 Y141.495 E15.62671
G1 X82.201 Y140.817 E15.65731
G1 X81.639 Y140.087 E15.68795
G1 X81.143 Y139.312 E15.71855
G1 X80.918 Y138.904 E15.73405
G1 X80.34 Y137.798 E15.77556
G1 X79.118 Y135.54 E15.86095
G1 X77.843 Y133.337 E15.94561
G1 X76.505 Y131.167 E16.0304
G1 X75.129 Y129.072 E16.11377
G1 X73.682 Y126.996 E16.19793
G1 X72.142 Y124.917 E16.28398
G1 X71.38 Y123.916 E16.32583
G1 X70.855 Y123.16 E16.35644
G1 X70.397 Y122.362 E16.38704
G1 X70.01 Y121.526 E16.41768
G1 X69.698 Y120.66 E16.4483
G1 X69.461 Y119.771 E16.4789
G1 X69.303 Y118.864 E16.50952
G1 X69.219 Y117.823 E16.54426
G1 X69.204 Y117.171 E16.56595
G1 X69.206 Y103.051 E17.03558
G1 X69.216 Y102.353 E17.0588
G1 X69.269 Y101.434 E17.08942
G1 X69.402 Y100.523 E17.12004
G1 X69.613 Y99.627 E17.15065
G1 X69.901 Y98.753 E17.18126
G1 X70.264 Y97.906 E17.21191
G1 X70.699 Y97.095 E17.24252
G1 X71.381 Y96.084 E17.28308
G1 X72.993 Y93.967 E17.37158
G1 X74.464 Y91.916 E17.45553
G1 X75.879 Y89.822 E17.53959
G1 X77.233 Y87.691 E17.62356
G1 F1500 E11.12356
G0 F6000 X74.805 Y92.128
G1 F1500 E17.62356
G1 F1200 X76.199 Y90.064 E17.7064
G1 X77.578 Y87.894 E17.79191
G1 X78.881 Y85.706 E17.87661
G1 X80.11 Y83.504 E17.96049
G1 X81.271 Y81.284 E18.04381
G1 X81.725 Y80.503 E18.07386
G1 X82.245 Y79.765 E18.10389
G1 X82.829 Y79.076 E18.13393
G1 X83.472 Y78.441 E18.16398
G1 X84.168 Y77.866 E18.19401
G1 X85.071 Y77.258 E18.23022
G1 X85.891 Y76.768 E18.26199
G1 X86.751 Y76.271 E18.29503
G1 X88.912 Y74.941 E18.37942
G1 X91.007 Y73.567 E18.46275
G1 X93.105 Y72.106 E18.54779
G1 X95.306 Y70.476 E18.63888
G1 X96.348 Y69.686 E18.68237
G1 X97.091 Y69.172 E18.71242
G1 X97.876 Y68.727 E18.74243
G1 X98.698 Y68.353 E18.77247
G1 X99.55 Y68.052 E18.80252
G1 X100.425 Y67.829 E18.83256
G1 X101.316 Y67.683 E18.86259
G1 X102.222 Y67.617 E18.8928
G1 X102.83 Y67.604 E18.91303
G1 X116.971 Y67.606 E19.38336
G1 X117.673 Y67.618 E19.40671
G1 X118.575 Y67.674 E19.43677
G1 X119.468 Y67.809 E19.46681
G1 X120.345 Y68.022 E19.49683
G1 X121.2 Y68.312 E19.52685
G1 X122.027 Y68.677 E19.55692
G1 X122.817 Y69.113 E19.58693
G1 X123.676 Y69.7 E19.62154
G1 X125.857 Y71.36 E19.7127
G1 X127.898 Y72.823 E19.79622
G1 X130.04 Y74.269 E19.88218
G1 X132.163 Y75.616 E19.9658
G1 X134.783 Y77.171 E20.06714
G1 X135.545 Y77.656 E20.09718
G1 X136.26 Y78.207 E20.1272
G1 X136.924 Y78.819 E20.15724
G1 X137.532 Y79.487 E20.18728
G1 X138.078 Y80.206 E20.21731
G1 X138.725 Y81.278 E20.25895
G1 X139.297 Y82.371 E20.29998
G1 X140.542 Y84.671 E20.38697
G1 X141.806 Y86.856 E20.47093
G1 X143.154 Y89.043 E20.55637
G1 X144.534 Y91.146 E20.64004
G1 X145.985 Y93.225 E20.72436
G1 X147.565 Y95.359 E20.81267
G1 X148.31 Y96.34 E20.85364
G1 X148.824 Y97.083 E20.88369
G1 X149.27 Y97.868 E20.91372
G1 X149.645 Y98.689 E20.94374
G1 X149.946 Y99.541 E20.9738
G1 X150.17 Y100.416 E21.00384
G1 X150.316 Y101.307 E21.03387
G1 X150.383 Y102.222 E21.06438
G1 X150.396 Y102.83 E21.08461
G1 X150.394 Y116.91 E21.55291
G1 X150.384 Y117.636 E21.57706
G1 X150.332 Y118.538 E21.60711
G1 X150.2 Y119.431 E21.63714
G1 X149.989 Y120.31 E21.6672
G1 X149.702 Y121.166 E21.69723
G1 X149.34 Y121.993 E21.72726
G1 X148.906 Y122.785 E21.75729
G1 X148.301 Y123.675 E21.79309
G1 X146.68 Y125.805 E21.88211
G1 X145.213 Y127.849 E21.96579
G1 X143.786 Y129.961 E22.05057
G1 X142.41 Y132.127 E22.13592
G1 X141.13 Y134.274 E22.21906
G1 X139.89 Y136.494 E22.30363
G1 X138.722 Y138.726 E22.38742
G1 X138.268 Y139.507 E22.41746
G1 X137.747 Y140.244 E22.44748
G1 X137.162 Y140.933 E22.47755
G1 X136.519 Y141.567 E22.50758
G1 X135.823 Y142.142 E22.53761
G1 X134.912 Y142.754 E22.57411
G1 X134.115 Y143.228 E22.60495
G1 X133.264 Y143.719 E22.63763
G1 X131.088 Y145.059 E22.72263
G1 X128.993 Y146.433 E22.80595
G1 X126.895 Y147.894 E22.89099
G1 X124.694 Y149.524 E22.98208
G1 X123.652 Y150.314 E23.02557
G1 X122.909 Y150.828 E23.05562
G1 X122.124 Y151.273 E23.08563
G1 X121.302 Y151.647 E23.11567
G1 X120.45 Y151.948 E23.14573
G1 X119.575 Y152.171 E23.17576
G1 X118.684 Y152.317 E23.20579
G1 X117.778 Y152.383 E23.236
G1 X117.17 Y152.396 E23.25623
G1 X103.043 Y152.394 E23.72609
G1 X102.341 Y152.383 E23.74945
G1 X101.44 Y152.329 E23.77947
G1 X100.547 Y152.195 E23.8095
G1 X99.669 Y151.983 E23.83954
G1 X98.813 Y151.694 E23.86959
G1 X97.986 Y151.33 E23.89964
G1 X97.195 Y150.895 E23.92967
G1 X96.322 Y150.299 E23.96483
G1 X94.152 Y148.647 E24.05554
G1 X92.085 Y147.164 E24.14015
G1 X89.977 Y145.741 E24.22474
G1 X87.837 Y144.384 E24.30902
G1 X85.21 Y142.825 E24.41062
G1 X84.449 Y142.339 E24.44066
G1 X83.733 Y141.788 E24.47071
G1 X83.069 Y141.175 E24.50076
G1 X82.462 Y140.507 E24.53078
G1 X81.917 Y139.787 E24.56082
G1 X81.272 Y138.718 E24.60234
G1 X80.689 Y137.604 E24.64416
G1 X79.473 Y135.356 E24.72917
G1 X78.172 Y133.106 E24.81561
G1 X76.863 Y130.984 E24.89854
G1 X75.448 Y128.829 E24.98429
G1 X74.015 Y126.775 E25.06758
G1 X72.418 Y124.618 E25.15685
G1 X71.699 Y123.674 E25.19632
G1 X71.184 Y122.932 E25.22636
G1 X70.737 Y122.147 E25.2564
G1 X70.361 Y121.326 E25.28644
G1 X70.059 Y120.475 E25.31647
G1 X69.834 Y119.601 E25.34649
G1 X69.687 Y118.709 E25.37656
G1 X69.619 Y117.811 E25.40651
G1 X69.604 Y117.171 E25.4278
G1 X69.606 Y103.057 E25.89724
G1 X69.616 Y102.359 E25.92045
G1 X69.669 Y101.457 E25.95051
G1 X69.801 Y100.564 E25.98053
G1 X70.012 Y99.686 E26.01056
G1 X70.3 Y98.83 E26.0406
G1 X70.662 Y98.003 E26.07063
G1 X71.097 Y97.211 E26.10068
G1 X71.699 Y96.326 E26.13628
G1 X73.32 Y94.196 E26.22531
G1 X74.805 Y92.128 E26.30999
G1 F1500 E19.80999
;MESH:T-nut_M3_2020_aluprofile.stl(7)
G0 F6000 X93.25 Y94.259
G0 X94.268 Y95.259
G0 X94.958 Y95.578
G0 X96.024 Y95.646
G1 F1500 E26.30999
G0 F6000 X95.913 Y95.251
;TYPE:WALL-OUTER
G1 F1200 X95.491 Y95.299 E26.32411
G1 X95.066 Y95.245 E26.33836
G1 X94.672 Y95.094 E26.3524
G1 X94.32 Y94.854 E26.36657
G1 X94.035 Y94.54 E26.38067
G1 X93.83 Y94.163 E26.39494
G1 X93.721 Y93.751 E26.40912
G1 X93.714 Y93.314 E26.42365
G1 X93.807 Y92.897 E26.43786
G1 X93.998 Y92.513 E26.45213
G1 X94.27 Y92.189 E26.4662
G1 X94.615 Y91.935 E26.48045
G1 X95.004 Y91.771 E26.49449
G1 X95.061 Y91.757 E26.49644
G1 X95.624 Y91.706 E26.51524
G1 X96.059 Y91.789 E26.52997
G1 X96.442 Y91.966 E26.54401
G1 X96.775 Y92.228 E26.5581
G1 X97.038 Y92.562 E26.57224
G1 X97.216 Y92.944 E26.58626
G1 X97.297 Y93.368 E26.60061
G1 X97.282 Y93.766 E26.61386
G1 X97.164 Y94.186 E26.62837
G1 X96.957 Y94.558 E26.64253
G1 X96.667 Y94.87 E26.6567
G1 X96.311 Y95.106 E26.6709
G1 X95.913 Y95.251 E26.68499
G0 F6000 X96.045 Y95.629
;TYPE:WALL-INNER
G1 F1200 X95.53 Y95.697 E26.70227
G1 X95.01 Y95.641 E26.71966
G1 X94.524 Y95.466 E26.73685
G1 X94.09 Y95.181 E26.75411
G1 X93.736 Y94.806 E26.77127
G1 X93.476 Y94.349 E26.78875
G1 X93.333 Y93.848 E26.80608
G1 X93.314 Y93.316 E26.82379
G1 X93.418 Y92.804 E26.84117
G1 X93.642 Y92.33 E26.8586
G1 X93.967 Y91.927 E26.87582
G1 X94.382 Y91.61 E26.89319
G1 X94.854 Y91.4 E26.91037
G1 X95.025 Y91.359 E26.91622
G1 X95.588 Y91.308 E26.93502
G1 X96.141 Y91.397 E26.95365
G1 X96.403 Y91.503 E26.96305
G1 X96.732 Y91.679 E26.97546
G1 X97.026 Y91.916 E26.98802
G1 X97.356 Y92.319 E27.00535
G1 X97.58 Y92.779 E27.02237
G1 X97.691 Y93.299 E27.04005
G1 X97.682 Y93.785 E27.05622
G1 X97.548 Y94.299 E27.07388
G1 X97.304 Y94.757 E27.09114
G1 X96.956 Y95.146 E27.1085
G1 X96.528 Y95.442 E27.12581
G1 X96.045 Y95.629 E27.14304
G1 F1500 E20.64304
G0 F6000 X96.047 Y95.639
