;FLAVOR:Marlin
;TIME:3981
;Filament used: 2.46983m
;Layer height: 0.2
;MINX:71
;MINY:84.75
;MINZ:0.2
;MAXX:149
;MAXY:135.25
;MAXZ:11
;Generated with Cura_SteamEngine 5.0.0
M140 S60
M105
M190 S60
M104 S200
M105
M109 S200
M82 ;absolute extrusion mode
; Ender 3 Custom Start G-code
G92 E0 ; Reset Extruder
G28 ; Home all axes
G1 Z2.0 F3000 ; Move Z Axis up little to prevent scratching of Heat Bed
G1 X0.1 Y20 Z0.3 F5000.0 ; Move to start position
G1 X0.1 Y200.0 Z0.3 F1500.0 E15 ; Draw the first line
G1 X0.4 Y200.0 Z0.3 F5000.0 ; Move to side a little
G1 X0.4 Y20 Z0.3 F1500.0 E30 ; Draw the second line
G92 E0 ; Reset Extruder
G1 Z2.0 F3000 ; Move Z Axis up little to prevent scratching of Heat Bed
G1 X5 Y20 Z0.3 F5000.0 ; Move over to prevent blob squish
G92 E0
G92 E0
G1 F1500 E-6.5
;LAYER_COUNT:55
;LAYER:0
M107
G0 F6000 X75.419 Y88.005 Z0.2
G0 X71.001 Y98.287
;TYPE:SKIRT
G1 F1500 E0
G1 F1200 X71.012 Y97.577 E0.02362
G1 X71.067 Y96.64 E0.05484
G1 X71.188 Y95.779 E0.08375
G1 X71.321 Y95.082 E0.10735
G1 X71.412 Y94.661 E0.12168
G1 X71.649 Y93.754 E0.15286
G1 X71.963 Y92.87 E0.18406
G1 X72.35 Y92.016 E0.21525
G1 X72.916 Y91.029 E0.25309
G1 X73.312 Y90.425 E0.27711
G1 X73.542 Y90.092 E0.29057
G1 X74.107 Y89.343 E0.32178
G1 X74.735 Y88.646 E0.35298
G1 X75.419 Y88.005 E0.38416
G1 X76.333 Y87.298 E0.42259
G1 X76.854 Y86.943 E0.44356
G1 X77.238 Y86.693 E0.4588
G1 X78.045 Y86.215 E0.49
G1 X78.89 Y85.808 E0.52119
G1 X79.767 Y85.474 E0.55241
G1 X80.929 Y85.157 E0.59247
G1 X81.659 Y85.007 E0.61725
G1 X82.091 Y84.93 E0.63185
G1 X83.02 Y84.805 E0.66302
G1 X83.862 Y84.76 E0.69107
G1 X84.644 Y84.75 E0.71708
G1 X135.293 Y84.75 E2.40167
G1 X136.173 Y84.762 E2.43095
G1 X137.11 Y84.817 E2.46216
G1 X137.951 Y84.935 E2.49041
G1 X138.671 Y85.071 E2.51478
G1 X139.091 Y85.162 E2.52907
G1 X139.999 Y85.4 E2.56029
G1 X140.882 Y85.714 E2.59146
G1 X141.736 Y86.102 E2.62266
G1 X142.69 Y86.647 E2.65921
G1 X143.311 Y87.052 E2.68386
G1 X143.657 Y87.291 E2.69785
G1 X144.405 Y87.857 E2.72905
G1 X145.102 Y88.484 E2.76023
G1 X145.744 Y89.168 E2.79143
G1 X146.429 Y90.052 E2.82863
G1 X146.804 Y90.599 E2.85069
G1 X147.053 Y90.981 E2.86585
G1 X147.531 Y91.788 E2.89705
G1 X147.939 Y92.633 E2.92826
G1 X148.273 Y93.509 E2.95944
G1 X148.589 Y94.66 E2.99914
G1 X148.73 Y95.334 E3.02204
G1 X148.806 Y95.744 E3.03591
G1 X148.937 Y96.673 E3.06712
G1 X148.989 Y97.569 E3.09697
G1 X149 Y98.36 E3.12328
G1 X148.999 Y121.713 E3.9
G1 X148.988 Y122.423 E3.92362
G1 X148.933 Y123.36 E3.95484
G1 X148.815 Y124.201 E3.98308
G1 X148.679 Y124.921 E4.00745
G1 X148.588 Y125.341 E4.02175
G1 X148.35 Y126.249 E4.05297
G1 X148.036 Y127.132 E4.08414
G1 X147.648 Y127.986 E4.11534
G1 X147.108 Y128.932 E4.15157
G1 X146.707 Y129.548 E4.17601
G1 X146.468 Y129.895 E4.19003
G1 X145.904 Y130.644 E4.22121
G1 X145.278 Y131.342 E4.2524
G1 X144.594 Y131.984 E4.2836
G1 X143.683 Y132.691 E4.32195
G1 X143.151 Y133.054 E4.34337
G1 X142.769 Y133.303 E4.35854
G1 X141.962 Y133.781 E4.38973
G1 X141.117 Y134.189 E4.42094
G1 X140.241 Y134.523 E4.45213
G1 X138.919 Y134.874 E4.49762
G1 X138.164 Y135.025 E4.52323
G1 X137.238 Y135.17 E4.5544
G1 X136.193 Y135.237 E4.58923
G1 X135.356 Y135.25 E4.61707
G1 X84.537 Y135.249 E6.30732
G1 X83.827 Y135.238 E6.33094
G1 X82.89 Y135.183 E6.36216
G1 X82.049 Y135.065 E6.3904
G1 X81.329 Y134.929 E6.41477
G1 X80.909 Y134.838 E6.42906
G1 X80.001 Y134.6 E6.46029
G1 X79.118 Y134.286 E6.49146
G1 X78.264 Y133.898 E6.52265
G1 X77.31 Y133.353 E6.5592
G1 X76.678 Y132.94 E6.58431
G1 X76.33 Y132.699 E6.59839
G1 X75.583 Y132.133 E6.62956
G1 X74.886 Y131.505 E6.66076
G1 X74.246 Y130.82 E6.69194
G1 X73.588 Y129.973 E6.72762
G1 X73.159 Y129.347 E6.75286
G1 X72.916 Y128.97 E6.76777
G1 X72.442 Y128.161 E6.79896
G1 X72.039 Y127.315 E6.83013
G1 X71.709 Y126.437 E6.86133
G1 X71.411 Y125.336 E6.89926
G1 X71.256 Y124.587 E6.9247
G1 X71.18 Y124.161 E6.93909
G1 X71.055 Y123.231 E6.9703
G1 X71.01 Y122.388 E6.99838
G1 X71 Y121.606 E7.02439
G1 X71.001 Y98.287 E7.79999
G0 F6000 X71.401 Y98.293
G1 F1200 X71.412 Y97.583 E7.8236
G1 X71.466 Y96.664 E7.85422
G1 X71.582 Y95.851 E7.88154
G1 X71.712 Y95.167 E7.9047
G1 X71.803 Y94.746 E7.91902
G1 X72.037 Y93.855 E7.94966
G1 X72.346 Y92.988 E7.98027
G1 X72.73 Y92.151 E8.0109
G1 X73.252 Y91.246 E8.04565
G1 X73.641 Y90.652 E8.06927
G1 X73.871 Y90.319 E8.08273
G1 X74.427 Y89.585 E8.11335
G1 X75.044 Y88.902 E8.14397
G1 X75.718 Y88.275 E8.17459
G1 X76.561 Y87.627 E8.20995
G1 X77.073 Y87.278 E8.23056
G1 X77.457 Y87.028 E8.2458
G1 X78.249 Y86.559 E8.27641
G1 X79.08 Y86.162 E8.30704
G1 X79.941 Y85.837 E8.33765
G1 X81.013 Y85.548 E8.37458
G1 X81.729 Y85.4 E8.3989
G1 X82.161 Y85.323 E8.41349
G1 X83.073 Y85.201 E8.4441
G1 X83.868 Y85.16 E8.47057
G1 X84.644 Y85.15 E8.49639
G1 X135.293 Y85.15 E10.18098
G1 X136.167 Y85.162 E10.21005
G1 X137.086 Y85.216 E10.24067
G1 X137.88 Y85.329 E10.26734
G1 X138.587 Y85.462 E10.29127
G1 X139.007 Y85.553 E10.30557
G1 X139.897 Y85.787 E10.33617
G1 X140.764 Y86.097 E10.3668
G1 X141.6 Y86.482 E10.39741
G1 X142.474 Y86.984 E10.43093
G1 X143.083 Y87.381 E10.45511
G1 X143.429 Y87.62 E10.4691
G1 X144.164 Y88.176 E10.49975
G1 X144.847 Y88.793 E10.53036
G1 X145.474 Y89.468 E10.56101
G1 X146.101 Y90.281 E10.59515
G1 X146.469 Y90.818 E10.61681
G1 X146.718 Y91.2 E10.63197
G1 X147.187 Y91.992 E10.66259
G1 X147.585 Y92.822 E10.6932
G1 X147.91 Y93.684 E10.72384
G1 X148.198 Y94.745 E10.76041
G1 X148.336 Y95.407 E10.7829
G1 X148.412 Y95.817 E10.79677
G1 X148.541 Y96.729 E10.8274
G1 X148.589 Y97.576 E10.85562
G1 X148.6 Y98.36 E10.8817
G1 X148.599 Y121.707 E11.65822
G1 X148.588 Y122.417 E11.68184
G1 X148.534 Y123.336 E11.71246
G1 X148.421 Y124.13 E11.73914
G1 X148.288 Y124.837 E11.76306
G1 X148.197 Y125.257 E11.77736
G1 X147.963 Y126.147 E11.80796
G1 X147.653 Y127.014 E11.83859
G1 X147.268 Y127.85 E11.8692
G1 X146.771 Y128.717 E11.90244
G1 X146.378 Y129.321 E11.92641
G1 X146.139 Y129.668 E11.94042
G1 X145.584 Y130.402 E11.97103
G1 X144.968 Y131.086 E12.00164
G1 X144.294 Y131.714 E12.03228
G1 X143.455 Y132.362 E12.06754
G1 X142.932 Y132.719 E12.0886
G1 X142.55 Y132.968 E12.10377
G1 X141.758 Y133.437 E12.13438
G1 X140.928 Y133.835 E12.165
G1 X140.066 Y134.16 E12.19564
G1 X138.841 Y134.482 E12.23777
G1 X138.086 Y134.633 E12.26338
G1 X137.176 Y134.774 E12.294
G1 X136.186 Y134.837 E12.327
G1 X135.356 Y134.85 E12.35461
G1 X84.543 Y134.849 E14.04465
G1 X83.833 Y134.838 E14.06827
G1 X82.914 Y134.784 E14.09889
G1 X82.12 Y134.671 E14.12557
G1 X81.413 Y134.538 E14.14949
G1 X80.993 Y134.447 E14.16379
G1 X80.103 Y134.213 E14.19439
G1 X79.236 Y133.903 E14.22502
G1 X78.4 Y133.518 E14.25563
G1 X77.526 Y133.016 E14.28915
G1 X76.906 Y132.611 E14.31378
G1 X76.558 Y132.37 E14.32786
G1 X75.825 Y131.814 E14.35846
G1 X75.142 Y131.196 E14.3891
G1 X74.516 Y130.521 E14.41972
G1 X73.915 Y129.743 E14.45242
G1 X73.495 Y129.131 E14.4771
G1 X73.252 Y128.754 E14.49202
G1 X72.788 Y127.959 E14.52264
G1 X72.394 Y127.127 E14.55326
G1 X72.073 Y126.264 E14.58388
G1 X71.802 Y125.252 E14.61873
G1 X71.65 Y124.517 E14.64369
G1 X71.574 Y124.091 E14.65808
G1 X71.452 Y123.178 E14.68872
G1 X71.41 Y122.382 E14.71523
G1 X71.4 Y121.606 E14.74104
G1 X71.401 Y98.293 E15.51644
G0 F6000 X71.801 Y98.299
G1 F1200 X71.812 Y97.589 E15.54005
G1 X71.866 Y96.687 E15.57011
G1 X71.976 Y95.922 E15.59581
G1 X72.103 Y95.251 E15.61853
G1 X72.194 Y94.83 E15.63285
G1 X72.424 Y93.957 E15.66288
G1 X72.73 Y93.107 E15.69293
G1 X73.11 Y92.288 E15.72296
G1 X73.588 Y91.462 E15.7547
G1 X73.97 Y90.879 E15.77788
G1 X74.2 Y90.546 E15.79134
G1 X74.746 Y89.827 E15.82137
G1 X75.353 Y89.158 E15.85141
G1 X76.017 Y88.546 E15.88145
G1 X76.789 Y87.955 E15.91379
G1 X77.291 Y87.613 E15.93399
G1 X77.675 Y87.363 E15.94923
G1 X78.453 Y86.904 E15.97927
G1 X79.268 Y86.516 E16.0093
G1 X80.115 Y86.202 E16.03934
G1 X81.097 Y85.939 E16.07315
G1 X81.799 Y85.794 E16.09699
G1 X82.231 Y85.717 E16.11159
G1 X83.126 Y85.598 E16.14162
G1 X83.874 Y85.56 E16.16653
G1 X84.644 Y85.55 E16.19214
G1 X135.293 Y85.55 E17.87673
G1 X136.161 Y85.562 E17.90561
G1 X137.063 Y85.616 E17.93566
G1 X137.809 Y85.722 E17.96072
G1 X138.502 Y85.853 E17.98418
G1 X138.922 Y85.944 E17.99847
G1 X139.795 Y86.174 E18.0285
G1 X140.645 Y86.481 E18.05856
G1 X141.464 Y86.861 E18.08859
G1 X142.259 Y87.321 E18.11914
G1 X142.856 Y87.711 E18.14286
G1 X143.202 Y87.95 E18.15684
G1 X143.922 Y88.495 E18.18688
G1 X144.59 Y89.102 E18.2169
G1 X145.202 Y89.766 E18.24693
G1 X145.773 Y90.51 E18.27812
G1 X146.134 Y91.036 E18.29934
G1 X146.383 Y91.418 E18.31451
G1 X146.842 Y92.196 E18.34455
G1 X147.231 Y93.011 E18.37459
G1 X147.546 Y93.857 E18.40461
G1 X147.807 Y94.829 E18.43809
G1 X147.943 Y95.48 E18.46021
G1 X148.019 Y95.89 E18.47408
G1 X148.144 Y96.784 E18.5041
G1 X148.189 Y97.582 E18.53069
G1 X148.2 Y98.36 E18.55656
G1 X148.199 Y121.701 E19.33289
G1 X148.188 Y122.411 E19.35651
G1 X148.134 Y123.313 E19.38656
G1 X148.028 Y124.059 E19.41162
G1 X147.897 Y124.752 E19.43508
G1 X147.806 Y125.172 E19.44937
G1 X147.576 Y126.045 E19.4794
G1 X147.269 Y126.895 E19.50946
G1 X146.889 Y127.714 E19.53949
G1 X146.434 Y128.501 E19.56972
G1 X146.048 Y129.094 E19.59326
G1 X145.809 Y129.441 E19.60727
G1 X145.265 Y130.161 E19.63729
G1 X144.658 Y130.83 E19.66733
G1 X143.995 Y131.444 E19.69739
G1 X143.226 Y132.033 E19.7296
G1 X142.714 Y132.384 E19.75025
G1 X142.332 Y132.633 E19.76542
G1 X141.554 Y133.092 E19.79546
G1 X140.739 Y133.481 E19.8255
G1 X139.893 Y133.796 E19.85552
G1 X138.762 Y134.09 E19.89439
G1 X138.007 Y134.241 E19.92
G1 X137.115 Y134.379 E19.95002
G1 X136.179 Y134.438 E19.98121
G1 X135.356 Y134.45 E20.00859
G1 X84.549 Y134.449 E21.69844
G1 X83.839 Y134.438 E21.72205
G1 X82.937 Y134.384 E21.75211
G1 X82.191 Y134.278 E21.77717
G1 X81.498 Y134.147 E21.80063
G1 X81.078 Y134.056 E21.81492
G1 X80.205 Y133.826 E21.84495
G1 X79.355 Y133.519 E21.875
G1 X78.536 Y133.139 E21.90503
G1 X77.741 Y132.679 E21.93558
G1 X77.134 Y132.282 E21.95971
G1 X76.786 Y132.041 E21.97379
G1 X76.067 Y131.495 E22.00381
G1 X75.399 Y130.887 E22.03386
G1 X74.788 Y130.222 E22.06389
G1 X74.243 Y129.514 E22.09361
G1 X73.832 Y128.914 E22.1178
G1 X73.589 Y128.537 E22.13272
G1 X73.133 Y127.757 E22.16277
G1 X72.749 Y126.94 E22.19279
G1 X72.438 Y126.092 E22.22283
G1 X72.193 Y125.167 E22.25466
G1 X72.044 Y124.446 E22.27915
G1 X71.968 Y124.02 E22.29354
G1 X71.848 Y123.125 E22.32358
G1 X71.81 Y122.376 E22.34852
G1 X71.8 Y121.606 E22.37413
G1 X71.801 Y98.299 E23.14933
G1 F1500 E16.64933
;MESH:Door-clip-3.stl
G0 F6000 X85.719 Y102.793
G0 X85.951 Y117.308
G0 X86.121 Y118.287
G0 X86.929 Y119.511
G0 X88.239 Y120.219
G0 X89.879 Y120.218
G1 F1500 E23.14933
G0 F6000 X89.689 Y119.856
;TYPE:WALL-OUTER
G1 F1200 X89.593 Y119.879 E23.15261
G1 X88.376 Y119.873 E23.19309
G1 X88.282 Y119.848 E23.19632
G1 X87.214 Y119.27 E23.23671
G1 X87.142 Y119.204 E23.23996
G1 X86.476 Y118.192 E23.28026
G1 X86.446 Y118.117 E23.28294
G1 X86.302 Y117.294 E23.31073
G1 X86.3 Y117.259 E23.3119
G1 X86.3 Y102.792 E23.79307
G1 X86.304 Y102.75 E23.79447
G1 X86.54 Y101.648 E23.83196
G1 X86.578 Y101.566 E23.83496
G1 X87.274 Y100.677 E23.87252
G1 X87.34 Y100.626 E23.87529
G1 X88.35 Y100.134 E23.91266
G1 X88.438 Y100.114 E23.91566
G1 X89.562 Y100.114 E23.95304
G1 X89.65 Y100.134 E23.95604
G1 X90.66 Y100.626 E23.99341
G1 X90.73 Y100.682 E23.99639
G1 X91.421 Y101.566 E24.03371
G1 X91.459 Y101.647 E24.03669
G1 X91.696 Y102.749 E24.07418
G1 X91.7 Y102.792 E24.07561
G1 X91.7 Y117.307 E24.55838
G1 X91.539 Y118.168 E24.58752
G1 X91.513 Y118.222 E24.58951
G1 X90.834 Y119.226 E24.62982
G1 X90.762 Y119.29 E24.63303
G1 X89.689 Y119.856 E24.67338
G0 F6000 X89.876 Y120.21
;TYPE:WALL-INNER
G1 F1200 X89.595 Y120.279 E24.683
G1 X88.374 Y120.273 E24.72361
G1 X88.092 Y120.2 E24.7333
G1 X87.024 Y119.622 E24.77369
G1 X86.808 Y119.424 E24.78344
G1 X86.142 Y118.412 E24.82373
G1 X86.052 Y118.186 E24.83182
G1 X85.908 Y117.363 E24.85961
G1 X85.9 Y117.259 E24.86308
G1 X85.9 Y102.792 E25.34425
G1 X85.913 Y102.666 E25.34847
G1 X86.149 Y101.564 E25.38595
G1 X86.263 Y101.32 E25.39491
G1 X86.968 Y100.419 E25.43296
G1 X87.165 Y100.266 E25.44126
G1 X88.175 Y99.774 E25.47862
G1 X88.438 Y99.714 E25.48759
G1 X89.562 Y99.714 E25.52498
G1 X89.825 Y99.774 E25.53395
G1 X90.835 Y100.266 E25.57132
G1 X91.045 Y100.436 E25.5803
G1 X91.736 Y101.32 E25.61762
G1 X91.85 Y101.563 E25.62655
G1 X92.087 Y102.665 E25.66404
G1 X92.1 Y102.792 E25.66829
G1 X92.101 Y117.287 E26.15039
G1 X92.09 Y117.397 E26.15407
G1 X91.937 Y118.219 E26.18188
G1 X91.845 Y118.446 E26.19003
G1 X91.166 Y119.45 E26.23034
G1 X90.949 Y119.644 E26.24002
G1 X89.876 Y120.21 E26.28037
G1 F1500 E19.78037
G0 F6000 X89.879 Y120.218
G0 X88.375 Y120.454
G0 X88.375 Y123.82
G0 X84.058 Y123.641
G1 F1500 E26.28037
G0 F6000 X84.022 Y124.049
;TYPE:WALL-OUTER
G1 F1200 X125.204 Y124.05 E27.65009
G1 X131.538 Y124.049 E27.86076
G1 X135.978 Y124.05 E28.00843
G1 X136.689 Y123.908 E28.03255
G1 X137.269 Y123.519 E28.05577
G1 X137.658 Y122.939 E28.079
G1 X137.8 Y122.228 E28.10312
G1 X137.8 Y97.768 E28.91666
G1 X137.658 Y97.061 E28.94065
G1 X137.269 Y96.481 E28.96387
G1 X136.689 Y96.092 E28.9871
G1 X135.978 Y95.95 E29.01122
G1 X84.022 Y95.95 E30.73928
G1 X83.311 Y96.092 E30.76339
G1 X82.731 Y96.481 E30.78662
G1 X82.342 Y97.061 E30.80985
G1 X82.2 Y97.772 E30.83397
G1 X82.201 Y122.232 E31.64751
G1 X82.342 Y122.939 E31.67149
G1 X82.731 Y123.519 E31.69471
G1 X83.311 Y123.908 E31.71794
G1 X84.022 Y124.049 E31.74205
G0 F6000 X84.06 Y123.649
;TYPE:WALL-INNER
G1 F1200 X125.204 Y123.65 E33.11051
G1 X131.538 Y123.649 E33.32118
G1 X135.939 Y123.65 E33.46755
G1 X136.533 Y123.531 E33.4877
G1 X136.981 Y123.231 E33.50563
G1 X137.281 Y122.783 E33.52357
G1 X137.4 Y122.189 E33.54372
G1 X137.4 Y97.808 E34.35463
G1 X137.281 Y97.217 E34.37468
G1 X136.981 Y96.769 E34.39262
G1 X136.533 Y96.469 E34.41055
G1 X135.939 Y96.35 E34.4307
G1 X84.061 Y96.35 E36.15617
G1 X83.467 Y96.469 E36.17632
G1 X83.019 Y96.769 E36.19425
G1 X82.719 Y97.217 E36.21218
G1 X82.6 Y97.811 E36.23233
G1 X82.601 Y122.192 E37.04325
G1 X82.719 Y122.783 E37.06329
G1 X83.019 Y123.231 E37.08122
G1 X83.467 Y123.531 E37.09916
G1 X84.06 Y123.649 E37.11927
G1 F1500 E30.61927
G0 F6000 X84.06 Y123.64
G0 X97 Y123.82
G0 X97 Y116.431
G1 F1500 E37.11927
G0 F6000 X97 Y115.85
;TYPE:WALL-OUTER
G1 F1200 X96.855 Y115.789 E37.1245
G1 X96.8 Y115.65 E37.12947
G1 X96.8 Y109.65 E37.32903
G1 X96.861 Y109.505 E37.33426
G1 X97 Y109.45 E37.33924
G1 X123 Y109.45 E38.204
G1 X123.139 Y109.505 E38.20897
G1 X123.2 Y109.65 E38.2142
G1 X123.2 Y115.65 E38.41376
G1 X123.143 Y115.791 E38.41882
G1 X123 Y115.85 E38.42397
G1 X97 Y115.85 E39.28873
G0 F6000 X97 Y116.25
;TYPE:WALL-INNER
G1 F1200 X96.737 Y116.19 E39.2977
G1 X96.531 Y116.025 E39.30648
G1 X96.408 Y115.754 E39.31638
G1 X96.4 Y115.65 E39.31985
G1 X96.4 Y109.65 E39.51941
G1 X96.49 Y109.333 E39.53037
G1 X96.695 Y109.133 E39.5399
G1 X96.908 Y109.057 E39.54742
G1 X97 Y109.05 E39.55049
G1 X123 Y109.05 E40.41525
G1 X123.195 Y109.082 E40.42182
G1 X123.415 Y109.215 E40.43037
G1 X123.577 Y109.482 E40.44076
G1 X123.6 Y109.65 E40.4464
G1 X123.6 Y115.65 E40.64596
G1 X123.577 Y115.819 E40.65163
G1 X123.429 Y116.071 E40.66135
G1 X123.21 Y116.213 E40.67004
G1 X123 Y116.25 E40.67713
G1 X97 Y116.25 E41.54189
G1 F1500 E35.04189
G0 F6000 X97 Y116.26
G0 X123.41 Y116.06
G0 X127.737 Y117.4
G0 X128.229 Y118.561
G0 X129.074 Y119.638
G0 X130.429 Y120.299
G1 F1500 E41.54189
G0 F6000 X130.431 Y119.891
;TYPE:WALL-OUTER
G1 F1200 X130.344 Y119.87 E41.54487
G1 X129.34 Y119.38 E41.58203
G1 X129.27 Y119.324 E41.58501
G1 X128.58 Y118.445 E41.62217
G1 X128.542 Y118.364 E41.62515
G1 X128.301 Y117.255 E41.6629
G1 X128.3 Y102.774 E42.14454
G1 X128.304 Y102.731 E42.14597
G1 X128.542 Y101.643 E42.18302
G1 X128.58 Y101.562 E42.18599
G1 X129.269 Y100.683 E42.22314
G1 X129.339 Y100.627 E42.22612
G1 X130.34 Y100.136 E42.2632
G1 X130.427 Y100.116 E42.26617
G1 X131.544 Y100.11 E42.30332
G1 X131.631 Y100.129 E42.30629
G1 X132.64 Y100.61 E42.34346
G1 X132.71 Y100.665 E42.34642
G1 X133.408 Y101.537 E42.38357
G1 X133.446 Y101.618 E42.38655
G1 X133.695 Y102.703 E42.42358
G1 X133.7 Y102.748 E42.42508
G1 X133.7 Y117.252 E42.90749
G1 X133.696 Y117.297 E42.90899
