;FLAVOR:Marlin
;TIME:3604
;Filament used: 2.15065m
;Layer height: 0.2
;MINX:71
;MINY:84.75
;MINZ:0.2
;MAXX:149
;MAXY:135.25
;MAXZ:9
;Generated with Cura_SteamEngine 5.0.0
M140 S60
M105
M190 S60
M104 S200
M105
M109 S200
M82 ;absolute extrusion mode
; Ender 3 Custom Start G-code
G92 E0 ; Reset Extruder
G28 ; Home all axes
G1 Z2.0 F3000 ; Move Z Axis up little to prevent scratching of Heat Bed
G1 X0.1 Y20 Z0.3 F5000.0 ; Move to start position
G1 X0.1 Y200.0 Z0.3 F1500.0 E15 ; Draw the first line
G1 X0.4 Y200.0 Z0.3 F5000.0 ; Move to side a little
G1 X0.4 Y20 Z0.3 F1500.0 E30 ; Draw the second line
G92 E0 ; Reset Extruder
G1 Z2.0 F3000 ; Move Z Axis up little to prevent scratching of Heat Bed
G1 X5 Y20 Z0.3 F5000.0 ; Move over to prevent blob squish
G92 E0
G92 E0
G1 F1500 E-6.5
;LAYER_COUNT:45
;LAYER:0
M107
G0 F6000 X75.032 Y87.794 Z0.2
G0 X71.001 Y97.287
;TYPE:SKIRT
G1 F1500 E0
G1 F1200 X71.012 Y96.577 E0.02362
G1 X71.067 Y95.64 E0.05484
G1 X71.221 Y94.606 E0.08961
G1 X71.296 Y94.228 E0.10242
G1 X71.518 Y93.317 E0.13361
G1 X71.816 Y92.428 E0.1648
G1 X72.189 Y91.567 E0.196
G1 X72.634 Y90.742 E0.22718
G1 X72.964 Y90.221 E0.24769
G1 X73.179 Y89.902 E0.26049
G1 X73.736 Y89.148 E0.29167
G1 X74.355 Y88.443 E0.32287
G1 X75.032 Y87.794 E0.35406
G1 X75.762 Y87.205 E0.38526
G1 X76.501 Y86.696 E0.41511
G1 X77.301 Y86.207 E0.44629
G1 X78.141 Y85.789 E0.4775
G1 X79.013 Y85.444 E0.50869
G1 X79.911 Y85.174 E0.53988
G1 X80.47 Y85.047 E0.55894
G1 X80.836 Y84.974 E0.57136
G1 X81.763 Y84.83 E0.60256
G1 X82.798 Y84.764 E0.63705
G1 X83.683 Y84.75 E0.66649
G1 X136.293 Y84.75 E2.41631
G1 X137.173 Y84.762 E2.44558
G1 X138.11 Y84.817 E2.4768
G1 X139.155 Y84.974 E2.51194
G1 X139.531 Y85.049 E2.5247
G1 X140.442 Y85.271 E2.55588
G1 X141.331 Y85.57 E2.58708
G1 X142.191 Y85.944 E2.61827
G1 X143.016 Y86.39 E2.64946
G1 X143.487 Y86.688 E2.668
G1 X143.806 Y86.901 E2.68076
G1 X144.563 Y87.454 E2.71194
G1 X145.271 Y88.07 E2.74315
G1 X145.923 Y88.745 E2.77437
G1 X146.515 Y89.472 E2.80555
G1 X146.829 Y89.914 E2.82358
G1 X147.044 Y90.234 E2.8364
G1 X147.533 Y91.034 E2.86759
G1 X147.952 Y91.873 E2.89878
G1 X148.299 Y92.745 E2.93
G1 X148.57 Y93.643 E2.96119
G1 X148.753 Y94.468 E2.9893
G1 X148.939 Y95.71 E3.03107
G1 X148.991 Y96.654 E3.06252
G1 X149 Y97.432 E3.08839
G1 X148.998 Y122.736 E3.93001
G1 X148.982 Y123.515 E3.95592
G1 X148.922 Y124.451 E3.98712
G1 X148.759 Y125.501 E4.02246
G1 X148.689 Y125.842 E4.03404
G1 X148.462 Y126.752 E4.06523
G1 X148.157 Y127.639 E4.09643
G1 X147.779 Y128.497 E4.12761
G1 X147.328 Y129.32 E4.15883
G1 X147.045 Y129.765 E4.17637
G1 X146.83 Y130.085 E4.18919
G1 X146.274 Y130.84 E4.22038
G1 X145.656 Y131.545 E4.25156
G1 X144.98 Y132.196 E4.28277
G1 X144.251 Y132.786 E4.31396
G1 X143.499 Y133.304 E4.34434
G1 X142.699 Y133.793 E4.37552
G1 X141.859 Y134.211 E4.40673
G1 X140.987 Y134.556 E4.43792
G1 X140.089 Y134.826 E4.46911
G1 X139.492 Y134.96 E4.48946
G1 X139.109 Y135.035 E4.50244
G1 X138.182 Y135.176 E4.53362
G1 X137.157 Y135.239 E4.56778
G1 X136.317 Y135.25 E4.59572
G1 X83.537 Y135.249 E6.35119
G1 X82.827 Y135.238 E6.37481
G1 X81.89 Y135.183 E6.40603
G1 X80.851 Y135.028 E6.44097
G1 X80.474 Y134.953 E6.45375
G1 X79.563 Y134.731 E6.48494
G1 X78.674 Y134.432 E6.51613
G1 X77.813 Y134.058 E6.54736
G1 X76.988 Y133.613 E6.57853
G1 X76.473 Y133.286 E6.59882
G1 X76.151 Y133.069 E6.61174
G1 X75.396 Y132.512 E6.64294
G1 X74.691 Y131.893 E6.67415
G1 X74.042 Y131.216 E6.70534
G1 X73.453 Y130.487 E6.73651
G1 X72.937 Y129.736 E6.76682
G1 X72.45 Y128.935 E6.798
G1 X72.033 Y128.095 E6.82919
G1 X71.689 Y127.222 E6.8604
G1 X71.42 Y126.324 E6.89158
G1 X71.295 Y125.769 E6.9105
G1 X71.22 Y125.391 E6.92332
G1 X71.077 Y124.464 E6.95451
G1 X71.011 Y123.411 E6.9896
G1 X71 Y122.568 E7.01764
G1 X71.001 Y97.287 E7.85849
G0 F6000 X71.401 Y97.293
G1 F1200 X71.412 Y96.583 E7.88211
G1 X71.466 Y95.664 E7.91273
G1 X71.614 Y94.684 E7.94569
G1 X71.689 Y94.306 E7.95851
G1 X71.907 Y93.412 E7.98912
G1 X72.202 Y92.54 E8.01974
G1 X72.571 Y91.696 E8.05037
G1 X73.013 Y90.888 E8.08101
G1 X73.296 Y90.445 E8.09849
G1 X73.511 Y90.126 E8.11128
G1 X74.058 Y89.385 E8.14192
G1 X74.668 Y88.695 E8.17255
G1 X75.335 Y88.061 E8.20316
G1 X76.402 Y87.243 E8.24787
G1 X76.723 Y87.028 E8.26072
G1 X77.51 Y86.549 E8.29137
G1 X78.335 Y86.141 E8.32198
G1 X79.192 Y85.805 E8.3526
G1 X80.075 Y85.545 E8.38321
G1 X80.915 Y85.367 E8.41177
G1 X81.824 Y85.226 E8.44236
G1 X82.805 Y85.164 E8.47506
G1 X83.683 Y85.15 E8.50426
G1 X136.293 Y85.15 E10.25408
G1 X137.167 Y85.162 E10.28315
G1 X138.086 Y85.216 E10.31377
G1 X139.077 Y85.366 E10.34711
G1 X139.453 Y85.441 E10.35986
G1 X140.347 Y85.66 E10.39047
G1 X141.219 Y85.956 E10.4211
G1 X142.061 Y86.326 E10.45169
G1 X142.869 Y86.768 E10.48232
G1 X143.584 Y87.234 E10.51071
G1 X144.327 Y87.778 E10.54134
G1 X145.02 Y88.384 E10.57196
G1 X145.657 Y89.048 E10.60256
G1 X146.497 Y90.137 E10.6483
G1 X146.712 Y90.457 E10.66113
G1 X147.191 Y91.243 E10.69174
G1 X147.601 Y92.068 E10.72238
G1 X147.938 Y92.925 E10.75301
G1 X148.29 Y94.208 E10.79726
G1 X148.361 Y94.549 E10.80884
G1 X148.541 Y95.749 E10.8492
G1 X148.591 Y96.659 E10.87952
G1 X148.6 Y97.432 E10.90523
G1 X148.598 Y122.728 E11.74658
G1 X148.582 Y123.507 E11.77249
G1 X148.523 Y124.425 E11.80309
G1 X148.367 Y125.421 E11.83662
G1 X148.297 Y125.762 E11.8482
G1 X148.073 Y126.654 E11.87879
G1 X147.773 Y127.525 E11.90942
G1 X147.397 Y128.365 E11.94003
G1 X146.713 Y129.542 E11.98531
G1 X146.498 Y129.862 E11.99813
G1 X145.951 Y130.603 E12.02877
G1 X145.343 Y131.294 E12.05938
G1 X144.677 Y131.929 E12.08999
G1 X143.598 Y132.757 E12.13522
G1 X143.277 Y132.972 E12.14807
G1 X142.49 Y133.451 E12.17872
G1 X141.665 Y133.859 E12.20933
G1 X140.808 Y134.195 E12.23994
G1 X139.925 Y134.455 E12.27056
G1 X139.032 Y134.642 E12.30091
G1 X138.122 Y134.78 E12.33152
G1 X137.151 Y134.839 E12.36387
G1 X136.317 Y134.85 E12.39161
G1 X83.543 Y134.849 E14.14689
G1 X82.833 Y134.838 E14.1705
G1 X81.914 Y134.784 E14.20112
G1 X80.929 Y134.635 E14.23426
G1 X80.552 Y134.56 E14.24704
G1 X79.657 Y134.342 E14.27768
G1 X78.786 Y134.046 E14.30828
G1 X77.942 Y133.676 E14.33893
G1 X77.135 Y133.234 E14.36953
G1 X76.696 Y132.954 E14.38685
G1 X76.374 Y132.737 E14.39976
G1 X75.634 Y132.19 E14.43037
G1 X74.944 Y131.581 E14.46098
G1 X74.309 Y130.914 E14.49161
G1 X73.483 Y129.833 E14.53686
G1 X73.27 Y129.514 E14.54962
G1 X72.792 Y128.727 E14.58024
G1 X72.385 Y127.901 E14.61087
G1 X72.05 Y127.044 E14.64147
G1 X71.792 Y126.16 E14.6721
G1 X71.613 Y125.313 E14.70089
G1 X71.473 Y124.403 E14.73152
G1 X71.411 Y123.405 E14.76477
G1 X71.4 Y122.568 E14.79262
G1 X71.401 Y97.293 E15.63327
G0 F6000 X71.801 Y97.299
G1 F1200 X71.812 Y96.589 E15.65688
G1 X71.866 Y95.687 E15.68694
G1 X72.006 Y94.762 E15.71805
G1 X72.081 Y94.384 E15.73087
G1 X72.296 Y93.507 E15.7609
G1 X72.587 Y92.652 E15.79094
G1 X72.953 Y91.826 E15.82099
G1 X73.628 Y90.668 E15.86557
G1 X73.843 Y90.349 E15.87837
G1 X74.38 Y89.623 E15.9084
G1 X74.98 Y88.948 E15.93844
G1 X75.637 Y88.328 E15.96849
G1 X76.625 Y87.575 E16.0098
G1 X76.946 Y87.36 E16.02265
G1 X77.718 Y86.891 E16.0527
G1 X78.528 Y86.493 E16.08271
G1 X79.37 Y86.167 E16.11275
G1 X80.627 Y85.832 E16.15601
G1 X80.993 Y85.759 E16.16843
G1 X81.885 Y85.622 E16.19844
G1 X82.812 Y85.564 E16.22933
G1 X83.683 Y85.55 E16.25831
G1 X136.293 Y85.55 E18.00812
G1 X137.161 Y85.562 E18.037
G1 X138.063 Y85.616 E18.06705
G1 X138.998 Y85.758 E18.0985
G1 X139.374 Y85.833 E18.11126
G1 X140.251 Y86.049 E18.1413
G1 X141.106 Y86.341 E18.17135
G1 X141.931 Y86.708 E18.20138
G1 X143.043 Y87.353 E18.24414
G1 X143.362 Y87.566 E18.25689
G1 X144.09 Y88.1 E18.28692
G1 X144.768 Y88.697 E18.31697
G1 X145.391 Y89.351 E18.34701
G1 X146.165 Y90.361 E18.38933
G1 X146.38 Y90.681 E18.40216
G1 X146.849 Y91.452 E18.43217
G1 X147.249 Y92.261 E18.46219
G1 X147.576 Y93.103 E18.49223
G1 X147.899 Y94.29 E18.53315
G1 X147.97 Y94.631 E18.54473
G1 X148.143 Y95.788 E18.58364
G1 X148.191 Y96.664 E18.61282
G1 X148.2 Y97.432 E18.63837
G1 X148.198 Y122.719 E19.47942
G1 X148.182 Y123.498 E19.50533
G1 X148.123 Y124.4 E19.5354
G1 X147.976 Y125.34 E19.56704
G1 X147.906 Y125.681 E19.57862
G1 X147.685 Y126.557 E19.60867
G1 X147.388 Y127.41 E19.63871
G1 X147.016 Y128.233 E19.66875
G1 X146.381 Y129.318 E19.71056
G1 X146.166 Y129.638 E19.72338
G1 X145.629 Y130.365 E19.75344
G1 X145.031 Y131.041 E19.78346
G1 X144.375 Y131.662 E19.81351
G1 X143.375 Y132.425 E19.85534
G1 X143.054 Y132.64 E19.86819
G1 X142.282 Y133.109 E19.89824
G1 X141.472 Y133.507 E19.92826
G1 X140.63 Y133.833 E19.95829
G1 X139.338 Y134.175 E20.00274
G1 X138.955 Y134.25 E20.01572
G1 X138.062 Y134.384 E20.04575
G1 X137.145 Y134.439 E20.07631
G1 X136.317 Y134.45 E20.10385
G1 X83.549 Y134.449 E21.85892
G1 X82.839 Y134.438 E21.88254
G1 X81.937 Y134.384 E21.91259
G1 X81.007 Y134.243 E21.94388
G1 X80.63 Y134.168 E21.95666
G1 X79.753 Y133.953 E21.98669
G1 X78.898 Y133.661 E22.01674
G1 X78.073 Y133.294 E22.04678
G1 X76.92 Y132.623 E22.09115
G1 X76.598 Y132.406 E22.10406
G1 X75.872 Y131.868 E22.13412
G1 X75.196 Y131.269 E22.16416
G1 X74.577 Y130.612 E22.19418
G1 X73.815 Y129.611 E22.23602
G1 X73.602 Y129.292 E22.24878
G1 X73.134 Y128.52 E22.27881
G1 X72.737 Y127.709 E22.30884
G1 X72.413 Y126.866 E22.33888
G1 X72.08 Y125.613 E22.382
G1 X72.005 Y125.235 E22.39482
G1 X71.869 Y124.342 E22.42486
G1 X71.811 Y123.4 E22.45625
G1 X71.8 Y122.568 E22.48392
G1 X71.801 Y97.299 E23.32437
G1 F1500 E16.82437
;MESH:Door-clip-2.stl
G0 F6000 X85.719 Y102.793
G0 X85.951 Y117.308
G0 X86.121 Y118.287
G0 X86.929 Y119.511
G0 X88.239 Y120.219
G0 X89.879 Y120.218
G1 F1500 E23.32437
G0 F6000 X89.689 Y119.856
;TYPE:WALL-OUTER
G1 F1200 X89.593 Y119.879 E23.32766
G1 X88.376 Y119.873 E23.36814
G1 X88.282 Y119.848 E23.37137
G1 X87.214 Y119.27 E23.41176
G1 X87.142 Y119.204 E23.41501
G1 X86.476 Y118.192 E23.4553
G1 X86.446 Y118.117 E23.45799
G1 X86.302 Y117.294 E23.48578
G1 X86.3 Y117.259 E23.48695
G1 X86.3 Y102.792 E23.96812
G1 X86.304 Y102.75 E23.96952
G1 X86.54 Y101.648 E24.00701
G1 X86.578 Y101.566 E24.01001
G1 X87.274 Y100.677 E24.04757
G1 X87.34 Y100.626 E24.05034
G1 X88.35 Y100.134 E24.08771
G1 X88.438 Y100.114 E24.09071
G1 X89.562 Y100.114 E24.12809
G1 X89.65 Y100.134 E24.13109
G1 X90.66 Y100.626 E24.16846
G1 X90.73 Y100.682 E24.17144
G1 X91.421 Y101.566 E24.20876
G1 X91.459 Y101.647 E24.21174
G1 X91.696 Y102.749 E24.24923
G1 X91.7 Y102.792 E24.25066
G1 X91.7 Y117.307 E24.73343
G1 X91.539 Y118.168 E24.76257
G1 X91.513 Y118.222 E24.76456
G1 X90.834 Y119.226 E24.80487
G1 X90.762 Y119.29 E24.80808
G1 X89.689 Y119.856 E24.84843
G0 F6000 X89.876 Y120.21
;TYPE:WALL-INNER
G1 F1200 X89.595 Y120.279 E24.85805
G1 X88.374 Y120.273 E24.89866
G1 X88.092 Y120.2 E24.90835
G1 X87.024 Y119.622 E24.94874
G1 X86.808 Y119.424 E24.95849
G1 X86.142 Y118.412 E24.99878
G1 X86.052 Y118.186 E25.00687
G1 X85.908 Y117.363 E25.03466
G1 X85.9 Y117.259 E25.03813
G1 X85.9 Y102.792 E25.5193
G1 X85.913 Y102.666 E25.52352
G1 X86.149 Y101.564 E25.561
G1 X86.263 Y101.32 E25.56996
G1 X86.968 Y100.419 E25.60801
G1 X87.165 Y100.266 E25.61631
G1 X88.175 Y99.774 E25.65367
G1 X88.438 Y99.714 E25.66264
G1 X89.562 Y99.714 E25.70003
G1 X89.825 Y99.774 E25.709
G1 X90.835 Y100.266 E25.74637
G1 X91.045 Y100.436 E25.75535
G1 X91.736 Y101.32 E25.79267
G1 X91.85 Y101.563 E25.8016
G1 X92.087 Y102.665 E25.83909
G1 X92.1 Y102.792 E25.84334
G1 X92.101 Y117.287 E26.32544
G1 X92.09 Y117.397 E26.32912
G1 X91.937 Y118.219 E26.35693
G1 X91.845 Y118.446 E26.36507
G1 X91.166 Y119.45 E26.40539
G1 X90.949 Y119.644 E26.41507
G1 X89.876 Y120.21 E26.45542
G1 F1500 E19.95542
G0 F6000 X89.879 Y120.218
G0 X88.265 Y120.119
G0 X86.985 Y119.394
G0 X85.066 Y123.45
G0 X83.058 Y123.641
G1 F1500 E26.45542
G0 F6000 X83.021 Y124.049
;TYPE:WALL-OUTER
G1 F1200 X125.204 Y124.05 E27.85843
G1 X131.538 Y124.049 E28.0691
G1 X136.978 Y124.05 E28.25003
G1 X137.307 Y123.984 E28.2612
G1 X137.562 Y123.812 E28.27143
G1 X137.734 Y123.557 E28.28166
G1 X137.8 Y123.228 E28.29282
G1 X137.8 Y96.769 E29.17285
G1 X137.734 Y96.443 E29.18391
G1 X137.563 Y96.188 E29.19412
G1 X137.307 Y96.016 E29.20438
G1 X136.978 Y95.95 E29.21554
G1 X83.022 Y95.95 E31.01012
G1 X82.693 Y96.016 E31.02128
G1 X82.438 Y96.188 E31.03151
G1 X82.266 Y96.443 E31.04174
G1 X82.2 Y96.772 E31.05291
G1 X82.2 Y123.232 E31.93297
G1 X82.266 Y123.557 E31.944
G1 X82.438 Y123.812 E31.95423
G1 X82.693 Y123.984 E31.96446
G1 X83.021 Y124.049 E31.97558
G0 F6000 X83.108 Y123.649
;TYPE:WALL-INNER
G1 F1200 X125.204 Y123.65 E33.3757
G1 X131.538 Y123.649 E33.58637
G1 X136.939 Y123.65 E33.76601
G1 X137.213 Y123.565 E33.77555
G1 X137.357 Y123.4 E33.78283
G1 X137.4 Y123.139 E33.79163
G1 X137.4 Y96.81 E34.66734
G1 X137.316 Y96.537 E34.67684
G1 X137.151 Y96.393 E34.68412
G1 X136.889 Y96.35 E34.69295
G1 X83.061 Y96.35 E36.48328
G1 X82.787 Y96.434 E36.49281
G1 X82.642 Y96.599 E36.50012
G1 X82.6 Y96.811 E36.5073
G1 X82.6 Y123.192 E37.38474
G1 X82.685 Y123.463 E37.39419
G1 X82.85 Y123.607 E37.40147
G1 X83.108 Y123.649 E37.41016
G1 F1500 E30.91016
G0 F6000 X83.108 Y123.64
G0 X97 Y123.82
G0 X97 Y116.431
G1 F1500 E37.41016
G0 F6000 X97 Y115.85
;TYPE:WALL-OUTER
G1 F1200 X96.855 Y115.789 E37.4154
G1 X96.8 Y115.65 E37.42037
G1 X96.8 Y109.65 E37.61993
G1 X96.861 Y109.505 E37.62516
G1 X97 Y109.45 E37.63013
G1 X123 Y109.45 E38.4949
G1 X123.139 Y109.505 E38.49987
G1 X123.2 Y109.65 E38.5051
G1 X123.2 Y115.65 E38.70466
G1 X123.143 Y115.791 E38.70972
G1 X123 Y115.85 E38.71486
G1 X97 Y115.85 E39.57963
G0 F6000 X97 Y116.25
;TYPE:WALL-INNER
G1 F1200 X96.737 Y116.19 E39.5886
G1 X96.531 Y116.025 E39.59738
G1 X96.408 Y115.754 E39.60728
G1 X96.4 Y115.65 E39.61075
G1 X96.4 Y109.65 E39.81031
G1 X96.49 Y109.333 E39.82127
G1 X96.695 Y109.133 E39.83079
G1 X96.908 Y109.057 E39.83832
G1 X97 Y109.05 E39.84138
G1 X123 Y109.05 E40.70615
G1 X123.195 Y109.082 E40.71272
G1 X123.415 Y109.215 E40.72127
G1 X123.577 Y109.482 E40.73166
G1 X123.6 Y109.65 E40.7373
G1 X123.6 Y115.65 E40.93686
G1 X123.577 Y115.819 E40.94253
G1 X123.429 Y116.071 E40.95225
G1 X123.21 Y116.213 E40.96093
G1 X123 Y116.25 E40.96802
G1 X97 Y116.25 E41.83279
G1 F1500 E35.33279
G0 F6000 X97 Y116.26
G0 X123.41 Y116.06
G0 X127.737 Y117.4
G0 X128.229 Y118.561
G0 X129.074 Y119.638
G0 X130.429 Y120.299
G1 F1500 E41.83279
G0 F6000 X130.431 Y119.891
;TYPE:WALL-OUTER
G1 F1200 X130.344 Y119.87 E41.83576
G1 X129.34 Y119.38 E41.87292
G1 X129.27 Y119.324 E41.8759
G1 X128.58 Y118.445 E41.91307
G1 X128.542 Y118.364 E41.91605
G1 X128.301 Y117.255 E41.95379
G1 X128.3 Y102.774 E42.43543
G1 X128.304 Y102.731 E42.43687
G1 X128.542 Y101.643 E42.47391
G1 X128.58 Y101.562 E42.47689
G1 X129.269 Y100.683 E42.51404
G1 X129.339 Y100.627 E42.51702
G1 X130.34 Y100.136 E42.5541
G1 X130.427 Y100.116 E42.55707
G1 X131.544 Y100.11 E42.59422
G1 X131.631 Y100.129 E42.59718
G1 X132.64 Y100.61 E42.63436
G1 X132.71 Y100.665 E42.63732
G1 X133.408 Y101.537 E42.67447
G1 X133.446 Y101.618 E42.67745
G1 X133.695 Y102.703 E42.71447
G1 X133.7 Y102.748 E42.71598
G1 X133.7 Y117.252 E43.19838
G1 X133.696 Y117.297 E43.19989
G1 X133.449 Y118.383 E43.23693
G1 X133.41 Y118.463 E43.23989
G1 X132.711 Y119.341 E43.27722
G1 X132.643 Y119.394 E43.28008
G1 X131.635 Y119.876 E43.31725
G1 X131.547 Y119.895 E43.32024
G1 X130.431 Y119.891 E43.35736
G0 F6000 X130.429 Y120.291
;TYPE:WALL-INNER
G1 F1200 X130.168 Y120.23 E43.36627
G1 X129.164 Y119.74 E43.40343
G1 X128.955 Y119.571 E43.41237
G1 X128.266 Y118.692 E43.44952
G1 X128.151 Y118.45 E43.45843
G1 X127.913 Y117.361 E43.4955
G1 X127.9 Y117.232 E43.49982
G1 X127.9 Y102.774 E43.98069
G1 X127.913 Y102.645 E43.985
G1 X128.151 Y101.557 E44.02205
G1 X128.265 Y101.315 E44.03094
G1 X128.954 Y100.436 E44.06809
G1 X129.163 Y100.268 E44.07701
G1 X130.164 Y99.777 E44.11409
G1 X130.425 Y99.716 E44.12301
G1 X131.544 Y99.71 E44.16023
G1 X131.803 Y99.768 E44.16905
G1 X132.812 Y100.249 E44.20623
G1 X133.016 Y100.408 E44.21483
G1 X133.72 Y101.287 E44.25229
G1 X133.836 Y101.528 E44.26119
G1 X134.085 Y102.613 E44.29821
G1 X134.1 Y102.748 E44.30273
G1 X134.1 Y117.252 E44.78513
G1 X134.086 Y117.386 E44.78962
G1 X133.839 Y118.472 E44.82666
G1 X133.723 Y118.712 E44.83552
G1 X133.019 Y119.596 E44.87311
