;FLAVOR:Marlin
;TIME:7139
;Filament used: 4.08217m
;Layer height: 0.2
;MINX:71.44
;MINY:43.187
;MINZ:0.2
;MAXX:159.033
;MAXY:178.806
;MAXZ:20.2
;Generated with Cura_SteamEngine 5.0.0
M140 S60
M105
M190 S60
M104 S200
M105
M109 S200
M82 ;absolute extrusion mode
; Ender 3 Custom Start G-code
G92 E0 ; Reset Extruder
G28 ; Home all axes
G1 Z2.0 F3000 ; Move Z Axis up little to prevent scratching of Heat Bed
G1 X0.1 Y20 Z0.3 F5000.0 ; Move to start position
G1 X0.1 Y200.0 Z0.3 F1500.0 E15 ; Draw the first line
G1 X0.4 Y200.0 Z0.3 F5000.0 ; Move to side a little
G1 X0.4 Y20 Z0.3 F1500.0 E30 ; Draw the second line
G92 E0 ; Reset Extruder
G1 Z2.0 F3000 ; Move Z Axis up little to prevent scratching of Heat Bed
G1 X5 Y20 Z0.3 F5000.0 ; Move over to prevent blob squish
G92 E0
G92 E0
G1 F1500 E-6.5
;LAYER_COUNT:101
;LAYER:0
M107
G0 F6000 X111.606 Y53.114 Z0.2
G0 X110.236 Y56.338
;TYPE:SKIRT
G1 F1500 E0
G1 F1200 X110.659 Y55.213 E0.03998
G1 X111.302 Y53.759 E0.09285
G1 X111.606 Y53.114 E0.11657
G1 X112.041 Y52.284 E0.14774
G1 X112.546 Y51.493 E0.17895
G1 X112.926 Y50.984 E0.20008
G1 X113.705 Y50.006 E0.24166
G1 X114.401 Y49.178 E0.27764
G1 X115.034 Y48.486 E0.30883
G1 X115.724 Y47.851 E0.34002
G1 X116.256 Y47.43 E0.36259
G1 X117.191 Y46.739 E0.40126
G1 X118.114 Y46.091 E0.43876
G1 X118.904 Y45.585 E0.46997
G1 X119.734 Y45.149 E0.50115
G1 X120.386 Y44.866 E0.52479
G1 X121.5 Y44.43 E0.56458
G1 X122.555 Y44.045 E0.60193
G1 X123.449 Y43.761 E0.63313
G1 X124.364 Y43.554 E0.66433
G1 X125.258 Y43.43 E0.69435
G1 X127.227 Y43.238 E0.76015
G1 X128.164 Y43.187 E0.79136
G1 X129.101 Y43.216 E0.82254
G1 X129.999 Y43.319 E0.85261
G1 X131.572 Y43.569 E0.90558
G1 X132.238 Y43.691 E0.9281
G1 X133.153 Y43.899 E0.95931
G1 X134.046 Y44.185 E0.9905
G1 X134.686 Y44.442 E1.01344
G1 X136.139 Y45.086 E1.0663
G1 X136.756 Y45.377 E1.08899
G1 X137.587 Y45.813 E1.1202
G1 X138.377 Y46.318 E1.15138
G1 X138.938 Y46.738 E1.17469
G1 X140.197 Y47.752 E1.22846
G1 X140.735 Y48.209 E1.25194
G1 X141.424 Y48.846 E1.28315
G1 X142.055 Y49.54 E1.31435
G1 X142.438 Y50.025 E1.3349
G1 X143.103 Y50.925 E1.37212
G1 X143.772 Y51.876 E1.41079
G1 X144.278 Y52.665 E1.44197
G1 X144.716 Y53.495 E1.47318
G1 X145.081 Y54.359 E1.50438
G1 X145.316 Y55.06 E1.52897
G1 X145.67 Y56.259 E1.57055
G1 X146.054 Y57.674 E1.61931
G1 X146.261 Y58.589 E1.65052
G1 X146.366 Y59.299 E1.67439
G1 X146.482 Y60.345 E1.70939
G1 X146.539 Y60.997 E1.73116
G1 X146.576 Y61.623 E1.75202
G1 X146.61 Y62.757 E1.78975
G1 X146.724 Y65.323 E1.87518
G1 X146.907 Y67.841 E1.95915
G1 X147.158 Y70.326 E2.04222
G1 X147.485 Y72.845 E2.12671
G1 X147.883 Y75.344 E2.21087
G1 X148.342 Y77.793 E2.29374
G1 X148.882 Y80.281 E2.37842
G1 X149.471 Y82.664 E2.46007
G1 X150.158 Y85.143 E2.54562
G1 X150.897 Y87.541 E2.62908
G1 X151.701 Y89.909 E2.71226
G1 X152.584 Y92.29 E2.79672
G1 X153.527 Y94.626 E2.88051
G1 X154.517 Y96.89 E2.9627
G1 X155.607 Y99.206 E3.04783
G1 X156.744 Y101.451 E3.13153
G1 X157.539 Y102.924 E3.1872
G1 X157.793 Y103.415 E3.20559
G1 X158.188 Y104.265 E3.23676
G1 X158.509 Y105.147 E3.26798
G1 X158.754 Y106.052 E3.29917
G1 X158.921 Y106.975 E3.33036
G1 X159.018 Y108.129 E3.36888
G1 X159.033 Y108.792 E3.39094
G1 X159.032 Y113.047 E3.53246
G1 X159.013 Y114.061 E3.56619
G1 X158.988 Y114.646 E3.58567
G1 X158.915 Y117.204 E3.67078
G1 X158.915 Y119.729 E3.75476
G1 X158.987 Y122.3 E3.84031
G1 X159.028 Y123.425 E3.87775
G1 X159.033 Y127.826 E4.02413
G1 X159.022 Y128.705 E4.05337
G1 X158.969 Y129.641 E4.08455
G1 X158.837 Y130.57 E4.11576
G1 X158.626 Y131.484 E4.14696
G1 X158.338 Y132.376 E4.17813
G1 X157.974 Y133.241 E4.20934
G1 X157.539 Y134.072 E4.24054
G1 X157.034 Y134.862 E4.27173
G1 X156.464 Y135.607 E4.30293
G1 X155.833 Y136.3 E4.3341
G1 X155.145 Y136.937 E4.36528
G1 X154.405 Y137.514 E4.39649
G1 X153.618 Y138.025 E4.4277
G1 X152.791 Y138.467 E4.45889
G1 X151.998 Y138.811 E4.48764
G1 X151.259 Y139.095 E4.51397
G1 X149.974 Y139.57 E4.55954
G1 X147.6 Y140.525 E4.64465
G1 X145.284 Y141.534 E4.72867
G1 X143.029 Y142.593 E4.81153
G1 X140.746 Y143.745 E4.89658
G1 X138.571 Y144.92 E4.97881
G1 X136.402 Y146.174 E5.06214
G1 X134.241 Y147.505 E5.14655
G1 X132.117 Y148.898 E5.23103
G1 X130.068 Y150.326 E5.3141
G1 X128.048 Y151.821 E5.39769
G1 X126.054 Y153.386 E5.48199
G1 X124.121 Y154.992 E5.56558
G1 X122.222 Y156.665 E5.64976
G1 X120.403 Y158.359 E5.73243
G1 X118.605 Y160.132 E5.81642
G1 X116.873 Y161.94 E5.89969
G1 X115.157 Y163.836 E5.98474
G1 X113.532 Y165.736 E6.0679
G1 X111.956 Y167.688 E6.15134
G1 X110.427 Y169.697 E6.23531
G1 X108.965 Y171.732 E6.31865
G1 X108.221 Y172.842 E6.3631
G1 X107.417 Y174.015 E6.4104
G1 X106.855 Y174.765 E6.44157
G1 X106.23 Y175.465 E6.47278
G1 X105.548 Y176.109 E6.50398
G1 X104.814 Y176.692 E6.53516
G1 X104.032 Y177.211 E6.56637
G1 X103.21 Y177.661 E6.59754
G1 X102.352 Y178.04 E6.62874
G1 X101.464 Y178.344 E6.65996
G1 X100.555 Y178.572 E6.69113
G1 X99.629 Y178.721 E6.72232
G1 X98.53 Y178.794 E6.75895
G1 X97.746 Y178.806 E6.78503
G1 X87.211 Y178.799 E7.13543
G1 X86.554 Y178.789 E7.15728
G1 X85.617 Y178.734 E7.1885
G1 X84.689 Y178.601 E7.21968
G1 X83.776 Y178.388 E7.25086
G1 X82.883 Y178.099 E7.28208
G1 X82.019 Y177.735 E7.31327
G1 X81.189 Y177.298 E7.34446
G1 X80.399 Y176.792 E7.37567
G1 X79.656 Y176.221 E7.40683
G1 X78.963 Y175.588 E7.43805
G1 X78.327 Y174.899 E7.46924
G1 X77.752 Y174.158 E7.50043
G1 X77.44 Y173.694 E7.51903
G1 X76.985 Y172.978 E7.54725
G1 X75.587 Y170.847 E7.63201
G1 X73.794 Y168.288 E7.73594
G1 X73.535 Y167.932 E7.75058
G1 X73.016 Y167.15 E7.7818
G1 X72.566 Y166.327 E7.813
G1 X72.188 Y165.469 E7.84418
G1 X71.885 Y164.582 E7.87536
G1 X71.658 Y163.672 E7.90655
G1 X71.509 Y162.746 E7.93775
G1 X71.44 Y161.81 E7.96896
G1 X71.451 Y160.872 E8.00016
G1 X71.542 Y159.939 E8.03134
G1 X71.666 Y159.228 E8.05535
G1 X72.21 Y156.612 E8.14422
G1 X72.654 Y154.138 E8.22782
G1 X73.027 Y151.653 E8.31139
G1 X73.334 Y149.122 E8.39619
G1 X73.587 Y146.389 E8.48748
G1 X73.696 Y145.559 E8.51532
G1 X73.868 Y144.553 E8.54927
G1 X75.558 Y135.515 E8.85508
G1 X75.691 Y134.849 E8.87767
G1 X75.842 Y134.195 E8.9
G1 X76.086 Y133.278 E8.93156
G1 X79.829 Y119.866 E9.39469
G1 X80.005 Y119.267 E9.41545
G1 X80.211 Y118.638 E9.43747
G1 X80.569 Y117.647 E9.47251
G1 X82.463 Y112.652 E9.65019
G1 X82.921 Y111.511 E9.69108
G1 X88.492 Y98.775 E10.15344
G1 X88.73 Y98.251 E10.17258
G1 X89.038 Y97.625 E10.19578
G1 X89.724 Y96.345 E10.24408
G1 X93.024 Y90.464 E10.46838
G1 X93.788 Y89.144 E10.5191
G1 X99.316 Y79.87 E10.8782
G1 X100.413 Y78.087 E10.94783
G1 X101.044 Y77.078 E10.98741
G1 X102.306 Y74.929 E11.0703
G1 X103.523 Y72.716 E11.1543
G1 X104.675 Y70.472 E11.2382
G1 X105.752 Y68.219 E11.32125
G1 X106.774 Y65.918 E11.40499
G1 X107.752 Y63.534 E11.4907
G1 X108.624 Y61.225 E11.57279
G1 X109.445 Y58.851 E11.65634
G1 X110.236 Y56.338 E11.74396
G1 F1500 E5.24396
G0 F6000 X109.004 Y61.349
G1 F1500 E11.74396
G1 F1200 X109.829 Y58.965 E11.82787
G1 X110.618 Y56.458 E11.91528
G1 X111.025 Y55.374 E11.9538
G1 X111.664 Y53.93 E12.00632
G1 X111.968 Y53.285 E12.03003
G1 X112.396 Y52.47 E12.06065
G1 X112.893 Y51.695 E12.09127
G1 X113.239 Y51.232 E12.1105
G1 X114.011 Y50.263 E12.1517
G1 X114.707 Y49.435 E12.18768
G1 X115.329 Y48.757 E12.21828
G1 X116.008 Y48.135 E12.24891
G1 X116.495 Y47.751 E12.26954
G1 X117.421 Y47.067 E12.30783
G1 X118.344 Y46.419 E12.34533
G1 X119.12 Y45.923 E12.37597
G1 X119.936 Y45.496 E12.4066
G1 X120.533 Y45.238 E12.42823
G1 X121.637 Y44.805 E12.46767
G1 X122.692 Y44.42 E12.50502
G1 X123.57 Y44.143 E12.53565
G1 X124.468 Y43.942 E12.56625
G1 X125.297 Y43.828 E12.59408
G1 X127.266 Y43.636 E12.65988
G1 X128.186 Y43.587 E12.69053
G1 X129.106 Y43.617 E12.72114
G1 X129.937 Y43.714 E12.74897
G1 X131.5 Y43.962 E12.80161
G1 X132.166 Y44.084 E12.82412
G1 X133.063 Y44.29 E12.85474
G1 X133.94 Y44.572 E12.88538
G1 X134.525 Y44.809 E12.90637
G1 X135.969 Y45.448 E12.95889
G1 X136.586 Y45.739 E12.98158
G1 X137.401 Y46.167 E13.0122
G1 X138.175 Y46.665 E13.04281
G1 X138.688 Y47.05 E13.06414
G1 X139.938 Y48.057 E13.11753
G1 X140.476 Y48.514 E13.14101
G1 X141.152 Y49.14 E13.17165
G1 X141.77 Y49.822 E13.20226
G1 X142.117 Y50.264 E13.22095
G1 X142.776 Y51.155 E13.25781
G1 X143.445 Y52.106 E13.29648
G1 X143.941 Y52.881 E13.32709
G1 X144.369 Y53.697 E13.35774
G1 X144.724 Y54.546 E13.38834
G1 X144.932 Y55.174 E13.41035
G1 X145.284 Y56.364 E13.45162
G1 X145.668 Y57.779 E13.50039
G1 X145.87 Y58.677 E13.531
G1 X145.969 Y59.344 E13.55343
G1 X146.084 Y60.38 E13.5881
G1 X146.141 Y61.032 E13.60986
G1 X146.176 Y61.635 E13.62995
G1 X146.209 Y62.717 E13.66596
G1 X146.326 Y65.369 E13.75425
G1 X146.508 Y67.874 E13.83779
G1 X146.762 Y70.385 E13.92173
G1 X147.087 Y72.888 E14.00568
G1 X147.488 Y75.409 E14.09058
G1 X147.951 Y77.873 E14.17397
G1 X148.489 Y80.355 E14.25844
G1 X149.092 Y82.794 E14.342
G1 X149.769 Y85.239 E14.42638
G1 X150.512 Y87.65 E14.51029
G1 X151.334 Y90.072 E14.59536
G1 X152.21 Y92.431 E14.67906
G1 X153.149 Y94.757 E14.76249
G1 X154.166 Y97.085 E14.84698
G1 X155.246 Y99.379 E14.93131
G1 X156.385 Y101.628 E15.01516
G1 X157.184 Y103.108 E15.0711
G1 X157.438 Y103.599 E15.08949
G1 X157.825 Y104.434 E15.1201
G1 X158.138 Y105.3 E15.15073
G1 X158.375 Y106.189 E15.18133
G1 X158.534 Y107.096 E15.21195
G1 X158.618 Y108.141 E15.24682
G1 X158.633 Y108.792 E15.26848
G1 X158.632 Y113.041 E15.4098
G1 X158.614 Y114.044 E15.44317
G1 X158.59 Y114.619 E15.46231
G1 X158.515 Y117.227 E15.54909
G1 X158.515 Y119.74 E15.63267
G1 X158.586 Y122.289 E15.71748
G1 X158.61 Y122.824 E15.7353
G1 X158.633 Y123.748 E15.76604
G1 X158.632 Y127.972 E15.90653
G1 X158.622 Y128.7 E15.93074
G1 X158.569 Y129.619 E15.96136
G1 X158.437 Y130.53 E15.99198
G1 X158.226 Y131.426 E16.02259
G1 X157.939 Y132.301 E16.05322
G1 X157.576 Y133.147 E16.08384
G1 X157.142 Y133.959 E16.11446
G1 X156.638 Y134.729 E16.14507
G1 X156.07 Y135.454 E16.1757
G1 X155.441 Y136.126 E16.20632
G1 X154.756 Y136.741 E16.23694
G1 X154.02 Y137.294 E16.26756
G1 X153.239 Y137.782 E16.29819
G1 X152.419 Y138.2 E16.3288
G1 X151.853 Y138.438 E16.34922
G1 X151.121 Y138.72 E16.37531
G1 X149.81 Y139.205 E16.4218
G1 X147.44 Y140.159 E16.50678
G1 X145.133 Y141.164 E16.59047
G1 X142.857 Y142.232 E16.67409
G1 X140.583 Y143.379 E16.7588
G1 X138.333 Y144.595 E16.84387
G1 X136.197 Y145.829 E16.92592
G1 X134.017 Y147.172 E17.01108
G1 X131.914 Y148.551 E17.09472
G1 X129.823 Y150.009 E17.1795
G1 X127.808 Y151.5 E17.26288
G1 X125.796 Y153.079 E17.34794
G1 X123.865 Y154.685 E17.43148
G1 X121.988 Y156.337 E17.51464
G1 X120.115 Y158.082 E17.59979
G1 X118.301 Y159.872 E17.68455
G1 X116.57 Y161.677 E17.76773
G1 X114.888 Y163.536 E17.85111
G1 X113.2 Y165.51 E17.9375
G1 X111.641 Y167.44 E18.02002
G1 X110.116 Y169.444 E18.10377
G1 X108.646 Y171.492 E18.18762
G1 X107.891 Y172.616 E18.23266
G1 X107.087 Y173.789 E18.27996
G1 X106.534 Y174.525 E18.31057
G1 X105.92 Y175.21 E18.34117
G1 X105.248 Y175.84 E18.37181
G1 X104.524 Y176.408 E18.40241
G1 X103.753 Y176.912 E18.43305
G1 X102.942 Y177.347 E18.46366
G1 X102.095 Y177.71 E18.49431
G1 X101.221 Y177.998 E18.52492
G1 X100.325 Y178.209 E18.55553
G1 X99.414 Y178.342 E18.58615
G1 X98.523 Y178.394 E18.61584
G1 X97.746 Y178.406 E18.64168
G1 X87.217 Y178.399 E18.99188
G1 X86.56 Y178.389 E19.01374
G1 X85.641 Y178.335 E19.04435
G1 X84.73 Y178.201 E19.07498
G1 X83.834 Y177.989 E19.1056
G1 X82.96 Y177.7 E19.13622
G1 X82.114 Y177.336 E19.16685
G1 X81.303 Y176.901 E19.19746
G1 X80.533 Y176.396 E19.22809
G1 X79.809 Y175.827 E19.25872
G1 X79.138 Y175.197 E19.28933
G1 X78.524 Y174.511 E19.31995
G1 X77.777 Y173.479 E19.36232
G1 X77.334 Y172.782 E19.38979
G1 X75.906 Y170.606 E19.47636
G1 X74.14 Y168.085 E19.57873
G1 X73.858 Y167.697 E19.59469
G1 X73.35 Y166.929 E19.62531
G1 X72.91 Y166.12 E19.65594
G1 X72.543 Y165.276 E19.68655
G1 X72.25 Y164.403 E19.71718
G1 X72.033 Y163.509 E19.74778
G1 X71.895 Y162.598 E19.77843
G1 X71.837 Y161.68 E19.80902
G1 X71.859 Y160.759 E19.83966
G1 X71.96 Y159.844 E19.87028
G1 X72.057 Y159.309 E19.88836
G1 X72.603 Y156.686 E19.97747
G1 X73.048 Y154.202 E20.06141
G1 X73.426 Y151.684 E20.14609
G1 X73.731 Y149.175 E20.23016
G1 X73.985 Y146.426 E20.32198
G1 X74.09 Y145.626 E20.34882
G1 X74.261 Y144.627 E20.38253
G1 X75.95 Y135.593 E20.6882
G1 X76.083 Y134.927 E20.71079
G1 X76.229 Y134.297 E20.7323
G1 X76.471 Y133.385 E20.76369
G1 X80.213 Y119.979 E21.22662
G1 X80.389 Y119.38 E21.24738
G1 X80.587 Y118.774 E21.26858
G1 X80.943 Y117.789 E21.30342
G1 X82.835 Y112.8 E21.48089
G1 X83.288 Y111.671 E21.52135
G1 X88.856 Y98.94 E21.98351
G1 X89.094 Y98.416 E22.00265
G1 X89.391 Y97.814 E22.02498
G1 X90.073 Y96.54 E22.07304
G1 X93.371 Y90.664 E22.29716
G1 X94.132 Y89.349 E22.34769
G1 X99.656 Y80.08 E22.70657
G1 X100.753 Y78.299 E22.77614
G1 X101.369 Y77.313 E22.81481
G1 X102.659 Y75.118 E22.89949
G1 X103.88 Y72.898 E22.98376
G1 X105.028 Y70.662 E23.06736
G1 X106.113 Y68.391 E23.15107
G1 X107.146 Y66.067 E23.23566
G1 X108.12 Y63.691 E23.32107
G1 X109.004 Y61.349 E23.40433
G1 F1500 E16.90433
G0 F6000 X107.51 Y66.231
G1 F1500 E23.40433
G1 F1200 X108.488 Y63.848 E23.49
G1 X109.38 Y61.484 E23.57404
G1 X110.206 Y59.1 E23.65796
G1 X110.999 Y56.578 E23.74589
G1 X111.391 Y55.535 E23.78295
G1 X112.025 Y54.1 E23.83513
G1 X112.329 Y53.455 E23.85884
G1 X112.75 Y52.656 E23.88888
G1 X113.24 Y51.898 E23.9189
G1 X113.553 Y51.48 E23.93627
G1 X114.317 Y50.521 E23.97705
G1 X115.013 Y49.693 E24.01303
G1 X115.624 Y49.028 E24.04306
G1 X116.292 Y48.42 E24.07311
G1 X116.733 Y48.072 E24.09179
G1 X117.651 Y47.394 E24.12975
G1 X118.574 Y46.746 E24.16726
G1 X119.336 Y46.26 E24.19732
G1 X120.137 Y45.844 E24.22734
G1 X120.68 Y45.61 E24.247
G1 X121.774 Y45.181 E24.28609
G1 X122.829 Y44.796 E24.32344
G1 X123.691 Y44.524 E24.3535
G1 X124.572 Y44.33 E24.38351
G1 X125.336 Y44.226 E24.40915
G1 X127.305 Y44.034 E24.47495
G1 X128.207 Y43.986 E24.505
G1 X129.109 Y44.019 E24.53502
G1 X129.875 Y44.109 E24.56067
G1 X131.428 Y44.356 E24.61297
G1 X132.094 Y44.478 E24.63549
G1 X132.974 Y44.68 E24.66552
G1 X133.833 Y44.959 E24.69556
G1 X134.364 Y45.175 E24.71463
G1 X135.798 Y45.81 E24.76679
G1 X136.415 Y46.101 E24.78948
G1 X137.214 Y46.522 E24.81952
G1 X137.973 Y47.012 E24.84957
G1 X138.438 Y47.363 E24.86894
G1 X139.679 Y48.362 E24.92193
G1 X140.217 Y48.819 E24.94541
G1 X140.879 Y49.434 E24.97546
G1 X141.484 Y50.104 E25.00549
G1 X141.796 Y50.503 E25.02233
G1 X142.449 Y51.385 E25.05883
G1 X143.118 Y52.336 E25.09751
G1 X143.604 Y53.097 E25.12754
G1 X144.021 Y53.898 E25.15758
G1 X144.366 Y54.733 E25.18762
G1 X144.549 Y55.288 E25.20706
G1 X144.898 Y56.469 E25.24802
G1 X145.282 Y57.884 E25.29679
G1 X145.48 Y58.765 E25.32682
G1 X145.571 Y59.39 E25.34783
G1 X145.685 Y60.415 E25.38213
G1 X145.742 Y61.067 E25.4039
G1 X145.776 Y61.647 E25.42322
G1 X145.809 Y62.745 E25.45976
G1 X145.926 Y65.381 E25.54752
G1 X146.11 Y67.911 E25.63189
G1 X146.365 Y70.437 E25.71633
G1 X146.69 Y72.936 E25.80015
G1 X147.093 Y75.474 E25.88562
G1 X147.56 Y77.96 E25.96975
G1 X148.104 Y80.464 E26.05497
G1 X148.695 Y82.858 E26.13699
G1 X149.388 Y85.359 E26.22331
G1 X150.138 Y87.792 E26.30799
G1 X150.952 Y90.192 E26.39228
G1 X151.835 Y92.571 E26.47668
G1 X152.787 Y94.93 E26.56129
G1 X153.795 Y97.236 E26.64499
G1 X154.891 Y99.565 E26.7306
G1 X156.026 Y101.806 E26.81415
G1 X156.829 Y103.291 E26.8703
G1 X157.083 Y103.782 E26.88869
G1 X157.462 Y104.602 E26.91874
G1 X157.767 Y105.452 E26.94877
G1 X157.995 Y106.326 E26.97881
G1 X158.146 Y107.216 E27.00884
G1 X158.218 Y108.153 E27.0401
G1 X158.233 Y108.792 E27.06135
G1 X158.232 Y113.035 E27.20248
G1 X158.214 Y114.028 E27.23551
G1 X158.19 Y114.592 E27.25429
G1 X158.115 Y117.216 E27.3416
G1 X158.115 Y119.751 E27.42591
G1 X158.187 Y122.32 E27.51139
G1 X158.211 Y122.836 E27.52857
G1 X158.233 Y123.748 E27.55891
G1 X158.232 Y127.966 E27.6992
G1 X158.222 Y128.694 E27.72342
G1 X158.17 Y129.596 E27.75347
G1 X158.038 Y130.489 E27.78349
G1 X157.827 Y131.367 E27.81353
G1 X157.54 Y132.224 E27.84359
G1 X157.178 Y133.051 E27.87361
G1 X156.745 Y133.843 E27.90364
G1 X156.242 Y134.594 E27.9337
G1 X155.676 Y135.297 E27.96372
G1 X155.05 Y135.948 E27.99376
G1 X154.368 Y136.54 E28.02379
G1 X153.637 Y137.07 E28.05382
