;FLAVOR:Marlin
;TIME:773
;Filament used: 0.494402m
;Layer height: 0.2
;MINX:86.894
;MINY:69.639
;MINZ:0.2
;MAXX:133.114
;MAXY:150.244
;MAXZ:1.8
;Generated with Cura_SteamEngine 5.0.0
M140 S60
M105
M190 S60
M104 S200
M105
M109 S200
M82 ;absolute extrusion mode
; Ender 3 Custom Start G-code
G92 E0 ; Reset Extruder
G28 ; Home all axes
G1 Z2.0 F3000 ; Move Z Axis up little to prevent scratching of Heat Bed
G1 X0.1 Y20 Z0.3 F5000.0 ; Move to start position
G1 X0.1 Y200.0 Z0.3 F1500.0 E15 ; Draw the first line
G1 X0.4 Y200.0 Z0.3 F5000.0 ; Move to side a little
G1 X0.4 Y20 Z0.3 F1500.0 E30 ; Draw the second line
G92 E0 ; Reset Extruder
G1 Z2.0 F3000 ; Move Z Axis up little to prevent scratching of Heat Bed
G1 X5 Y20 Z0.3 F5000.0 ; Move over to prevent blob squish
G92 E0
G92 E0
G1 F1500 E-6.5
;LAYER_COUNT:9
;LAYER:0
M107
G0 F6000 X91.846 Y78.432 Z0.2
G0 X87.032 Y90.589
;TYPE:SKIRT
G1 F1500 E0
G1 F1200 X87.135 Y89.618 E0.03248
G1 X87.217 Y88.931 E0.05549
G1 X87.367 Y88.006 E0.08666
G1 X87.614 Y87.036 E0.11995
G1 X87.983 Y85.831 E0.16186
G1 X88.274 Y84.937 E0.19313
G1 X88.497 Y84.282 E0.21615
G1 X88.837 Y83.408 E0.24734
G1 X89.275 Y82.519 E0.2803
G1 X89.901 Y81.388 E0.3233
G1 X90.409 Y80.513 E0.35695
G1 X90.729 Y79.978 E0.37768
G1 X91.244 Y79.194 E0.40888
G1 X91.846 Y78.432 E0.44118
G1 X92.723 Y77.423 E0.48564
G1 X93.712 Y76.337 E0.5345
G1 X94.373 Y75.671 E0.56571
G1 X95.2 Y74.977 E0.60162
G1 X96.248 Y74.185 E0.64531
G1 X96.997 Y73.643 E0.67606
G1 X97.574 Y73.237 E0.69952
G1 X98.363 Y72.73 E0.73072
G1 X99.237 Y72.272 E0.76353
G1 X100.386 Y71.737 E0.80569
G1 X101.772 Y71.128 E0.85604
G1 X102.646 Y70.788 E0.88723
G1 X103.703 Y70.485 E0.92381
G1 X104.947 Y70.198 E0.96627
G1 X105.895 Y69.997 E0.9985
G1 X106.549 Y69.868 E1.02067
G1 X107.476 Y69.726 E1.05186
G1 X108.456 Y69.662 E1.08453
G1 X109.785 Y69.639 E1.12874
G1 X111.274 Y69.648 E1.17826
G1 X112.211 Y69.694 E1.20946
G1 X113.275 Y69.844 E1.2452
G1 X114.529 Y70.086 E1.28768
G1 X115.509 Y70.296 E1.32101
G1 X116.14 Y70.44 E1.34254
G1 X117.045 Y70.687 E1.37374
G1 X117.966 Y71.028 E1.40641
G1 X119.163 Y71.536 E1.44966
G1 X120.541 Y72.158 E1.49994
G1 X121.378 Y72.58 E1.53112
G1 X122.314 Y73.166 E1.56785
G1 X123.36 Y73.901 E1.61037
G1 X124.58 Y74.798 E1.66073
G1 X125.311 Y75.385 E1.69192
G1 X126.095 Y76.143 E1.72819
G1 X126.957 Y77.067 E1.77022
G1 X127.652 Y77.842 E1.80484
G1 X128.056 Y78.305 E1.82528
G1 X128.642 Y79.037 E1.85646
G1 X129.186 Y79.853 E1.88908
G1 X129.832 Y80.927 E1.93077
G1 X130.342 Y81.811 E1.96471
G1 X130.645 Y82.353 E1.98536
G1 X131.068 Y83.191 E2.01659
G1 X131.436 Y84.116 E2.0497
G1 X131.845 Y85.3 E2.09136
G1 X132.143 Y86.219 E2.12349
G1 X132.348 Y86.881 E2.14654
G1 X132.587 Y87.788 E2.17774
G1 X132.756 Y88.774 E2.21101
G1 X132.917 Y90.1 E2.25544
G1 X133.062 Y91.573 E2.30467
G1 X133.114 Y92.51 E2.33588
G1 X133.075 Y93.585 E2.37166
G1 X133.03 Y94.113 E2.38928
G1 X132.911 Y95.043 E2.42047
G1 X132.713 Y95.96 E2.45167
G1 X132.42 Y96.903 E2.48451
G1 X132.289 Y97.266 E2.49735
G1 X131.447 Y99.719 E2.58361
G1 X130.694 Y102.127 E2.66752
G1 X130.013 Y104.548 E2.75117
G1 X129.386 Y107.048 E2.8369
G1 X128.857 Y109.435 E2.91822
G1 X128.373 Y111.963 E3.00382
G1 X127.978 Y114.392 E3.08567
G1 X127.642 Y116.904 E3.16997
G1 X127.375 Y119.433 E3.25455
G1 X127.185 Y121.925 E3.33768
G1 X127.065 Y124.423 E3.42085
G1 X127.015 Y126.947 E3.50482
G1 X127.037 Y129.494 E3.58954
G1 X127.106 Y131.55 E3.65796
G1 X127.161 Y132.748 E3.69785
G1 X127.163 Y133.685 E3.72901
G1 X127.086 Y134.62 E3.76021
G1 X126.857 Y135.863 E3.80225
G1 X126.392 Y137.764 E3.86734
G1 X126.131 Y138.664 E3.89851
G1 X125.793 Y139.539 E3.92971
G1 X125.491 Y140.177 E3.95319
G1 X125.148 Y140.836 E3.9779
G1 X124.448 Y142.113 E4.02633
G1 X123.717 Y143.27 E4.07185
G1 X123.584 Y143.454 E4.0794
G1 X123.003 Y144.19 E4.11059
G1 X122.196 Y145.032 E4.14938
G1 X121.117 Y146.038 E4.19845
G1 X120.551 Y146.541 E4.22363
G1 X119.824 Y147.134 E4.25484
G1 X119.049 Y147.662 E4.28603
G1 X117.844 Y148.311 E4.33155
G1 X117.138 Y148.632 E4.35734
G1 X115.839 Y149.191 E4.40438
G1 X114.963 Y149.525 E4.43556
G1 X114.061 Y149.783 E4.46676
G1 X113.14 Y149.963 E4.49798
G1 X112.628 Y150.028 E4.51514
G1 X111.8 Y150.109 E4.54281
G1 X110.394 Y150.214 E4.58971
G1 X109.457 Y150.244 E4.62089
G1 X108.52 Y150.194 E4.6521
G1 X107.133 Y149.971 E4.69882
G1 X106.361 Y149.79 E4.72519
G1 X105.16 Y149.478 E4.76646
G1 X104.363 Y149.246 E4.79407
G1 X103.478 Y148.938 E4.82524
G1 X102.621 Y148.555 E4.85646
G1 X101.673 Y148.022 E4.89263
G1 X100.62 Y147.359 E4.93402
G1 X99.663 Y146.712 E4.97244
G1 X98.913 Y146.15 E5.00361
G1 X98.213 Y145.525 E5.03483
G1 X97.368 Y144.604 E5.0764
G1 X96.906 Y144.031 E5.10088
G1 X95.999 Y142.851 E5.15038
G1 X95.459 Y142.083 E5.18161
G1 X94.987 Y141.273 E5.21279
G1 X94.491 Y140.194 E5.25228
G1 X94.23 Y139.503 E5.27685
G1 X93.841 Y138.37 E5.3167
G1 X93.626 Y137.71 E5.33978
G1 X93.377 Y136.821 E5.37049
G1 X93.156 Y135.881 E5.40261
G1 X92.98 Y134.959 E5.43383
G1 X92.884 Y134.026 E5.46502
G1 X92.863 Y133.23 E5.4915
G1 X92.875 Y132.654 E5.51067
G1 X92.914 Y131.831 E5.53807
G1 X93 Y129.245 E5.62413
G1 X93.012 Y126.723 E5.70801
G1 X92.953 Y124.199 E5.79198
G1 X92.825 Y121.712 E5.87481
G1 X92.623 Y119.19 E5.95896
G1 X92.351 Y116.688 E6.04267
G1 X92.007 Y114.182 E6.1268
G1 X91.598 Y111.721 E6.20978
G1 X91.108 Y109.217 E6.29464
G1 X90.562 Y106.79 E6.37738
G1 X89.94 Y104.342 E6.46139
G1 X89.254 Y101.941 E6.54444
G1 X88.492 Y99.535 E6.62838
G1 X87.981 Y98.08 E6.67967
G1 X87.543 Y96.802 E6.72461
G1 X87.277 Y95.903 E6.75579
G1 X87.034 Y94.598 E6.79994
G1 X86.971 Y94.093 E6.81687
G1 X86.894 Y93.158 E6.84807
G1 X86.927 Y91.786 E6.89372
G1 X87.032 Y90.589 E6.93368
G0 F6000 X87.293 Y93.126
G1 F1200 X87.325 Y91.82 E6.97713
G1 X87.43 Y90.63 E7.01686
G1 X87.532 Y89.666 E7.04911
G1 X87.614 Y88.979 E7.07212
G1 X87.762 Y88.07 E7.10275
G1 X87.997 Y87.152 E7.13427
G1 X88.363 Y85.955 E7.1759
G1 X88.653 Y85.066 E7.207
G1 X88.876 Y84.411 E7.23001
G1 X89.21 Y83.553 E7.26064
G1 X89.626 Y82.712 E7.29184
G1 X90.248 Y81.588 E7.33457
G1 X90.752 Y80.718 E7.36801
G1 X91.072 Y80.183 E7.38875
G1 X91.579 Y79.414 E7.41938
G1 X92.149 Y78.693 E7.44995
G1 X93.019 Y77.692 E7.49406
G1 X94.008 Y76.606 E7.54292
G1 X94.657 Y75.953 E7.57354
G1 X95.441 Y75.296 E7.60756
G1 X96.483 Y74.509 E7.65099
G1 X97.227 Y73.97 E7.68155
G1 X97.804 Y73.564 E7.70501
G1 X98.579 Y73.067 E7.73563
G1 X99.406 Y72.634 E7.76668
G1 X100.547 Y72.103 E7.80854
G1 X101.933 Y71.494 E7.85889
G1 X102.791 Y71.161 E7.8895
G1 X103.794 Y70.875 E7.92419
G1 X105.03 Y70.589 E7.96639
G1 X105.973 Y70.389 E7.99845
G1 X106.627 Y70.26 E8.02062
G1 X107.537 Y70.122 E8.05124
G1 X108.464 Y70.062 E8.08213
G1 X109.783 Y70.039 E8.12601
G1 X111.272 Y70.048 E8.17553
G1 X112.192 Y70.094 E8.20617
G1 X113.2 Y70.237 E8.24003
G1 X114.446 Y70.477 E8.28224
G1 X115.42 Y70.686 E8.31537
G1 X116.051 Y70.83 E8.3369
G1 X116.939 Y71.073 E8.36752
G1 X117.811 Y71.397 E8.39846
G1 X118.998 Y71.901 E8.44135
G1 X120.376 Y72.523 E8.49163
G1 X121.198 Y72.937 E8.52225
G1 X122.085 Y73.494 E8.55708
G1 X123.123 Y74.223 E8.59927
G1 X124.343 Y75.12 E8.64964
G1 X125.06 Y75.697 E8.68025
G1 X125.803 Y76.417 E8.71466
G1 X126.66 Y77.335 E8.75643
G1 X127.351 Y78.105 E8.79084
G1 X127.755 Y78.568 E8.81128
G1 X128.33 Y79.287 E8.8419
G1 X128.843 Y80.06 E8.87275
G1 X129.486 Y81.128 E8.91422
G1 X129.993 Y82.007 E8.94797
G1 X130.296 Y82.549 E8.96862
G1 X130.71 Y83.371 E8.99923
G1 X131.058 Y84.247 E9.03058
G1 X131.465 Y85.424 E9.072
G1 X131.761 Y86.337 E9.10393
G1 X131.966 Y86.999 E9.12698
G1 X132.2 Y87.89 E9.15761
G1 X132.359 Y88.824 E9.18913
G1 X132.519 Y90.14 E9.23322
G1 X132.664 Y91.613 E9.28245
G1 X132.714 Y92.532 E9.31306
G1 X132.677 Y93.551 E9.34697
G1 X132.632 Y94.079 E9.3646
G1 X132.514 Y94.992 E9.39522
G1 X132.317 Y95.892 E9.42586
G1 X132.044 Y96.768 E9.45638
G1 X131.907 Y97.148 E9.46981
G1 X131.062 Y99.607 E9.5563
G1 X130.312 Y102.005 E9.63986
G1 X129.626 Y104.448 E9.72426
G1 X129 Y106.944 E9.80985
G1 X128.46 Y109.378 E9.89277
G1 X127.986 Y111.855 E9.97665
G1 X127.575 Y114.381 E10.06177
G1 X127.245 Y116.846 E10.14449
G1 X126.977 Y119.393 E10.22967
G1 X126.788 Y121.876 E10.31249
G1 X126.665 Y124.432 E10.39761
G1 X126.615 Y126.942 E10.48111
G1 X126.637 Y129.51 E10.56652
G1 X126.707 Y131.583 E10.63551
G1 X126.761 Y132.766 E10.6749
G1 X126.763 Y133.686 E10.7055
G1 X126.685 Y134.604 E10.73614
G1 X126.468 Y135.768 E10.77552
G1 X126.003 Y137.669 E10.84061
G1 X125.746 Y138.553 E10.87123
G1 X125.413 Y139.411 E10.90184
G1 X125.135 Y139.994 E10.92332
G1 X124.797 Y140.644 E10.94769
G1 X124.097 Y141.921 E10.99613
G1 X123.393 Y143.036 E11.03999
G1 X123.26 Y143.22 E11.04754
G1 X122.689 Y143.942 E11.07815
G1 X121.922 Y144.74 E11.11497
G1 X120.851 Y145.739 E11.16368
G1 X120.285 Y146.242 E11.18886
G1 X119.571 Y146.823 E11.21948
G1 X118.809 Y147.34 E11.25011
G1 X117.677 Y147.948 E11.29285
G1 X116.98 Y148.265 E11.31831
G1 X115.681 Y148.824 E11.36535
G1 X114.82 Y149.151 E11.39598
G1 X113.935 Y149.402 E11.42658
G1 X112.587 Y149.63 E11.47205
G1 X111.77 Y149.711 E11.49936
G1 X110.364 Y149.816 E11.54625
G1 X109.444 Y149.844 E11.57686
G1 X108.525 Y149.793 E11.60748
G1 X107.222 Y149.581 E11.65138
G1 X106.462 Y149.402 E11.67735
G1 X105.261 Y149.09 E11.71862
G1 X104.479 Y148.863 E11.74571
G1 X103.609 Y148.56 E11.77635
G1 X102.77 Y148.182 E11.80696
G1 X101.886 Y147.683 E11.84072
G1 X100.833 Y147.02 E11.88211
G1 X100.487 Y146.793 E11.89587
G1 X99.889 Y146.383 E11.91998
G1 X99.153 Y145.829 E11.95062
G1 X98.468 Y145.215 E11.98122
G1 X97.678 Y144.351 E12.02016
G1 X97.223 Y143.787 E12.04426
G1 X96.316 Y142.607 E12.09376
G1 X95.787 Y141.853 E12.1244
G1 X95.326 Y141.057 E12.15499
G1 X94.863 Y140.047 E12.19194
G1 X94.608 Y139.373 E12.21591
G1 X94.221 Y138.246 E12.25555
G1 X94.006 Y137.586 E12.27863
G1 X93.766 Y136.729 E12.30823
G1 X93.545 Y135.789 E12.34035
G1 X93.374 Y134.884 E12.37098
G1 X93.281 Y133.968 E12.40161
G1 X93.263 Y133.227 E12.42626
G1 X93.275 Y132.673 E12.44469
G1 X93.313 Y131.862 E12.47169
G1 X93.4 Y129.262 E12.55822
G1 X93.412 Y126.715 E12.64293
G1 X93.354 Y124.204 E12.72647
G1 X93.222 Y121.66 E12.8112
G1 X93.021 Y119.148 E12.89501
G1 X92.747 Y116.626 E12.97939
G1 X92.406 Y114.139 E13.06288
G1 X91.991 Y111.644 E13.14701
G1 X91.505 Y109.158 E13.23126
G1 X90.948 Y106.684 E13.3156
G1 X90.332 Y104.262 E13.39872
G1 X89.633 Y101.816 E13.48333
G1 X88.871 Y99.408 E13.56734
G1 X88.36 Y97.951 E13.61869
G1 X87.922 Y96.673 E13.66363
G1 X87.661 Y95.79 E13.69425
G1 X87.431 Y94.548 E13.73626
G1 X87.368 Y94.043 E13.75319
G1 X87.293 Y93.126 E13.78379
G0 F6000 X87.692 Y93.093
G1 F1200 X87.724 Y91.854 E13.82501
G1 X87.827 Y90.672 E13.86448
G1 X87.929 Y89.713 E13.89655
G1 X88.011 Y89.026 E13.91956
G1 X88.158 Y88.135 E13.9496
G1 X88.38 Y87.269 E13.97933
G1 X88.744 Y86.078 E14.02076
G1 X89.031 Y85.195 E14.05164
G1 X89.254 Y84.54 E14.07465
G1 X89.583 Y83.698 E14.10472
G1 X89.976 Y82.905 E14.13415
G1 X90.594 Y81.788 E14.17661
G1 X91.095 Y80.923 E14.20986
G1 X91.415 Y80.388 E14.23059
G1 X91.913 Y79.634 E14.26065
G1 X92.451 Y78.955 E14.28946
G1 X93.315 Y77.961 E14.33327
G1 X94.304 Y76.875 E14.38212
G1 X94.941 Y76.235 E14.41215
G1 X95.683 Y75.615 E14.44431
G1 X96.718 Y74.832 E14.48748
G1 X97.457 Y74.297 E14.51782
G1 X98.034 Y73.891 E14.54129
G1 X98.795 Y73.405 E14.57132
G1 X99.576 Y72.997 E14.60063
G1 X100.708 Y72.47 E14.64216
G1 X102.094 Y71.861 E14.69251
G1 X102.936 Y71.534 E14.72255
G1 X103.885 Y71.265 E14.75536
G1 X105.113 Y70.98 E14.79729
G1 X106.05 Y70.782 E14.82914
G1 X106.704 Y70.653 E14.85131
G1 X107.597 Y70.517 E14.88136
G1 X108.472 Y70.462 E14.91052
G1 X109.781 Y70.439 E14.95406
G1 X111.27 Y70.448 E15.00359
G1 X112.172 Y70.494 E15.03363
G1 X113.125 Y70.63 E15.06565
G1 X114.363 Y70.869 E15.10758
G1 X115.331 Y71.076 E15.14051
G1 X115.962 Y71.22 E15.16203
G1 X116.833 Y71.459 E15.19207
G1 X117.656 Y71.765 E15.22128
G1 X118.833 Y72.265 E15.26381
G1 X120.211 Y72.887 E15.31409
G1 X121.017 Y73.295 E15.34414
G1 X121.856 Y73.822 E15.37709
G1 X122.886 Y74.545 E15.41895
G1 X124.106 Y75.442 E15.46931
G1 X124.809 Y76.009 E15.49935
G1 X125.511 Y76.69 E15.53188
G1 X126.362 Y77.602 E15.57337
G1 X127.05 Y78.368 E15.60762
G1 X127.454 Y78.831 E15.62805
G1 X128.017 Y79.537 E15.65809
G1 X128.501 Y80.266 E15.68719
G1 X129.14 Y81.328 E15.72842
G1 X129.644 Y82.202 E15.76197
G1 X129.947 Y82.744 E15.78262
G1 X130.353 Y83.551 E15.81267
G1 X130.681 Y84.378 E15.84226
G1 X131.084 Y85.547 E15.88339
G1 X131.379 Y86.456 E15.91517
G1 X131.584 Y87.118 E15.93822
G1 X131.812 Y87.991 E15.96823
G1 X131.962 Y88.873 E15.99799
G1 X132.121 Y90.179 E16.04175
G1 X132.266 Y91.652 E16.09098
G1 X132.315 Y92.554 E16.12102
G1 X132.278 Y93.517 E16.15308
G1 X132.233 Y94.045 E16.1707
G1 X132.117 Y94.941 E16.20075
G1 X131.921 Y95.822 E16.23077
G1 X131.668 Y96.632 E16.25899
G1 X130.675 Y99.505 E16.3601
G1 X129.934 Y101.874 E16.44265
G1 X129.236 Y104.356 E16.52841
G1 X128.609 Y106.858 E16.6142
G1 X128.07 Y109.288 E16.69698
G1 X127.591 Y111.787 E16.78162
G1 X127.183 Y114.301 E16.86633
G1 X126.845 Y116.822 E16.95092
G1 X126.579 Y119.357 E17.0357
G1 X126.388 Y121.862 E17.11926
G1 X126.265 Y124.403 E17.20387
G1 X126.215 Y126.938 E17.2882
G1 X126.237 Y129.528 E17.37435
G1 X126.308 Y131.612 E17.4437
G1 X126.361 Y132.784 E17.48273
G1 X126.363 Y133.687 E17.51276
G1 X126.284 Y134.587 E17.54281
G1 X126.08 Y135.673 E17.57956
G1 X125.615 Y137.574 E17.64465
G1 X125.362 Y138.44 E17.67466
G1 X125.033 Y139.282 E17.70473
G1 X124.78 Y139.811 E17.72423
G1 X124.446 Y140.452 E17.74827
G1 X123.746 Y141.729 E17.79671
G1 X123.069 Y142.801 E17.83888
G1 X122.936 Y142.985 E17.84643
G1 X122.375 Y143.693 E17.87647
G1 X121.648 Y144.448 E17.91133
G1 X120.586 Y145.44 E17.95967
G1 X120.02 Y145.943 E17.98485
G1 X119.319 Y146.513 E18.0149
G1 X118.57 Y147.018 E18.04495
G1 X117.509 Y147.584 E18.08494
G1 X116.822 Y147.897 E18.11005
G1 X115.523 Y148.456 E18.15709
G1 X114.678 Y148.776 E18.18714
G1 X113.809 Y149.02 E18.21716
G1 X112.545 Y149.232 E18.25979
G1 X111.741 Y149.312 E18.28666
G1 X110.335 Y149.417 E18.33356
G1 X109.432 Y149.444 E18.36361
G1 X108.53 Y149.391 E18.39366
G1 X107.311 Y149.19 E18.43475
G1 X106.562 Y149.015 E18.46033
G1 X105.361 Y148.703 E18.5016
G1 X104.594 Y148.48 E18.52817
G1 X103.742 Y148.182 E18.55819
G1 X102.919 Y147.809 E18.58824
G1 X102.099 Y147.345 E18.61958
G1 X101.046 Y146.682 E18.66097
G1 X100.115 Y146.053 E18.69834
G1 X99.394 Y145.509 E18.72838
G1 X98.723 Y144.905 E18.75841
G1 X97.988 Y144.098 E18.79471
G1 X97.54 Y143.543 E18.81843
G1 X96.633 Y142.363 E18.86794
G1 X96.115 Y141.623 E18.89798
G1 X95.664 Y140.841 E18.928
G1 X95.235 Y139.9 E18.9624
G1 X94.986 Y139.242 E18.9858
G1 X94.602 Y138.122 E19.02518
G1 X94.387 Y137.462 E19.04827
G1 X94.156 Y136.637 E19.07676
G1 X93.935 Y135.697 E19.10888
G1 X93.767 Y134.81 E19.13891
G1 X93.679 Y133.911 E19.16895
G1 X93.663 Y133.225 E19.19177
G1 X93.674 Y132.692 E19.2095
G1 X93.716 Y131.801 E19.23917
G1 X93.8 Y129.276 E19.3232
G1 X93.812 Y126.708 E19.40861
G1 X93.753 Y124.175 E19.49288
G1 X93.622 Y121.644 E19.57718
G1 X93.419 Y119.106 E19.66186
G1 X93.147 Y116.6 E19.7457
G1 X92.802 Y114.085 E19.83013
G1 X92.378 Y111.538 E19.91601
G1 X91.901 Y109.099 E19.99867
G1 X91.332 Y106.569 E20.08492
G1 X90.719 Y104.158 E20.16766
G1 X90.017 Y101.7 E20.25268
G1 X89.251 Y99.281 E20.33708
G1 X88.738 Y97.821 E20.38855
G1 X88.3 Y96.543 E20.43348
G1 X88.045 Y95.677 E20.46351
G1 X87.827 Y94.499 E20.50335
G1 X87.764 Y93.994 E20.52028
G1 X87.692 Y93.093 E20.55034
G1 F1500 E14.05034
;MESH:US_Quarter_cart_release_tool.stl
G0 F6000 X109.066 Y130.689
G0 X107.652 Y132.12
G0 X107.652 Y134.38
G0 X109.182 Y135.682
G1 F1500 E20.55034
G0 F6000 X109.437 Y135.363
;TYPE:WALL-OUTER
G1 F1200 X108.063 Y134.265 E20.60884
G1 X107.998 Y134.116 E20.61425
G1 X107.998 Y132.383 E20.67189
G1 X108.073 Y132.226 E20.67768
G1 X109.43 Y131.141 E20.73546
G1 X109.573 Y131.098 E20.74043
G1 X111.292 Y131.49 E20.79907
G1 X111.428 Y131.598 E20.80485
G1 X112.18 Y133.162 E20.86257
G1 X112.18 Y133.336 E20.86835
G1 X111.428 Y134.901 E20.9261
G1 X111.328 Y134.998 E20.93074
G1 X111.292 Y135.009 E20.93199
G1 X109.6 Y135.395 E20.98971
G1 X109.437 Y135.363 E20.99524
